EPVelasco/Descriptores_de_agarres/ds-1.csv
Nombre,Eje,Angulo,Joint0,Joint1,Joint2,Joint3,Joint4,Joint5,Joint6,Joint7,Joint8,Joint9,Joint10,Joint11,Joint12,Joint13,Joint14,Joint15,ts0,ts1,ts2,ts3,ts4,ts5,ts6,ts7,ts8,ts9,ts10,ts11,ts12,ts13,ts14,ts15,ts16,ts17,ts18,ts19,ts20,ts21,ts22,ts23,ts24,ts25,ts26,ts27,ts28,ts29,ts30,ts31,ts32,ts33,ts34,ts35,ts36,ts37,ts38,ts39,ts40,ts41,ts42,ts43,ts44,ts45,ts46,ts47,ts48,ts49,ts50,ts51,ts52,ts53,ts54,ts55,ts56,ts57,ts58,ts59,ts60,ts61,ts62,ts63,ts64,ts65,ts66,ts67,ts68,ts69,ts70,ts71,ts72,ts73,ts74,ts75,ts76,ts77,ts78,ts79,ts80,ts81,ts82,ts83,ts84,ts85,ts86,ts87,ts88,ts89,ts90,ts91,ts92,ts93,ts94,ts95,ts96,ts97,ts98,ts99,ts100,ts101,ts102,ts103,ts104,ts105,ts106,ts107,ts108,ts109,ts110,ts111,etiqueta
Botella01,x,0,-0.1409622534237640,0.5617693347976720,0.2370026787633860,-0.1595350506122750,0.0618163372989064,0.6897933142202430,0.0941735244026189,-0.1347224090890060,0.1606894481031100,0.7112620193586270,0.2841319297433000,-0.2875303862800930,1.3459932575708500,0.3807100381383760,0.1194707375594470,0.1927928408058000,0,0,0,0,0,0,0,0,0,0,0,0,0,0,0,0,0,0,0,0,0,0,0,0,0,0,0,0,0,0,0,0,0,0,0,0,0,0,0,0,0,0,0,0,0,0,0,0,0,0,0,0,0,0,0,0,0,0,0,0,0,0,0,0,0,0,0,0,0,0,0,0,0,0,0,0,0,0,0,0,0,0,0,0,0,0,0,0,0,8,7,0,0,3,0,0,0,0,0,0,0,0,0,0,0,0,0,0,0,0,0,0,1
Botella01,x,0,-0.0239785005314270,0.6287593391992570,0.1793957221352400,-0.1085951494115630,0.0502381809881912,0.6921046412498340,0.0526801968339220,-0.0710789958802619,0.1468156757030620,0.6714299298204550,0.2539408298190270,-0.3064530216131100,1.3564333766629300,0.3799076912771780,0.1601768114599370,0.2233145343001930,0,0,0,0,0,0,0,0,0,0,0,0,0,0,0,0,0,0,0,0,0,0,0,0,0,0,0,0,0,0,0,0,0,0,0,0,0,0,0,0,0,0,0,0,0,0,0,0,0,0,0,0,0,0,0,0,0,0,0,0,0,0,0,0,0,0,0,0,0,0,0,0,0,0,0,0,0,0,0,0,0,0,0,0,0,0,0,0,0,0,3,0,0,0,0,0,0,0,0,0,0,0,0,0,0,0,0,0,0,0,0,0,1
Botella01,x,0,-0.1210082263938810,0.7313758735827900,0.0666501653154130,-0.1694436311671050,0.0996294312129647,0.8701912502121120,-0.0469355227889530,-0.1444476661194130,0.1645793790804710,0.8660900257256140,0.1204074869888620,-0.3343281398992680,1.3862202397278800,0.3363568437590880,0.2447496681293680,0.2683166686156930,0,0,0,0,0,0,0,0,0,0,0,0,0,3,0,0,0,0,0,0,0,0,0,0,0,0,0,0,0,0,0,0,0,0,0,0,3,0,0,0,0,0,0,0,0,0,0,0,0,0,0,0,0,0,0,0,0,0,0,0,0,0,0,0,0,0,0,0,0,0,0,0,0,0,0,0,0,0,0,0,0,0,0,0,0,0,0,0,0,0,0,0,0,0,0,0,0,0,0,0,0,0,0,0,0,0,0,0,0,0,0,0,1
Botella01,x,0,-0.0599476660347240,0.6261879812252410,0.2118176781441730,-0.1698201907341660,0.0918186238930624,0.7558712594443440,0.0190623811398510,-0.1245150120000610,0.2226007287506430,0.7142806402228360,0.2822007424087950,-0.2008977683954740,1.3284568362752000,0.3584229714266690,0.1780473279103630,0.1317654810688360,0,0,0,0,0,0,0,0,0,0,0,0,0,0,0,0,0,0,0,0,0,0,0,0,0,0,0,0,0,0,0,0,0,0,0,0,0,0,0,0,0,0,0,0,0,0,0,0,0,0,0,0,0,0,0,0,0,0,0,0,0,0,0,0,0,0,0,0,0,0,0,0,0,0,0,0,0,0,0,0,0,0,0,0,0,0,0,0,0,0,0,0,0,0,0,0,0,0,0,0,0,0,0,0,0,0,0,0,0,0,0,0,1
Botella01,x,0,-0.0838366047717146,0.7238265591705870,0.0822865903624280,-0.1906219658889900,0.0718891032007829,0.8490268015452150,-0.0537056147614920,-0.1616990495230470,0.1612306459251980,0.8219613404631600,0.1376224766696080,-0.3226487223995170,1.3868382315788800,0.2891981180390600,0.2081740769409910,0.3485832195952090,0,0,0,0,15,0,0,0,0,0,0,0,0,0,0,0,0,0,0,0,0,0,0,0,0,0,0,0,5,0,0,0,8,0,0,0,0,0,0,0,0,0,0,0,0,0,0,0,0,0,0,0,0,0,0,0,0,0,0,0,0,0,0,0,0,0,0,0,0,0,0,0,0,0,0,0,0,0,0,0,0,0,0,0,0,0,0,0,0,0,0,0,0,0,0,0,0,0,0,0,0,0,0,0,0,0,0,0,0,0,0,0,1
Botella01,x,0,-0.1441235932603130,0.6507146019476770,0.1317529348106990,-0.1251364119927300,0.0643513174664970,0.7383812570303040,0.0513180328639961,-0.0926320141782121,0.1416271481191480,0.8089072034449190,0.2609388592403410,-0.2199029960616000,1.2879851620236100,0.2806561398875890,0.0998966936522729,0.2137584990082000,0,0,0,0,0,0,0,0,0,0,0,0,0,0,0,0,0,0,0,0,0,0,0,0,0,0,0,0,0,0,0,0,0,0,0,0,0,0,0,0,0,0,0,0,0,0,0,0,0,0,0,0,0,0,0,0,0,0,0,0,0,0,0,0,0,0,0,0,0,0,0,0,0,0,0,0,0,0,0,0,0,0,0,0,0,0,5,0,0,0,15,0,0,0,0,0,0,7,0,0,0,0,0,0,0,0,0,0,0,0,0,0,1
Botella01,x,0,-0.0754091299402809,0.7008895066236050,0.1008257858677550,-0.1921912524667410,0.0854144044243782,0.8306734416678610,-0.0499384458272979,-0.1619941742423030,0.1533133637738480,0.6892502484352410,0.3045637198884570,-0.2250826562359090,1.3816833362419500,0.3843067485289380,0.2608364485009690,0.1103335764273260,0,0,0,0,0,0,0,0,0,0,0,0,0,0,0,0,0,0,0,0,0,0,0,0,0,0,0,0,5,0,0,0,5,0,0,0,0,0,0,0,0,0,0,0,0,0,0,0,0,0,0,0,0,0,0,0,0,0,0,0,0,0,0,0,0,0,0,0,0,0,0,0,0,0,0,0,0,0,0,0,0,0,0,0,0,0,0,0,0,0,0,0,0,0,0,0,0,0,0,0,0,0,0,0,0,0,0,0,0,0,0,0,1
Botella01,x,0,-0.0466466882394665,0.6113913726635500,0.1500373784829580,-0.1712548482847260,0.0521722301247887,0.6910173986690640,-0.0407661284984610,-0.1647088179375950,0.2302445704840430,0.9755265802506060,0.1557799091383040,-0.3245856786416330,1.4139400519936400,0.3745623120908970,0.3056290795705820,0.1379890989582460,0,0,0,0,0,0,0,0,0,0,0,0,0,0,0,0,0,0,0,0,0,0,0,0,0,0,0,0,0,0,0,0,0,0,0,0,0,0,0,0,0,0,0,0,0,0,0,0,0,0,0,0,0,0,0,0,0,0,0,0,0,0,0,0,0,0,0,0,0,0,0,0,0,0,0,0,0,0,0,0,0,0,0,0,0,0,0,0,0,0,0,0,0,0,0,0,0,0,0,0,0,0,0,0,0,0,0,0,0,0,0,0,1
Botella01,x,0,-0.0831461308530292,0.7760948333658020,0.0290175743172540,-0.1829029586492010,0.0997989081285739,0.9022072825985720,-0.0146971075781900,-0.1299025920095770,0.2074708338273640,0.9788073636422390,0.1430855972725110,-0.3211725916387680,1.4304086957242600,0.3828048201397640,0.3462415359374230,0.2718376963934980,0,0,0,0,0,0,0,0,0,0,0,0,0,3,0,0,0,0,0,0,0,0,0,0,0,0,0,0,0,0,0,0,0,0,0,0,0,0,0,0,0,0,0,0,0,0,0,0,0,0,0,0,0,0,0,0,0,0,0,0,0,0,0,0,0,0,0,0,0,0,0,0,0,0,0,0,0,0,0,0,0,0,0,0,0,0,0,0,0,0,0,0,0,0,0,0,0,0,0,0,0,0,0,0,0,0,0,0,0,0,0,0,1
Botella01,x,0,-0.0840266792883195,0.6342829319878010,0.1442556488114550,-0.1243479708969630,0.0778065665164006,0.7315368827769680,0.0438494204098979,-0.0517535614039830,0.1564141685549580,0.7336100511017400,0.2260158945656590,-0.2801690115832210,1.3637096767878000,0.3753193293661430,0.0932726548788001,0.1302048888580120,0,0,0,0,0,0,0,0,0,0,0,0,0,0,0,0,0,0,0,0,0,0,0,0,0,0,0,0,0,0,0,0,0,0,0,0,0,0,0,0,0,0,0,0,0,0,0,0,0,0,0,0,0,0,0,0,0,0,0,0,0,0,0,0,0,0,0,0,0,0,0,0,0,0,0,0,0,0,0,0,0,0,0,0,0,11,0,0,0,0,0,13,0,0,0,0,0,0,0,0,0,0,0,0,0,0,0,0,0,0,0,0,1
Botella01,x,0,-0.0689138740478372,0.7121406861945620,0.0903753363482370,-0.1689288076391890,0.0909387139423411,0.8896902624258760,-0.0842876409275670,-0.1434599294742100,0.1688090069921010,0.8014071469614920,0.2051830766828980,-0.2440749725801130,1.3910887781030200,0.3814682081504310,0.2481237701962880,0.2293592333732320,0,0,0,0,0,0,0,0,0,0,0,0,0,11,0,0,0,0,0,0,0,0,0,0,0,0,0,0,0,0,0,0,0,0,0,0,0,0,0,0,0,0,0,0,0,0,0,0,0,0,0,0,0,0,0,0,0,0,0,0,0,0,0,0,0,0,0,0,0,0,0,0,0,0,0,0,0,0,0,0,0,0,0,0,0,0,0,0,0,0,0,0,0,0,0,0,0,0,0,0,0,0,0,0,0,0,0,0,0,0,0,0,1
Botella01,x,0,-0.0604172840012673,0.5976034602471470,0.1229631230919460,-0.1477838653029460,0.0559975965611496,0.6603896259059190,0.0441161647663720,-0.0908905438008171,0.1455767969729040,0.7045656578333650,0.2505691017109230,-0.3655257745664410,1.3438699516137200,0.3308162751050770,0.3146463427288640,0.1600904819499610,0,0,0,0,0,0,0,0,0,0,0,0,0,0,0,0,0,0,0,0,0,0,0,0,0,0,0,0,0,0,0,0,0,0,0,0,0,0,0,0,0,0,0,0,0,0,0,0,0,0,0,0,0,0,0,0,0,0,0,0,0,0,0,0,0,0,0,0,0,0,0,0,0,0,0,0,0,0,0,0,0,0,0,0,0,0,0,0,0,0,0,0,0,0,0,0,0,0,0,0,0,0,0,0,0,0,0,0,0,0,0,0,1
Botella01,x,0,-0.0338723513114117,0.7221839389229240,0.0884073776659570,-0.1688069246954290,0.0962709749925084,0.8499356832289150,-0.0455583091141980,-0.1415546293066120,0.1463397832855910,0.8312705299524680,0.1382419391922660,-0.3354706450118890,1.3881422575644100,0.3648990761356990,0.3767209352694670,0.1824624026155550,0,0,0,0,0,0,0,0,0,0,0,0,0,0,0,0,0,0,0,0,0,0,0,0,0,0,0,0,0,0,0,0,8,0,0,0,12,0,0,0,0,0,0,0,0,0,0,0,0,0,0,0,0,0,0,0,0,0,0,0,0,0,0,0,0,0,0,0,0,0,0,0,0,0,0,0,0,0,0,0,0,0,0,0,0,0,0,0,0,0,0,0,0,0,0,0,0,0,0,0,0,0,0,0,0,0,0,0,0,0,0,0,1
Botella01,x,0,-0.0723290138540219,0.7139798842058770,0.1092572200088020,-0.1674999643628370,0.0902373366364684,0.8511005722570670,-0.0151121176261471,-0.1433294448402270,0.2060454438277980,0.9196150178684530,0.1552128043533670,-0.3529389742509970,1.4108152110746200,0.3749031836428060,0.3122898863785860,0.2491758087846440,0,0,0,0,0,0,0,0,0,0,0,0,0,0,10,0,0,0,0,0,0,0,0,0,0,0,0,0,0,0,0,0,0,0,0,0,0,0,0,0,4,0,0,0,0,0,0,0,0,0,0,0,0,0,0,0,0,0,0,0,0,0,0,0,0,0,0,0,0,0,0,0,0,0,0,0,0,0,0,0,0,0,0,0,0,0,0,0,0,0,0,0,0,0,0,0,0,0,0,0,0,0,0,0,0,0,0,0,0,0,0,0,1
Botella01,x,0,-0.0124714045745284,0.7850847553832310,0.0505826853433010,-0.1906930572344460,0.0796024637036762,0.8292150261893130,-0.0718239564274350,-0.1809368199783560,0.1057334193308190,0.7030509828442020,0.1788537187671760,-0.3077234462661380,1.3873190934345700,0.3677769183922890,0.2612021673158330,0.1519107268720120,0,0,0,0,0,0,0,0,0,0,0,0,0,0,0,0,0,0,0,0,0,0,0,0,0,0,0,0,0,0,0,0,0,0,8,0,0,0,0,0,0,0,0,0,0,0,0,0,0,0,0,0,0,0,0,0,0,0,0,0,0,0,0,0,0,0,0,0,0,0,0,0,0,0,0,0,0,0,0,0,0,0,0,0,0,0,0,0,0,0,0,0,0,0,0,0,0,0,0,0,0,0,0,0,0,0,0,0,0,0,0,0,1
Botella01,x,0,-0.0832737020333548,0.7204967836631770,0.1289247753308680,-0.2001198956097300,0.0898520835135252,0.8932920036851530,-0.0787227663921001,-0.1744577491468490,0.2115569973491090,0.8265218676218230,0.1707142169599810,-0.3083975682093030,1.4230320082105200,0.3736110015960050,0.1179130241983420,0.4605368523501820,0,0,0,0,11,0,0,0,0,0,0,0,0,0,0,0,0,0,0,0,0,0,0,0,0,0,0,0,0,0,0,0,0,0,0,0,0,0,0,0,0,0,0,0,0,0,0,0,0,0,0,0,0,0,0,0,0,0,0,0,0,0,0,0,0,0,0,0,0,0,0,0,0,0,0,0,0,0,0,0,0,0,0,0,0,0,0,0,0,0,0,0,0,0,0,0,0,0,0,0,0,0,0,0,0,0,0,0,0,0,0,0,1
Botella01,x,0,-0.0857363976499732,0.6733670069280260,0.0738070510396071,-0.1532647889018700,0.0947937697233063,0.7374663699069390,0.0040168404589690,-0.0749654687288890,0.1388961213469490,0.6815088809111310,0.2507861068419440,-0.2653691744387890,1.3518048272205200,0.3348515631047810,0.0539160321948746,0.2386858553108550,0,0,0,0,0,0,0,0,0,0,0,0,0,0,0,0,0,0,0,0,0,0,0,0,0,0,0,0,0,0,0,0,0,0,0,0,0,0,0,0,0,0,0,0,0,0,0,0,0,0,0,0,0,0,0,0,0,0,0,0,0,0,0,0,0,0,0,0,0,0,0,0,0,0,0,0,0,0,0,0,0,0,0,0,0,0,0,0,0,17,0,11,0,7,0,0,0,0,0,0,0,0,0,0,0,0,0,0,0,0,0,0,1
Botella01,x,0,-0.0683849505662307,0.6879768374467140,0.1357896505920090,-0.2224421490397870,0.1174226179916490,0.8608048601968050,0.0223328266198040,-0.1037330966230370,0.2054663104295440,0.9789286134405230,0.1422312252118870,-0.3173783529130870,1.4318783244419200,0.3819970929510700,0.1574892802021790,0.2407666387580540,0,0,0,0,0,0,0,0,0,0,0,0,0,0,0,0,0,0,0,0,0,0,0,0,0,0,0,0,0,0,0,0,0,0,0,0,0,0,0,0,0,0,0,0,0,0,0,0,0,0,0,0,0,0,0,0,0,0,0,0,0,0,0,0,0,0,0,0,0,0,0,0,0,0,0,0,0,0,0,0,0,0,0,0,0,0,0,0,0,0,0,0,0,0,0,0,0,0,0,0,0,0,0,0,0,0,0,0,0,0,0,0,1
Botella01,x,0,-0.0364257230881793,0.6025974414758330,0.1298449914656010,-0.1772432519070960,0.0483865976562914,0.6588658969860090,0.0413011089000781,-0.0790821591934661,0.1453856209960310,0.6787712463501870,0.2590824180318080,-0.3353982188896450,1.3515609596075400,0.3384141356149370,0.3161715844635750,0.1621084647798620,0,0,0,0,0,0,0,0,0,0,0,0,0,0,0,0,0,0,0,0,0,0,0,0,0,0,0,0,0,0,0,0,0,0,0,0,0,0,0,0,0,0,0,0,0,0,0,0,0,0,0,0,0,0,0,0,0,0,0,0,0,0,0,0,0,0,0,0,0,0,0,0,0,0,0,0,0,0,0,0,0,0,0,0,0,0,0,0,0,0,0,0,0,0,0,0,0,0,0,0,0,0,0,0,0,0,0,0,0,0,0,0,1
Botella01,x,0,-0.1091850852190380,0.7347130105926240,0.1168315418983160,-0.2177018351244030,0.0596485240694781,0.8942379956381060,-0.0650972388558511,-0.1571292976232260,0.1503253407084630,0.8695979686117390,0.2173999139246710,-0.2999578618676460,1.3630705547053500,0.3316528717904920,0.1992968868137660,0.4297390196930360,0,0,0,0,0,0,0,0,0,0,0,0,0,0,0,0,0,0,0,0,0,0,0,0,0,0,0,0,0,0,0,0,0,0,0,0,0,0,0,0,0,0,0,0,0,0,0,0,0,0,0,0,0,0,0,0,0,0,0,0,0,0,0,0,0,0,0,0,0,0,0,0,0,0,0,0,0,0,0,0,0,0,0,0,0,0,0,0,0,0,0,0,0,0,0,0,0,0,0,0,0,0,0,0,0,0,0,0,0,0,0,0,1
Botella01,x,0,-0.0535266117511618,0.8333162984624270,0.1015237461054660,-0.2398616952454000,0.0915351171584987,0.8469723309056350,-0.0333853317333630,-0.1559367568424300,0.0751173486755539,0.7410925037025120,0.2214402840696670,-0.1334812126074030,1.3159754404273500,0.3906890174799250,0.1846832421929180,0.3707372734234950,0,0,0,0,0,0,0,0,0,0,0,0,0,0,0,0,0,0,0,0,0,0,0,0,0,0,0,0,0,0,10,0,0,0,0,0,0,0,0,0,0,0,0,0,0,0,0,0,0,0,0,0,0,0,0,0,0,0,0,0,0,0,0,0,0,0,0,0,0,0,0,0,0,0,0,0,0,0,0,0,0,0,0,0,0,0,0,0,0,0,0,0,0,0,0,0,0,0,0,0,0,0,0,0,0,0,0,0,0,0,0,0,1
Botella01,x,0,-0.1060277695733110,0.6243217148881260,0.1324026795997490,-0.1611937218829710,0.0752474380725551,0.7331890460062700,-0.0069981252207970,-0.0964167217829960,0.1567809553561400,0.7306171743370970,0.1825927336781130,-0.3077067374624000,1.3722036671734400,0.3207857403229660,0.1148483481896040,0.1715240838752020,0,0,0,0,0,0,0,0,0,0,0,0,0,0,0,0,0,0,0,0,0,0,0,0,0,0,0,0,0,0,0,0,0,0,0,0,0,0,0,0,0,0,0,0,0,0,0,0,0,0,0,0,0,0,0,0,0,0,0,0,0,0,0,0,0,0,0,0,0,0,0,0,0,0,0,0,0,0,0,0,0,0,0,0,0,0,0,0,0,0,5,0,0,0,9,0,0,3,8,0,0,0,0,0,0,0,0,0,0,0,0,0,1
Botella01,x,0,-0.0763140693537010,0.6551262928558530,0.1084207681131520,-0.1825818272464670,0.0751346301993653,0.7555564952846300,-0.0282893918822930,-0.1252681711240580,0.1680640257248720,0.7658844871668450,0.1529181320871990,-0.3018048586634160,1.4015977507280000,0.3814843666576790,0.0559439946822501,0.2330003979701930,0,0,0,0,0,0,0,0,0,0,0,0,0,0,0,0,0,0,0,0,0,0,0,0,0,0,0,0,0,0,0,0,0,0,0,0,0,0,0,0,0,0,0,0,0,0,0,0,0,0,0,0,0,0,0,0,0,0,0,0,0,0,0,0,0,0,0,0,0,0,0,0,0,0,0,0,0,0,0,0,0,0,0,0,0,0,0,0,0,0,0,0,0,0,0,0,0,0,4,0,0,0,0,0,0,0,0,0,0,0,0,0,1
Botella01,x,0,-0.0839495372578837,0.6736120101188770,0.1652259579911230,-0.2013128056122520,0.0830990174770845,0.7990293254347090,-0.0241594137206620,-0.1502801270629880,0.1483702089684670,0.6949987447319800,0.2622104768096050,-0.2520253228397700,1.3792869153652800,0.3564500928542870,0.1205932327901000,0.2588955796701160,0,0,0,0,0,16,0,0,0,0,0,0,0,0,0,0,0,0,0,0,0,0,0,0,0,0,0,0,0,0,0,0,0,0,0,0,0,0,0,0,0,0,0,0,0,0,0,0,0,0,0,0,0,0,0,0,0,0,0,0,0,0,0,0,0,0,0,0,0,0,0,0,0,0,0,0,0,0,0,0,0,0,0,0,0,0,0,0,0,0,0,0,0,0,0,0,0,0,0,0,0,0,0,0,0,0,0,0,0,0,0,0,1
Botella01,x,0,-0.1182142712377820,0.6881093471720070,0.0790765019699899,-0.1646288560029380,0.0785541131815078,0.7755200446889360,0.0093583879603160,-0.1036677333008480,0.1848135664356240,0.8154645311628330,0.1860327258553370,-0.2956194877541200,1.3919116555999800,0.3284012010416000,0.0530977069231631,0.2580037335066080,0,0,0,0,0,0,0,0,0,0,0,0,0,0,0,0,0,0,0,0,0,0,0,0,0,0,0,0,0,0,0,0,0,0,0,0,0,0,0,0,0,0,0,0,0,0,0,0,0,0,0,0,0,0,0,0,0,0,0,0,0,0,0,0,0,0,0,0,0,0,0,0,0,0,0,0,0,0,0,0,0,0,0,0,0,0,0,0,0,0,0,0,0,0,0,0,0,0,0,0,0,0,0,0,0,0,0,0,0,0,0,0,1
Botella01,x,0,-0.0593009333983219,0.6649661249116190,0.1126146728887480,-0.1756127429171020,0.0835739032507220,0.7812166943247200,-0.0389181222775630,-0.1632149180440520,0.1498680242185120,0.7503585228380280,0.1719947017421540,-0.2673689582211340,1.4081985306276600,0.3504618510414420,0.0643018855206214,0.2792003966693630,0,0,0,0,0,0,0,0,0,0,0,0,0,0,0,0,0,0,0,0,0,0,0,0,0,0,0,0,0,0,0,0,0,0,0,0,0,0,0,0,0,0,0,0,0,0,0,0,0,0,0,0,0,0,0,0,0,0,0,0,0,0,0,0,0,0,0,0,0,0,0,0,0,0,0,0,0,0,0,0,0,0,0,0,0,0,0,0,0,0,0,0,0,0,0,9,0,0,3,0,0,0,0,0,0,0,0,0,0,0,0,0,1
Botella01,x,0,-0.0741509953537164,0.6247442271266850,0.1867619152080890,-0.1497878612538660,0.0837761600868112,0.7005214120948580,0.0265435709842210,-0.0798306548641350,0.1413007240766130,0.6496185936458240,0.2640405424264610,-0.2900727630453560,1.3259473044672900,0.3363428439728880,0.1134096690378300,0.1740044449086650,0,0,0,0,0,0,0,0,0,0,0,0,0,0,0,0,0,0,0,0,0,0,0,0,0,0,0,0,0,0,0,0,0,0,0,0,0,0,0,0,0,0,0,0,0,0,0,0,0,0,0,0,0,0,0,0,0,0,0,0,0,0,0,0,0,0,0,0,0,0,0,0,0,0,0,0,0,0,0,0,0,0,0,0,0,0,0,0,0,0,0,0,0,10,0,0,0,0,0,4,0,0,0,0,0,0,0,0,0,0,0,0,1
Botella01,x,0,-0.0686674830311630,0.7678566726107350,0.0397113227554641,-0.1937314208088080,0.0925847729505910,0.8705578353848300,-0.0879949928951490,-0.1521647287517720,0.1463602364922320,0.7301520507498810,0.2642333095987670,-0.2024812122685180,1.3581053238587400,0.3471369263893360,0.2611313512276680,0.2684377161023750,0,0,0,0,0,0,0,0,0,0,0,0,0,0,3,0,0,0,0,0,0,0,0,0,0,0,0,0,0,0,0,0,0,3,0,0,0,0,0,0,0,0,0,0,0,0,0,0,0,0,0,0,0,0,0,0,0,0,0,0,0,0,0,0,0,0,0,0,0,0,0,0,0,0,0,0,0,0,0,0,0,0,0,0,0,0,0,0,0,0,0,0,0,0,0,0,0,0,0,0,0,0,0,0,0,0,0,0,0,0,0,0,1
Botella01,x,0,-0.0224411920993940,0.5862394601105320,0.1191525176366750,-0.1263987109614090,0.0660881597255913,0.6463361423776140,0.0534050325935349,-0.0898347462815270,0.1351119616626110,0.6589992594051200,0.1848194521643360,-0.2842764133160290,1.3449754007725100,0.3698997272861300,0.3079992492432760,0.1630837222819830,0,0,0,0,0,0,0,0,0,0,0,0,0,0,0,0,0,0,0,0,0,0,0,0,0,0,0,0,0,0,0,0,0,0,0,0,0,0,0,0,0,0,0,0,0,0,0,0,0,0,0,0,0,0,0,0,0,0,0,0,0,0,0,0,0,0,0,0,0,0,0,0,0,0,0,0,0,0,0,0,0,0,0,0,0,0,0,0,0,0,0,0,0,0,0,0,0,0,0,0,0,0,0,0,0,0,0,0,0,0,0,0,1
Botella01,x,0,-0.0789185806979753,0.6922134262673260,0.1154713898856150,-0.0571834929468720,0.0781877061330681,0.8101313644170170,-0.0111297388060011,-0.1352043885349210,0.1626866025483300,0.8064778681385230,0.1912218811231640,-0.2533639019470950,1.3665536244027100,0.3387384722819900,0.0374899606437964,0.1626794493193470,0,0,0,0,0,0,0,0,0,0,0,0,0,0,0,0,0,0,0,0,0,0,0,0,0,0,0,0,0,0,0,0,0,0,0,0,0,0,0,0,0,0,0,0,0,0,0,0,0,0,0,0,0,0,0,0,0,0,0,0,0,0,0,0,0,0,0,0,0,0,0,0,0,0,0,0,0,0,0,0,0,0,0,0,0,0,0,0,0,0,0,0,0,0,0,0,0,0,0,0,0,0,0,0,0,0,0,0,0,0,0,0,1
Botella01,x,0,-0.0495492127340633,0.7162302044586170,0.0950725748245310,-0.1601359793254170,0.0831333414885799,0.8878598329846630,-0.0981984459675300,-0.1611923710264820,0.1841640154936470,0.9422695208561340,0.0953353155625660,-0.3553904731712100,1.4475792376688100,0.3882484027224580,0.2590270857293760,0.3622995047960380,0,0,0,0,0,0,4,0,0,0,0,0,0,0,0,0,0,0,0,0,0,0,0,0,0,0,0,0,0,0,0,0,0,0,0,0,3,0,0,0,0,0,0,0,0,0,0,0,0,0,0,0,0,0,0,0,0,0,0,0,0,0,0,0,0,0,0,0,0,0,0,0,0,0,0,0,0,0,0,0,0,0,0,0,0,0,0,0,0,0,0,0,0,0,0,0,0,0,0,0,0,0,0,0,0,0,0,0,0,0,0,0,1
Botella01,x,0,-0.0646627964312966,0.8267403770378030,0.0234880585646500,-0.1498602733062220,0.0588786622194985,0.8160443660707170,-0.0424363232191820,-0.1506067744671550,0.0634275922546300,0.7098486231699720,0.2914972092684780,-0.2460706085039060,1.3317500011618900,0.3517369159017480,0.1665543721156160,0.2599320269323320,0,0,0,0,0,0,0,0,0,0,0,0,0,0,0,0,0,0,0,0,0,0,0,0,0,0,0,0,0,0,0,0,0,0,0,0,0,0,0,0,0,0,0,0,0,0,0,0,0,0,0,0,0,0,0,0,0,0,0,0,0,0,0,0,0,0,0,0,0,0,0,0,0,0,0,0,0,0,0,0,0,0,0,0,0,0,0,0,0,0,0,0,0,0,0,0,11,0,0,0,0,0,0,0,0,0,0,0,0,0,0,0,1
Botella01,x,0,-0.0809186832977407,0.7888304025200220,0.0130654900317890,-0.1634939673823360,0.0953437976087043,0.8936701561728830,-0.0695363759173830,-0.1901770606286030,0.1551144812662540,0.7374478650082480,0.3017086971285220,-0.2145140155531130,1.3909726804613500,0.3824964032260310,0.1854801378092100,0.3218442564877740,0,0,0,0,0,0,0,0,0,0,0,0,13,0,0,0,0,0,0,0,0,0,0,0,0,0,0,0,0,0,0,0,0,0,0,0,0,0,0,0,0,0,0,0,0,0,0,0,0,0,0,0,0,0,0,0,0,0,0,0,0,0,0,0,0,0,0,0,0,0,0,0,0,0,0,0,0,0,0,0,0,0,0,0,0,0,0,0,0,0,0,0,0,0,0,0,0,0,0,0,0,0,0,0,0,0,0,0,0,0,0,0,1
Botella01,x,0,-0.0831962883665802,0.7754908844759410,0.0255452762646681,-0.1893988253966170,0.0990894567616820,0.8858884107020310,-0.0479313319001400,-0.1945398930488080,0.1449401179994860,0.8019556902348030,0.3109026083765770,-0.2481611871287010,1.3835291356328200,0.3387935655652210,0.1186232837723340,0.4126008691425100,0,0,0,0,0,0,0,0,0,0,0,0,0,7,0,0,0,0,0,0,0,0,0,0,0,0,0,0,0,0,0,0,0,0,0,0,0,0,0,0,0,0,0,0,0,0,0,0,0,0,0,0,0,0,0,0,0,0,0,0,0,0,0,0,0,0,0,0,0,0,0,0,0,0,0,0,0,0,0,0,0,0,0,0,0,0,0,0,0,0,0,0,0,0,0,0,0,0,0,0,0,0,0,0,0,0,0,0,0,0,0,0,1
Botella01,x,0,-0.1099674595703140,0.6993693493395100,0.1375188500504990,-0.1653613809246740,0.0838860735860034,0.8828371238716520,-0.0747141622396190,-0.1523833053168920,0.1413365478534910,0.8001042400651460,0.2310125369266940,-0.2293234012731700,1.3820023433248900,0.3648004073822710,0.0941846821789147,0.3329569952756190,0,0,0,0,3,0,0,0,0,0,0,0,0,0,0,0,0,0,0,0,0,0,0,0,0,0,0,0,0,4,0,0,0,0,0,0,0,0,0,0,0,0,0,0,0,0,0,0,0,0,0,0,0,0,0,0,0,0,0,0,0,0,0,0,0,0,0,0,0,0,0,0,0,0,0,0,0,0,0,0,0,0,0,0,0,0,0,0,0,0,0,0,0,0,0,0,0,0,0,0,0,0,0,0,0,0,0,0,0,0,0,0,1
Botella01,x,0,-0.0709411249651882,0.6719031229805030,0.1207765911009650,-0.0954761389827330,0.0839045126741086,0.7546772168647240,0.0177153981474610,-0.0899128982562590,0.1441285073915420,0.6756926170001070,0.2919757920889490,-0.1966953172253450,1.3600957430431800,0.3458097937094960,0.0412065656984199,0.2506794265331140,0,0,0,0,0,0,0,0,0,0,0,0,0,0,0,0,0,0,0,0,0,0,0,0,0,0,0,0,0,0,0,0,0,0,0,0,0,0,0,0,0,0,0,0,0,0,0,0,0,0,0,0,0,0,0,0,0,0,0,0,0,0,0,0,0,0,0,0,0,0,0,0,0,0,0,0,0,0,0,0,0,0,0,0,0,0,0,4,0,0,0,0,0,0,13,0,0,0,5,0,0,0,0,0,0,0,0,0,0,0,0,0,1
Botella01,x,0,-0.0712198306019824,0.6406713771817410,0.1086915678720700,-0.1407628267448380,0.0697663589542519,0.7253171253846460,0.0211134535158960,-0.1075040836867670,0.1384600001072680,0.6886317089249060,0.2370094733037580,-0.3152515986323750,1.3093233049006000,0.3499462664937540,0.1199239148025750,0.1949199514510600,0,0,0,0,0,0,0,0,0,0,0,0,0,0,0,0,0,0,0,0,0,0,0,0,0,0,0,0,0,0,0,0,0,0,0,0,0,0,0,0,0,0,0,0,0,0,0,0,0,0,0,0,0,0,0,0,0,0,0,0,0,0,0,0,0,0,0,0,0,0,0,0,0,0,0,0,0,0,0,0,0,0,0,0,0,0,0,0,0,0,0,0,0,0,0,0,0,7,0,0,0,0,0,0,0,0,0,0,0,0,0,0,1
Botella01,x,0,-0.0430085192877084,0.6302604009544630,0.1575076267964060,-0.1894227688563730,0.0856655354172071,0.7076304103314920,0.0024871262287780,-0.0813366154557970,0.2209607551700870,0.9813626742022890,0.1368726438136010,-0.3209271263254370,1.4254110049307300,0.3887888537735850,0.0905206042952062,0.2034809589287780,0,0,0,0,0,0,0,0,0,0,0,0,0,0,0,0,0,0,0,0,0,0,0,0,0,0,0,0,0,0,0,0,0,0,0,0,0,0,0,0,0,0,0,0,0,0,0,0,0,0,0,0,0,0,0,0,0,0,0,0,0,0,0,0,0,0,0,0,0,0,0,0,0,0,0,0,0,0,0,0,0,0,0,0,0,0,0,4,0,0,3,0,0,0,0,0,0,0,0,0,0,0,0,0,0,0,0,0,0,0,0,0,1
Botella01,x,0,-0.0430512291837096,0.6554450795036080,0.1189336538612700,-0.1498754600871030,0.0668734984776076,0.7869444003021930,-0.0437222255047640,-0.1915182796989000,0.1655485723873450,0.8217871968725110,0.0813193435369470,-0.2907645362071360,1.4451435736476000,0.3595029341893560,0.1131482787718020,0.1739563552504010,0,0,0,0,0,0,0,0,0,0,0,0,0,0,0,0,0,0,0,0,0,0,0,0,0,0,0,0,4,0,0,0,0,0,0,0,0,0,0,0,0,0,0,0,0,0,0,0,0,0,0,0,0,0,0,0,0,0,0,0,0,0,0,0,0,0,0,0,0,0,0,0,0,0,0,0,0,0,0,0,0,0,0,0,0,0,0,0,0,0,0,0,0,0,0,0,0,0,0,0,0,0,0,0,0,0,0,0,0,0,0,0,1
Botella01,x,0,-0.0438459491047636,0.7106365544543750,0.0915632206711610,-0.2160207473344630,0.0904607038766799,0.8255055407244520,-0.0336065815760430,-0.1695510914357160,0.1501473022576720,0.8195288158052160,0.1023143876211290,-0.2762425986329430,1.3899175322953800,0.2975555504162510,0.2015931809848450,0.2947762401977140,0,0,0,0,0,0,0,0,0,0,0,0,0,0,0,0,0,0,0,0,0,0,0,0,0,0,0,0,3,0,0,0,9,0,0,0,0,0,0,0,0,0,0,0,0,0,0,0,0,0,0,0,0,0,0,0,0,0,0,0,0,0,0,0,0,0,0,0,0,0,0,0,0,0,0,0,0,0,0,0,0,0,0,0,0,0,0,0,0,0,0,0,0,0,0,0,0,0,0,0,0,0,0,0,0,0,0,0,0,0,0,0,1
Botella01,x,0,-0.1030519012161720,0.6316252261533110,0.1544872398268730,-0.1520617951834130,0.0667459648675384,0.7449839261684680,0.0284027839024470,-0.0820268822054430,0.1415905035386580,0.7324090570525100,0.2560558823926930,-0.2484344572485940,1.2983323349406600,0.3333136970655230,0.1037740283076040,0.1986953714361460,0,0,0,0,0,0,0,0,0,0,0,0,0,0,0,0,0,0,0,0,0,0,0,0,0,0,0,0,0,0,0,0,0,0,0,0,0,0,0,0,0,0,0,0,0,0,0,0,0,0,0,0,0,0,0,0,0,0,0,0,0,0,0,0,0,0,0,0,0,0,0,0,0,0,0,0,0,0,0,0,0,0,0,0,0,0,0,0,0,0,24,0,0,0,4,0,0,4,0,0,0,0,0,0,0,0,0,0,0,0,0,0,1
Botella01,x,0,-0.0709031711084093,0.6599140671082680,0.1642671358473780,-0.1682425779103210,0.1035139360017560,0.7603773831559100,0.0122643723415581,-0.1438310612434120,0.2185085468059870,0.6589747193479160,0.3422264859083240,-0.1727733260268150,1.3663870989332700,0.3447217102955420,0.0469140047359706,0.2635352241873710,0,0,0,0,0,0,0,0,0,0,0,0,0,0,0,0,0,0,0,0,0,0,0,0,0,0,0,0,0,0,0,0,0,0,0,0,0,0,0,0,0,0,0,0,0,0,0,0,0,0,0,0,0,0,0,0,0,0,0,0,0,0,0,0,0,0,0,0,0,0,0,0,0,0,0,0,0,0,0,0,0,0,0,0,0,0,0,0,0,0,0,0,0,0,0,24,0,0,8,0,0,0,0,0,0,0,0,0,0,0,0,0,1
Botella01,x,0,-0.0880700660896749,0.7230375472201900,0.1123645751544500,-0.1523523619209890,0.0829757600097519,0.8958401745001640,-0.0953073022989880,-0.1422291794362990,0.1401736615162530,0.8002971919833770,0.2371195769327230,-0.2377745074169610,1.3650961735593400,0.3393119804022750,0.1047935137086590,0.3614785919332820,0,0,0,0,0,0,0,0,0,0,0,0,0,0,0,0,0,0,0,0,0,0,0,0,0,0,0,0,0,0,0,0,0,0,0,0,0,0,0,0,0,0,0,0,0,0,0,0,0,0,0,0,0,0,0,0,0,0,0,0,0,0,0,0,0,0,0,0,0,0,0,0,0,0,0,0,0,0,0,0,0,0,0,0,0,0,0,0,0,0,0,0,0,0,0,0,0,0,0,0,0,0,0,0,0,0,0,0,0,0,0,0,1
Botella01,x,0,-0.1258690485688210,0.6487236560222490,0.0961531142323789,-0.1734255722090070,0.0790166908767325,0.7351907683411920,0.0210718270516730,-0.1400777744573730,0.1436969084885830,0.7174924130133570,0.2712967165888690,-0.2725124660778890,1.3206286521272100,0.3411914516273380,0.1072829438937720,0.2389095934469070,0,0,0,0,0,0,0,0,0,0,0,0,0,0,0,0,0,0,0,0,0,0,0,0,0,0,0,0,0,0,0,0,0,0,0,0,0,0,0,0,0,0,0,0,0,0,0,0,0,0,0,0,0,0,0,0,0,0,0,0,0,0,0,0,0,0,0,0,0,0,0,0,0,0,0,0,0,0,0,0,0,0,0,0,0,0,0,0,0,0,0,0,0,0,7,0,0,4,3,0,0,0,0,0,0,0,0,0,0,0,0,0,1
Botella01,x,0,-0.0318262606010742,0.6924303371415190,0.0921087614992280,-0.1977452708910870,0.0559239835084504,0.8139838434915060,-0.0323725395977600,-0.1543562430443500,0.1557029326359490,0.8839601908111920,0.0591449032073490,-0.3007895315921150,1.4304015058872000,0.3427994377734620,0.1532143201278440,0.3088566103689550,0,0,0,0,0,0,0,0,0,0,0,0,0,0,0,0,0,0,0,0,0,0,0,0,0,0,0,0,5,0,0,0,0,0,0,0,0,0,0,0,0,0,0,0,0,0,0,0,0,0,0,0,0,0,0,0,0,0,0,0,0,0,0,0,0,0,0,0,0,0,0,0,0,0,0,0,0,0,0,0,0,0,0,0,0,0,0,0,0,0,0,0,0,0,0,0,0,0,0,0,0,0,0,0,0,0,0,0,0,0,0,0,1
Botella01,x,0,-0.0706113890904410,0.6496821050200070,0.1283381016689990,-0.1369140476398840,0.0729571533363633,0.7426637508732260,0.0413718965407690,-0.0623140766341520,0.1356887513840390,0.7181055144622580,0.3188984462371220,-0.2027153763222690,1.2944118170358200,0.2950424121767980,0.1001887646365110,0.1882756112544760,0,0,0,0,0,0,0,0,0,0,0,0,0,0,0,0,0,0,0,0,0,0,0,0,0,0,0,0,0,0,0,0,0,0,0,0,0,0,0,0,0,0,0,0,0,0,0,0,0,0,0,0,0,0,0,0,0,0,0,0,0,0,0,0,0,0,0,0,0,0,0,0,0,0,0,0,0,0,0,0,0,0,0,0,0,0,8,0,0,4,8,0,0,0,0,0,0,0,0,0,0,0,0,0,0,0,0,0,0,0,0,0,1
Botella01,x,0,-0.0806560648088492,0.7350655270816120,0.0695613324495050,-0.1963511830064470,0.0892532756794163,0.9037275005963960,-0.0564222177442439,-0.1425186841993390,0.2060110628906680,0.9628731935549180,0.1646835598174820,-0.3157830673224720,1.4240049220550800,0.4048406038227600,0.4186657509375340,0.2347620164156860,0,0,0,0,0,4,0,0,0,0,0,0,0,0,0,0,0,0,0,0,0,0,0,0,0,0,0,0,0,0,0,0,0,0,0,0,0,0,0,0,0,0,0,0,0,0,0,0,0,0,0,0,0,0,0,0,0,0,0,0,0,0,0,0,0,0,0,0,0,0,0,0,0,0,0,0,0,0,0,0,0,0,0,0,0,0,0,0,0,0,0,0,0,0,0,0,0,0,0,0,0,0,0,0,0,0,0,0,0,0,0,0,1
Botella01,x,0,-0.1195975586499230,0.6453287773481550,0.1260771262208530,-0.1237298417610970,0.0692258270010735,0.7779641624183220,0.0115574359356760,-0.1508290954941080,0.1373051652956970,0.8173487118104770,0.1834197108939130,-0.2830200219141280,1.2734676143074300,0.2684521084778990,0.1251704365067480,0.0524096467739770,0,0,0,0,0,0,0,0,0,0,0,0,0,0,0,0,0,0,0,0,0,0,0,0,0,0,0,0,0,0,0,0,0,0,0,0,0,0,0,0,0,0,0,0,0,0,0,0,0,0,0,0,0,0,0,0,0,0,0,0,0,0,0,0,0,0,0,0,0,0,0,0,0,0,0,0,0,0,0,0,0,0,0,0,0,0,0,0,0,0,17,0,0,0,0,0,0,13,0,0,0,0,0,0,0,0,0,0,0,0,0,0,1
Botella01,x,0,-0.0164126854289033,0.6062809023846170,0.1443570675349620,-0.1510908916419000,0.0544267964407616,0.6928440674612190,0.0015797772928791,-0.1117866369826370,0.1467553011822890,0.6370618970858980,0.2130045790049280,-0.2791288447897400,1.3658989976485800,0.3737725680199310,0.2747430689735590,0.1590737281697700,0,0,0,0,0,0,0,0,0,0,0,0,0,0,0,0,0,0,0,0,0,0,0,0,0,0,0,0,0,0,0,0,0,0,0,0,0,0,0,0,0,0,0,0,0,0,0,0,0,0,0,0,0,0,0,0,0,0,0,0,0,0,0,0,0,0,0,0,0,0,0,0,0,0,0,0,0,0,0,0,0,0,0,0,0,0,0,0,0,0,0,0,0,0,0,0,0,0,0,0,0,0,0,0,0,0,0,0,0,0,0,0,1
Botella01,x,0,-0.0560384848420533,0.6551109199335460,0.1206716802761650,-0.1452661298869320,0.0974851970166755,0.7246237146085400,0.0507485099252660,-0.1269942466060380,0.1305274848918020,0.6730969159310370,0.2410515507750870,-0.2857074207179070,1.3141463719195000,0.3402311541592180,0.0809157988125568,0.1954848890376870,0,0,0,0,0,0,0,0,0,0,0,0,0,0,0,0,0,0,0,0,0,0,0,0,0,0,0,0,0,0,0,0,0,0,0,0,0,0,0,0,0,0,0,0,0,0,0,0,0,0,0,0,0,0,0,0,0,0,0,0,0,0,0,0,0,0,0,0,0,0,0,0,0,0,0,0,0,0,0,0,0,0,0,0,0,8,0,0,0,0,6,0,0,0,0,0,0,0,0,0,0,0,0,0,0,0,0,0,0,0,0,0,1
Botella01,x,0,-0.1184838768321770,0.6453060842098510,0.1439881143838730,-0.1654081913890760,0.0753895419282334,0.7524377439537800,0.0068768398030270,-0.1221577143865640,0.1388565819273020,0.6866472358407150,0.2724781948752540,-0.2251228825393380,1.2929968342413800,0.3009974189385410,0.1937190464557170,0.1591848398004620,0,0,0,0,0,14,0,0,0,0,0,0,0,0,0,0,0,0,0,0,0,0,0,0,0,0,0,0,0,0,0,0,0,0,0,0,0,0,0,0,0,0,0,0,0,0,0,0,0,0,0,0,0,0,0,0,0,0,0,0,0,0,0,0,0,0,0,0,0,0,0,0,0,0,0,0,0,0,0,0,0,0,0,0,0,0,0,0,0,0,0,0,0,0,0,0,0,6,0,0,0,0,0,0,0,0,0,0,0,0,0,0,1
Botella01,x,0,-0.0931181761404339,0.6359367073321470,0.0911865180458480,-0.1540764828074310,0.0703501573921860,0.7092566373044000,0.0410882586006760,-0.0748539781696060,0.1427609818152910,0.7104679941152320,0.2619923707981040,-0.2977802430349220,1.3061142300150200,0.2886871692986910,0.1264262342152630,0.2078382588846230,0,0,0,0,0,0,0,0,0,0,0,0,0,0,0,0,0,0,0,0,0,0,0,0,0,0,0,0,0,0,0,0,0,0,0,0,0,0,0,0,0,0,0,0,0,0,0,0,0,0,0,0,0,0,0,0,0,0,0,0,0,0,0,0,0,0,0,0,0,0,0,0,0,0,0,0,0,0,0,0,0,0,0,0,0,0,3,0,0,0,17,0,0,0,7,0,0,0,0,0,0,0,0,0,0,0,0,0,0,0,0,0,1
Botella01,x,0,-0.0243855026509017,0.6741567402897320,0.1297409296700390,-0.1503340217016560,0.1109187516961440,0.8269012248396680,-0.0143203306154049,-0.1536797567842570,0.1706575291757140,0.8138954702629940,0.1388102297865650,-0.3073322663644670,1.4048376232932000,0.3603809714068500,0.3811223838356270,0.1068937623447970,0,0,0,0,0,0,0,0,0,0,0,0,0,0,0,0,0,0,0,0,0,0,0,0,0,0,0,0,0,0,0,0,0,0,0,0,0,6,0,0,0,5,0,0,0,0,0,0,0,0,0,0,0,0,0,0,0,0,0,0,0,0,0,0,0,0,0,0,0,0,0,0,0,0,0,0,0,0,0,0,0,0,0,0,0,0,0,0,0,0,0,0,0,0,0,0,0,0,0,0,0,0,0,0,0,0,0,0,0,0,0,0,1
Botella01,x,0,-0.1242429500203520,0.6213047723388500,0.1603390564756110,-0.1735861121938540,0.0669832869969826,0.7409782383977740,0.0375680569612310,-0.1412038772580090,0.1265689659985470,0.7279927332248840,0.2653078105026990,-0.2500399253376780,1.2817120522663400,0.2326775502554130,0.1497593669426140,0.1847568501505690,0,0,0,0,0,0,0,0,0,0,0,0,0,0,0,0,0,0,0,0,0,0,0,0,0,0,0,0,0,0,0,0,0,0,0,0,0,0,0,0,0,0,0,0,0,0,0,0,0,0,0,0,0,0,0,0,0,0,0,0,0,0,0,0,0,0,0,0,0,0,0,0,0,0,0,0,0,0,0,0,0,0,0,0,0,0,0,0,0,0,0,0,0,0,4,0,0,16,0,0,0,0,0,0,0,0,0,0,0,0,0,0,1
Botella01,x,0,-0.0351546384817574,0.8793213944665690,0.0149387553139060,-0.1910184418586140,0.1057081942712360,0.8953225374607850,-0.0433276499934131,-0.1667155988054330,0.1466671692021850,0.7684716256616210,0.2311859864939650,-0.2339933120743490,1.3894050437192500,0.3783838669119550,0.2805097603130320,0.3108621853508360,0,0,0,0,0,0,0,0,0,0,0,0,0,0,4,0,0,0,0,0,0,0,0,0,0,0,0,0,0,0,0,0,0,0,0,0,0,0,0,0,0,0,0,0,0,0,0,0,0,0,0,0,0,0,0,0,0,0,0,0,0,0,0,0,0,0,0,0,0,0,0,0,0,0,0,0,0,0,0,0,0,0,0,0,0,0,0,0,0,0,0,0,0,0,0,0,0,0,0,0,0,0,0,0,0,0,0,0,0,0,0,0,1
Botella01,x,0,-0.0489863538116622,0.6901286792119410,0.1236985738819190,-0.0730859270789439,0.0770943414471961,0.7866886156186140,-0.0020294083983510,-0.1501895848632680,0.1518166759846170,0.8093497069283650,0.1564032689959710,-0.3308485192599410,1.4085035862557900,0.3075460618743690,0.0019828513748754,0.2408213048689450,0,0,0,0,0,0,0,0,0,0,0,0,0,0,0,0,0,0,0,0,0,0,0,0,0,0,0,0,0,0,0,0,0,0,0,0,0,0,0,0,0,0,0,0,0,0,0,0,0,0,0,0,0,0,0,0,0,0,0,0,0,0,0,0,0,0,0,0,0,0,0,0,0,0,0,0,0,0,0,0,0,0,0,0,0,0,0,0,0,0,0,0,0,0,0,6,0,0,0,8,0,0,0,0,0,0,0,0,0,0,0,0,1
Botella01,x,0,-0.0835202858260062,0.7639974214547760,0.0362297157821740,-0.1804488385518790,0.0910796280587089,0.8928124853917500,-0.0781875555913020,-0.1449277722966340,0.1760320465518330,0.8296151912821640,0.1607543851927050,-0.2806541732403010,1.4035270309310700,0.3237131415325850,0.0748323227544533,0.4385622151083080,0,0,0,0,3,0,0,0,0,0,0,0,0,0,0,0,0,0,0,0,0,0,0,0,0,0,0,0,0,0,0,0,0,0,0,0,0,0,0,0,0,0,0,0,0,0,0,0,0,0,0,0,0,0,0,0,0,0,0,0,0,0,0,0,0,0,0,0,0,0,0,0,0,0,0,0,0,0,0,0,0,0,0,0,0,0,0,0,0,0,0,0,0,0,0,0,0,0,0,0,0,0,0,0,0,0,0,0,0,0,0,0,1
Botella01,x,0,-0.0754372078325743,0.7332400338862720,0.0864150350313579,-0.1126763722830470,0.0908657406971216,0.8124130576837580,-0.0089215080531810,-0.0583604483629240,0.1621637591915870,0.7691183724049480,0.2152867220923490,-0.2474984791347350,1.3588439641126700,0.3130327045919950,-0.0725525209705201,0.3494002865235550,0,0,0,0,0,0,0,0,0,0,0,0,0,0,0,0,0,0,0,0,0,0,0,0,0,0,0,0,0,0,0,0,0,0,0,0,0,0,0,0,0,0,0,0,0,0,0,0,0,0,0,0,0,0,0,0,0,0,0,0,0,0,0,0,0,0,0,0,0,0,0,0,0,0,0,0,0,0,0,0,0,0,0,0,0,0,0,0,0,0,0,0,0,0,0,5,0,12,0,0,0,0,0,0,0,0,0,0,0,0,0,0,1
Botella01,x,0,-0.0804415715381316,0.7662498718630370,0.0431031671491751,-0.1480838477616790,0.0913252334035078,0.8955073538675510,-0.0486792263971050,-0.1410551332713750,0.2033843085092570,0.9648123278747420,0.1583049185719380,-0.3157862816616430,1.4135919355783100,0.3869653490903900,0.2867319020252660,0.3022584252406230,0,0,0,0,0,0,0,0,0,0,0,0,0,5,0,0,0,0,0,0,0,0,0,0,0,0,0,0,0,0,0,0,0,0,0,0,0,0,0,0,0,0,0,0,0,0,0,0,0,0,0,0,0,0,0,0,0,0,0,0,0,0,0,0,0,0,0,0,0,0,0,0,0,0,0,0,0,0,0,0,0,0,0,0,0,0,0,0,0,0,0,0,0,0,0,0,0,0,0,0,0,0,0,0,0,0,0,0,0,0,0,0,1
Botella01,x,0,-0.0862864448675239,0.6289804351250910,0.1422394511217030,-0.1449311993671330,0.0913636627983299,0.6950959592864450,0.0436814845663720,-0.0786024990963510,0.1336370235716070,0.6675584530994040,0.2402491806715430,-0.2888112316486260,1.2948922473732900,0.3073404384729330,0.1113390480915470,0.2080720330689790,0,0,0,0,0,0,0,0,0,0,0,0,0,0,0,0,0,0,0,0,0,0,0,0,0,0,0,0,0,0,0,0,0,0,0,0,0,0,0,0,0,0,0,0,0,0,0,0,0,0,0,0,0,0,0,0,0,0,0,0,0,0,0,0,0,0,0,0,0,0,0,0,0,0,0,0,0,0,0,0,0,0,0,0,0,0,0,0,0,0,13,0,0,0,9,0,0,0,0,0,0,0,0,0,0,0,0,0,0,0,0,0,1
Botella01,x,0,-0.1089806675080500,0.6417665076560830,0.1726402488834400,-0.1567045029253240,0.0865255626275642,0.8429451582274790,-0.0544316640004390,-0.1224896900534270,0.2133262926820860,0.8270087860702150,0.2188410704572650,-0.2244951696088410,1.3853792852106000,0.3431155382852040,0.1741309354357320,0.2085009538665360,0,0,0,0,0,0,0,0,0,0,0,0,0,0,0,0,0,0,0,0,0,0,0,0,0,0,0,0,0,0,0,0,12,0,0,0,0,0,0,0,0,0,0,0,0,0,0,0,0,0,0,0,0,0,0,0,0,0,0,0,0,0,0,0,0,0,0,0,0,0,0,0,0,0,0,0,0,0,0,0,0,0,0,0,0,0,0,0,0,0,0,0,0,0,0,0,0,0,0,0,0,0,0,0,0,0,0,0,0,0,0,0,1
Botella01,x,0,-0.0829591764844778,0.6520763080431200,0.1040763414165350,-0.1551282603731990,0.0860348426992000,0.7451922883954880,0.0243613453885140,-0.1155788418859610,0.1303926949242200,0.6827657060452800,0.3185413603566500,-0.1784541206068170,1.3096713276139700,0.3288244262467990,0.1051919509402510,0.2075423014030120,0,0,0,0,0,0,0,0,0,0,0,0,0,0,0,0,0,0,0,0,0,0,0,0,0,0,0,0,0,0,0,0,0,0,0,0,0,0,0,0,0,0,0,0,0,0,0,0,0,0,0,0,0,0,0,0,0,0,0,0,0,0,0,0,0,0,0,0,0,0,0,0,0,0,0,0,0,0,0,0,0,0,0,0,0,0,0,0,0,0,0,0,0,3,9,0,0,0,8,0,0,0,0,0,0,0,0,0,0,0,0,0,1
Botella01,x,0,-0.0890926303275316,0.6301985482320130,0.1194384306353650,-0.1478552910890800,0.0637318470713015,0.7005682840234030,0.0285505288726060,-0.0955300186287390,0.0983514099612541,0.6506014149911760,0.3056620821754980,-0.2473694470114770,1.3048555438604500,0.3073532175437950,0.1532449224530130,0.1637355643470470,0,0,0,0,0,0,0,0,0,0,0,0,0,0,0,0,0,0,0,0,0,0,0,0,0,0,0,0,0,0,0,0,0,0,0,0,0,0,0,0,0,0,0,0,0,0,0,0,0,0,0,0,0,0,0,0,0,0,0,0,0,0,0,0,0,0,0,0,0,0,0,0,0,0,0,0,0,0,0,0,0,0,0,0,0,0,14,0,0,0,10,0,0,0,0,0,0,0,0,0,0,0,0,0,0,0,0,0,0,0,0,0,1
Botella01,x,0,-0.0654173434024859,0.6543572099490220,0.1417697317370780,-0.2010093550408760,0.0908354366430553,0.6944904108020260,0.0654797179586760,-0.0532153476173211,0.1286778948895160,0.6318618731817390,0.2641590058198810,-0.1687888115168390,1.3525554933641000,0.2701062814114590,0.1350320242323560,0.2131522308833220,0,0,0,0,0,0,0,0,0,0,0,0,0,0,0,0,0,0,0,0,0,0,0,0,0,0,0,0,0,0,0,0,0,0,0,0,0,0,0,0,0,0,0,0,0,0,0,0,0,0,0,0,0,0,0,0,0,0,0,0,0,0,0,0,0,0,0,0,0,0,0,0,0,0,0,0,0,0,0,0,0,0,0,0,0,0,0,0,0,0,0,0,0,0,0,0,0,0,0,0,0,0,0,0,0,0,0,0,0,0,0,0,1
Botella01,x,0,-0.0835526165717113,0.6505570210987760,0.1269689205614540,-0.1282594044639400,0.0708865005313046,0.7346753861994010,0.0481310881284590,-0.1040299854825650,0.1079732287722180,0.7764491370918150,0.2232362304213840,-0.2839587345304090,1.2753108435325100,0.2926631483674820,0.1229961543956890,0.1928626884115880,0,0,0,0,0,0,0,0,0,0,0,0,0,0,0,0,0,0,0,0,0,0,0,0,0,0,0,0,0,0,0,0,0,0,0,0,0,0,0,0,0,0,0,0,0,0,0,0,0,0,0,0,0,0,0,0,0,0,0,0,0,0,0,0,0,0,0,0,0,0,0,0,0,0,0,0,0,0,0,0,0,0,0,0,0,3,0,0,0,0,8,0,0,0,3,0,0,7,0,0,0,0,0,0,0,0,0,0,0,0,0,0,1
Botella01,x,0,-0.1025074642025090,0.6265636405765660,0.1345538650984940,-0.1373929191327380,0.0655681974890167,0.7246815449513910,0.0494001758276200,-0.1282460006163690,0.1424733063756610,0.7269974974218380,0.2807979573369420,-0.1846535743339310,1.3078108935545200,0.3103258762412380,0.1250800361348150,0.1865582128575110,0,0,0,0,0,0,0,0,0,0,0,0,0,0,0,0,0,0,0,0,0,0,0,0,0,0,0,0,0,0,0,0,0,0,0,0,0,0,0,0,0,0,0,0,0,0,0,0,0,0,0,0,0,0,0,0,0,0,0,0,0,0,0,0,0,0,0,0,0,0,0,0,0,0,0,0,0,0,0,0,0,0,0,0,0,5,0,0,0,0,13,0,0,0,0,0,0,0,0,0,0,0,0,0,0,0,0,0,0,0,0,0,1
Botella01,x,0,-0.0828572921877768,0.6430830041665910,0.1188448654832420,-0.1604760278077930,0.0618361325799084,0.7268508668635110,0.0045179707971911,-0.0974519279902151,0.1481441640984870,0.7288674433344390,0.2453399353122470,-0.2849753323661660,1.3180932396861900,0.3344461001172480,0.1233594135358560,0.2038830117849540,0,0,0,0,0,0,0,0,0,0,0,0,0,0,0,0,0,0,0,0,0,0,0,0,0,0,0,0,0,0,0,0,0,0,0,0,0,0,0,0,0,0,0,0,0,0,0,0,0,0,0,0,0,0,0,0,0,0,0,0,0,0,0,0,0,0,0,0,0,0,0,0,0,0,0,0,0,0,0,0,0,0,0,0,0,0,0,0,0,0,3,0,0,0,3,0,0,0,12,0,0,0,0,0,0,0,0,0,0,0,0,0,1
Botella01,z,0,0.1207900792437390,0.7420587881106810,0.1398037670371660,-0.2140968260746700,0.0476066426066576,0.5773977260891360,0.1747430949436160,-0.0661189588987130,0.1478662205081680,0.7359045269523450,0.2528686541929330,-0.2786554307720020,1.2685281266580100,0.3048978096786500,0.1677326286177160,0.1241356069761480,0,0,0,0,0,0,0,0,0,0,0,0,0,0,0,0,0,0,0,0,0,0,0,0,0,0,0,0,0,0,0,0,0,0,0,0,0,0,0,0,0,0,0,0,0,0,0,0,0,0,0,0,0,0,0,0,0,0,0,0,0,0,0,0,0,0,0,0,0,0,0,0,0,0,0,0,0,0,0,0,0,0,0,0,0,0,0,0,0,0,0,0,0,0,0,0,0,0,0,0,0,0,0,0,0,0,0,0,0,0,0,0,1
Botella01,z,30,0.1305308531108200,0.6378731178343110,0.1859296750651150,-0.1677376275712650,0.0611993301149638,0.5089588464558610,0.2006333384921540,0.0133917614824760,0.1607757319751180,0.7950224005156950,0.2120119210600950,-0.3088540049780930,1.3166083389630300,0.3718271597634930,0.1830384119155530,0.0571701472567110,0,0,0,0,0,0,0,0,0,0,0,0,17,0,0,0,0,0,0,0,0,0,0,0,0,0,0,0,0,0,0,0,0,0,0,0,0,0,0,0,0,0,0,0,0,0,0,0,0,0,0,0,0,0,0,0,0,0,0,0,0,0,0,0,0,0,0,0,0,0,0,0,0,0,0,0,0,0,0,0,0,0,0,0,0,0,0,0,0,0,0,0,0,0,0,0,0,0,0,0,0,0,0,0,0,0,0,0,0,0,0,0,1
Botella01,z,60,-0.0618278032101859,0.4732579327294620,0.2790374990397140,-0.0053305527096040,0.0445718403463449,0.4894844796983190,0.2023608505796420,0.0724741977580829,0.2034676840885690,0.9716425099868860,0.1546622068294040,-0.3281414801348790,1.3105040873604000,0.3878205451658700,0.1859489106939640,0.0163706784017990,0,0,0,0,0,0,0,0,0,0,0,0,17,0,0,0,0,0,0,0,0,0,0,0,0,0,0,0,0,0,0,0,0,0,0,0,0,0,0,0,0,0,0,0,0,0,0,0,0,0,0,0,0,0,0,0,0,0,0,0,0,0,0,0,0,0,0,0,0,0,0,0,0,0,0,0,0,0,0,0,0,0,0,0,0,0,0,0,0,0,0,0,0,0,0,0,0,0,0,0,0,0,0,0,0,0,0,0,0,0,0,0,1
Botella01,z,90,-0.0710326881756647,0.4711887735840740,0.2154370712703030,0.0631608566352350,0.0625351422790167,0.4847044199466040,0.1905258394857540,0.1124511552536040,0.2545827789685970,1.0090349597740500,0.1268154799460800,-0.3235004768109090,1.3253042199576900,0.3727517079016410,0.1965407887173280,0.0569898096839400,0,0,0,0,0,0,0,0,0,0,0,0,17,0,0,0,0,0,0,0,0,0,0,0,0,0,0,0,0,0,0,0,0,0,0,0,0,0,0,0,0,0,0,0,0,0,0,0,0,0,0,0,0,0,0,0,0,0,0,0,0,0,0,0,0,0,0,0,0,0,0,0,0,0,0,0,0,0,0,0,0,0,0,0,0,0,0,0,0,0,0,0,0,0,0,0,0,0,0,0,0,0,0,0,0,0,0,0,0,0,0,0,1
Botella01,z,0,0.1024501089487830,0.6618184574084140,0.1894119539661280,-0.1533605858024690,0.0456764295955484,0.5499303824565600,0.1942560366835230,-0.0478787705777590,0.1485980022648050,0.7526369197540100,0.2139199093429370,-0.2916375449178830,1.3015213954534100,0.3173771042123740,0.1964897568166380,0.0950539411043990,0,0,0,0,0,0,0,0,0,0,0,0,0,0,0,0,0,0,0,0,0,0,0,0,0,0,0,0,0,0,0,0,0,0,0,0,0,0,0,0,0,0,0,0,0,0,0,0,0,0,0,0,0,0,0,0,0,0,0,0,0,0,0,0,0,0,0,0,0,0,0,0,0,0,0,0,0,0,0,0,0,0,0,0,0,0,0,0,0,0,0,0,0,0,0,0,0,0,0,0,0,0,0,0,0,0,0,0,0,0,0,0,1
Botella01,z,30,0.1116457197980870,0.6475714761533970,0.1932841402988330,-0.1748814149118220,0.0455720995277208,0.5268732712118270,0.2165340995066330,-0.0281479860260370,0.1504578152046190,0.7709950642028850,0.1909083725761940,-0.3022571198125160,1.2827564126638800,0.3401888713162090,0.1499553044637060,0.1364223733175550,0,0,0,0,0,0,0,0,0,0,0,0,17,0,0,0,0,0,0,0,0,0,0,0,0,0,0,0,0,0,0,0,0,0,0,0,0,0,0,0,0,0,0,0,0,0,0,0,0,0,0,0,0,0,0,0,0,0,0,0,0,0,0,0,0,0,0,0,0,0,0,0,0,0,0,0,0,0,0,0,0,0,0,0,0,0,0,0,0,0,0,0,0,0,0,0,0,0,0,0,0,0,0,0,0,0,0,0,0,0,0,0,1
Botella01,z,60,-0.0405802948895168,0.4786605933969360,0.2794332217764090,0.0062298812785491,0.0411353146491069,0.4822327811525820,0.2179638886586040,0.0781175998528610,0.2045937039413570,0.9718164879900980,0.1573102627588220,-0.3369401094056330,1.3074464235008800,0.3784870392598680,0.1909051246971320,0.0306785974852370,0,0,0,0,0,0,0,0,0,0,0,0,17,0,0,0,0,0,0,0,0,0,0,0,0,0,0,0,0,0,0,0,0,0,0,0,0,0,0,0,0,0,0,0,0,0,0,0,0,0,0,0,0,0,0,0,0,0,0,0,0,0,0,0,0,0,0,0,0,0,0,0,0,0,0,0,0,0,0,0,0,0,0,0,0,0,0,0,0,0,0,0,0,0,0,0,0,0,0,0,0,0,0,0,0,0,0,0,0,0,0,0,1
Botella01,z,90,-0.0761271225488881,0.4627613906092660,0.2232241619019460,0.0832592949911530,0.0490093283266749,0.4864042237588630,0.1835022247518710,0.1178504589216710,0.2579768285699910,1.0076320017041100,0.1283407592741100,-0.3245745323975840,1.3451620852705900,0.3737914868047300,0.2010221685164100,0.0346530273115640,0,0,0,0,0,0,0,0,0,0,0,0,17,0,0,0,0,0,0,0,0,0,0,0,0,0,0,0,0,0,0,0,0,0,0,0,0,0,0,0,0,0,0,0,0,0,0,0,0,0,0,0,0,0,0,0,0,0,0,0,0,0,0,0,0,0,0,0,0,0,0,0,0,0,0,0,0,0,0,0,0,0,0,0,0,0,0,0,0,0,0,0,0,0,0,0,0,0,0,0,0,0,0,0,0,0,0,0,0,0,0,0,1
Botella01,z,0,0.0802559668349075,0.6149033977082840,0.2394131716932450,-0.1309268589115580,0.0470719684169913,0.5173453747018840,0.2300528606824900,-0.0392903732943800,0.1482856801440660,0.7534518487001800,0.2139193013353550,-0.2929462997424170,1.3111552874963900,0.3427521467793750,0.2080737563040040,0.0809460096464930,0,0,0,0,0,0,0,0,0,0,0,0,17,0,0,0,0,0,0,0,0,0,0,0,0,0,0,0,0,0,0,0,0,0,0,0,0,0,0,0,0,0,0,0,0,0,0,0,0,0,0,0,0,0,0,0,0,0,0,0,0,0,0,0,0,0,0,0,0,0,0,0,0,0,0,0,0,0,0,0,0,0,0,0,0,0,0,0,0,0,0,0,0,0,0,0,0,0,0,0,0,0,0,0,0,0,0,0,0,0,0,0,1
Botella01,z,30,0.1054323362380260,0.6496004309369500,0.1757185038820180,-0.1711281021615490,0.0442280458061417,0.5196202191104740,0.2308541331124360,-0.0388766235017101,0.1448600716179450,0.7735312008191570,0.1921507953455900,-0.3017520947519290,1.2755758992699600,0.3338386478886760,0.1973038774765400,0.0711130510036720,0,0,0,0,0,0,0,0,0,0,0,0,17,0,0,0,0,0,0,0,0,0,0,0,0,0,0,0,0,0,0,0,0,0,0,0,0,0,0,0,0,0,0,0,0,0,0,0,0,0,0,0,0,0,0,0,0,0,0,0,0,0,0,0,0,0,0,0,0,0,0,0,0,0,0,0,0,0,0,0,0,0,0,0,0,0,0,0,0,0,0,0,0,0,0,0,0,0,0,0,0,0,0,0,0,0,0,0,0,0,0,0,1
Botella01,z,60,0.0307571951771017,0.5469102067125930,0.2212880105383340,-0.0222388110866890,0.0486424923325840,0.4914076192234050,0.2492559832049270,0.0057741541032400,0.1837442183654830,0.8479147488358540,0.1674443041872660,-0.3040697941486520,1.2790020161872400,0.3650599290183020,0.2065247575507800,0.0272133962904030,0,0,0,0,0,0,0,0,0,0,0,0,17,0,0,0,0,0,0,0,0,0,0,0,0,0,0,0,0,0,0,0,0,0,0,0,0,0,0,0,0,0,0,0,0,0,0,0,0,0,0,0,0,0,0,0,0,0,0,0,0,0,0,0,0,0,0,0,0,0,0,0,0,0,0,0,0,0,0,0,0,0,0,0,0,0,0,0,0,0,0,0,0,0,0,0,0,0,0,0,0,0,0,0,0,0,0,0,0,0,0,0,1
Botella01,z,90,-0.0700287209324536,0.4585643634637340,0.2223923871053750,0.0965150608687210,0.0335981100581429,0.4926278724193290,0.1740486678296250,0.1342221579741480,0.2479138125112600,1.0047054166023300,0.1328082959110700,-0.3236976986938620,1.3288136607799200,0.3837161587275330,0.2002758768121790,0.0294428464020130,0,0,0,0,0,0,0,0,0,0,0,0,17,0,0,0,0,0,0,0,0,0,0,0,0,0,0,0,0,0,0,0,0,0,0,0,0,0,0,0,0,0,0,0,0,0,0,0,0,0,0,0,0,0,0,0,0,0,0,0,0,0,0,0,0,0,0,0,0,0,0,0,0,0,0,0,0,0,0,0,0,0,0,0,0,0,0,0,0,0,0,0,0,0,0,0,0,0,0,0,0,0,0,0,0,0,0,0,0,0,0,0,1
Botella01,z,0,0.1004697458980260,0.6495959492580070,0.2042754646506480,-0.1496596359313670,0.0426387067084850,0.5548808753178260,0.1895802647088670,-0.0539177086382280,0.1418876677649870,0.7707636163688840,0.2039874295617350,-0.2958020266762840,1.3066068315342600,0.3331477655492130,0.1969030960320740,0.0913676980311950,0,0,0,0,0,0,0,0,0,0,0,0,17,0,0,0,0,0,0,0,0,0,0,0,0,0,0,0,0,0,0,0,0,0,0,0,0,0,0,0,0,0,0,0,0,0,0,0,0,0,0,0,0,0,0,0,0,0,0,0,0,0,0,0,0,0,0,0,0,0,0,0,0,0,0,0,0,0,0,0,0,0,0,0,0,0,0,0,0,0,0,0,0,0,0,0,0,0,0,0,0,0,0,0,0,0,0,0,0,0,0,0,1
Botella01,z,30,0.1059581197453080,0.6496890833767830,0.1741178739034990,-0.1618487625461820,0.0568466637448767,0.5124582051931950,0.2521543160451290,-0.0488748402652450,0.1563861532141640,0.7671605746782430,0.2054307787413810,-0.3057755230235590,1.2922017300366600,0.3372549813687050,0.1858107739394670,0.0906767902305340,0,0,0,0,0,0,0,0,0,0,0,0,17,0,0,0,0,0,0,0,0,0,0,0,0,0,0,0,0,0,0,0,0,0,0,0,0,0,0,0,0,0,0,0,0,0,0,0,0,0,0,0,0,0,0,0,0,0,0,0,0,0,0,0,0,0,0,0,0,0,0,0,0,0,0,0,0,0,0,0,0,0,0,0,0,0,0,0,0,0,0,0,0,0,0,0,0,0,0,0,0,0,0,0,0,0,0,0,0,0,0,0,1
Botella01,z,60,-0.0733255764445589,0.4671312839920940,0.2355209019256430,0.0758360376844349,0.0333192049621036,0.4843304194524900,0.1850415529585050,0.1168669318856660,0.2079913622064820,0.9663250374461710,0.1644363319563190,-0.3194937989427560,1.3176672891571200,0.3671301112616820,0.1997151879247460,0.0246647939108120,0,0,0,0,0,0,0,0,0,0,0,0,17,0,0,0,0,0,0,0,0,0,0,0,0,0,0,0,0,0,0,0,0,0,0,0,0,0,0,0,0,0,0,0,0,0,0,0,0,0,0,0,0,0,0,0,0,0,0,0,0,0,0,0,0,0,0,0,0,0,0,0,0,0,0,0,0,0,0,0,0,0,0,0,0,0,0,0,0,0,0,0,0,0,0,0,0,0,0,0,0,0,0,0,0,0,0,0,0,0,0,0,1
Botella01,z,90,-0.0649483828272409,0.4845887345787000,0.2485420325803410,0.0064877579189350,0.0098573679243584,0.5543591811198550,0.2245976872181600,-0.0800177058853651,0.2633964868075170,0.9988999501153510,0.1460782477949990,-0.3230882945748340,1.3177470089423000,0.3707507046305880,0.1904463183364140,0.0339004146486300,0,0,0,0,0,0,0,0,0,0,0,0,17,0,0,0,0,0,0,0,0,0,0,0,0,0,0,0,0,0,0,0,0,0,0,0,0,0,0,0,0,0,0,0,0,0,0,0,0,0,0,0,0,0,0,0,0,0,0,0,0,0,0,0,0,0,0,0,0,0,0,0,0,0,0,0,0,0,0,0,0,0,0,0,0,0,0,0,0,0,0,0,0,0,0,0,0,0,0,0,0,0,0,0,0,0,0,0,0,0,0,0,1
Botella01,z,0,0.1091866819248590,0.7172596814778680,0.1639739679472150,-0.1995091504391500,0.0508895546803720,0.5631957851861330,0.2106228247563240,-0.0921174811232000,0.1455045531236900,0.7376473419673520,0.2308634752029840,-0.2812336772954550,1.2801702752150700,0.3061158429649030,0.2062675823458450,0.1022160819134420,0,0,0,0,0,0,0,0,0,0,0,0,17,0,0,0,0,0,0,0,0,0,0,0,0,0,0,0,0,0,0,0,0,0,0,0,0,0,0,0,0,0,0,0,0,0,0,0,0,0,0,0,0,0,0,0,0,0,0,0,0,0,0,0,0,0,0,0,0,0,0,0,0,0,0,0,0,0,0,0,0,0,0,0,0,0,0,0,0,0,0,0,0,0,0,0,0,0,0,0,0,0,0,0,0,0,0,0,0,0,0,0,1
Botella01,z,30,0.1217812564737950,0.6707151119168010,0.1668894905793870,-0.1688914367166680,0.0512784708683643,0.5149627001278740,0.2341288133467310,-0.0223783161131110,0.1503365025398080,0.7462727153136270,0.2328341005603440,-0.2808273710949100,1.2782137114989100,0.3238202869039390,0.1902689249855200,0.0904375884015740,0,0,0,0,0,0,0,0,0,0,0,0,17,0,0,0,0,0,0,0,0,0,0,0,0,0,0,0,0,0,0,0,0,0,0,0,0,0,0,0,0,0,0,0,0,0,0,0,0,0,0,0,0,0,0,0,0,0,0,0,0,0,0,0,0,0,0,0,0,0,0,0,0,0,0,0,0,0,0,0,0,0,0,0,0,0,0,0,0,0,0,0,0,0,0,0,0,0,0,0,0,0,0,0,0,0,0,0,0,0,0,0,1
Botella01,z,60,0.0653410803796479,0.6693674408889290,0.1772622519952060,-0.1645184867917740,0.0465902694100660,0.5654004852742270,0.1795390764554530,-0.0524381019332190,0.1558514344212310,0.7495917801387980,0.2286164185655430,-0.2690401162003170,1.2758628643277300,0.3460906620793780,0.1489506884039480,0.1063656398041790,0,0,0,0,0,0,0,0,0,0,0,0,17,0,0,0,0,0,0,0,0,0,0,0,0,0,0,0,0,0,0,0,0,0,0,0,0,0,0,0,0,0,0,0,0,0,0,0,0,0,0,0,0,0,0,0,0,0,0,0,0,0,0,0,0,0,0,0,0,0,0,0,0,0,0,0,0,0,0,0,0,0,0,0,26,0,0,0,0,0,0,0,0,0,0,0,0,0,0,0,0,0,0,0,0,0,0,0,0,0,0,0,1
Botella01,z,90,-0.0704073646294312,0.4837227907139530,0.2634345167179120,-0.0050739390230601,0.0291695852922091,0.5169897760079440,0.2338448945345140,0.0003641326517030,0.2623226417207160,0.9992570940914080,0.1457529396579520,-0.3223122712245190,1.3164016915538600,0.3636957848170790,0.1962899191965250,0.0354864425979130,0,0,0,0,0,0,0,0,0,0,0,0,18,0,0,0,0,0,0,0,0,0,0,0,0,0,0,0,0,0,0,0,0,0,0,0,0,0,0,0,0,0,0,0,0,0,0,0,0,0,0,0,0,0,0,0,0,0,0,0,0,0,0,0,0,0,0,0,0,0,0,0,0,0,0,0,0,0,0,0,0,0,0,0,0,0,0,0,0,0,0,0,0,0,0,0,0,0,0,0,0,0,0,0,0,0,0,0,0,0,0,0,1
Botella01,z,0,0.0957889676317581,0.7282366933737680,0.1461368791011710,-0.2021399499919090,0.0519452765990223,0.5680555050756530,0.2043238355045040,-0.0891339689883009,0.1429751373162020,0.7366511248386510,0.2309709292414100,-0.2794905887739400,1.2705070469147500,0.3118533782567880,0.2095013525946050,0.0975046872440590,0,0,0,0,0,0,0,0,0,0,0,0,17,0,0,0,0,0,0,0,0,0,0,0,0,0,0,0,0,0,0,0,0,0,0,0,0,0,0,0,0,0,0,0,0,0,0,0,0,0,0,0,0,0,0,0,0,0,0,0,0,0,0,0,0,0,0,0,0,0,0,0,0,0,0,0,0,0,0,0,0,0,0,0,0,0,0,0,0,0,0,0,0,0,0,0,0,0,0,0,0,0,0,0,0,0,0,0,0,0,0,0,1
Botella01,z,30,0.1001080901235870,0.6899642749901940,0.1433688141065700,-0.1728793952147740,0.0458892381595814,0.5265724009290350,0.2369636497082670,-0.0572100328660781,0.1463066730782550,0.7431090158042670,0.2226877147828140,-0.2864369676872070,1.2751583032271500,0.3204707654316280,0.1965270326959590,0.0939340755498940,0,0,0,0,0,0,0,0,0,0,0,0,17,0,0,0,0,0,0,0,0,0,0,0,0,0,0,0,0,0,0,0,0,0,0,0,0,0,0,0,0,0,0,0,0,0,0,0,0,0,0,0,0,0,0,0,0,0,0,0,0,0,0,0,0,0,0,0,0,0,0,0,0,0,0,0,0,0,0,0,0,0,0,0,0,0,0,0,0,0,0,0,0,0,0,0,0,0,0,0,0,0,0,0,0,0,0,0,0,0,0,0,1
Botella01,z,60,0.0639628322186502,0.6359777153577480,0.2013443363140930,-0.1731556901141330,0.0512068603304517,0.5636358697883730,0.1772431283922650,-0.0398868326224819,0.1626508837719080,0.7841440750136500,0.1996091375022120,-0.2773129549216010,1.2747551778232100,0.3622076699543060,0.1517141330079900,0.0806108085465580,0,0,0,0,0,0,0,0,0,0,0,0,17,0,0,0,0,0,0,0,0,0,0,0,0,0,0,0,0,0,0,0,0,0,0,0,0,0,0,0,0,0,0,0,0,0,0,0,0,0,0,0,0,0,0,0,0,0,0,0,0,0,0,0,0,0,0,0,0,0,0,0,0,0,0,0,0,0,0,0,0,0,0,0,10,0,0,0,0,0,0,0,0,0,0,0,0,0,0,0,0,0,0,0,0,0,0,0,0,0,0,0,1
Botella01,z,90,-0.0439250789618286,0.4704943201187950,0.2432361386672340,0.0594306606181589,0.0210812880343674,0.5355399685011470,0.2298850750909440,-0.0358346680484209,0.2621328605491840,1.0045355230430000,0.1374313750363500,-0.3240064737558420,1.3227178766027800,0.3773897350846350,0.1910967061242700,0.0206254944150160,0,0,0,0,0,0,0,0,0,0,0,0,18,0,0,0,0,0,0,0,0,0,0,0,0,0,0,0,0,0,0,0,0,0,0,0,0,0,0,0,0,0,0,0,0,0,0,0,0,0,0,0,0,0,0,0,0,0,0,0,0,0,0,0,0,0,0,0,0,0,0,0,0,0,0,0,0,0,0,0,0,0,0,0,0,0,0,0,0,0,0,0,0,0,0,0,0,0,0,0,0,0,0,0,0,0,0,0,0,0,0,0,1
Botella01,z,0,0.0978326248146655,0.6989730182740420,0.1536070022656970,-0.1848732331249830,0.0528605795783456,0.5427335052442210,0.2358100641168630,-0.0713268307977760,0.1454707303680080,0.7369318348131120,0.2217847854649020,-0.2888323358327870,1.2936645644420900,0.3314222718974040,0.1996710352987590,0.1121445797116550,0,0,0,0,0,0,0,0,0,0,0,0,17,0,0,0,0,0,0,0,0,0,0,0,0,0,0,0,0,0,0,0,0,0,0,0,0,0,0,0,0,0,0,0,0,0,0,0,0,0,0,0,0,0,0,0,0,0,0,0,0,0,0,0,0,0,0,0,0,0,0,0,0,0,0,0,0,0,0,0,0,0,0,0,0,0,0,0,0,0,0,0,0,0,0,0,0,0,0,0,0,0,0,0,0,0,0,0,0,0,0,0,1
Botella01,z,30,0.1122796647765030,0.6846714417705810,0.1540661216111990,-0.1696012395026140,0.0432290385215646,0.5157479040585200,0.2398825342304730,-0.0482771950063120,0.1414627638844470,0.7333569089483170,0.2366773462966950,-0.2891904643362340,1.2784864859497400,0.3306518460183450,0.2124725793496910,0.0779089696996750,0,0,0,0,0,0,0,0,0,0,0,0,17,0,0,0,0,0,0,0,0,0,0,0,0,0,0,0,0,0,0,0,0,0,0,0,0,0,0,0,0,0,0,0,0,0,0,0,0,0,0,0,0,0,0,0,0,0,0,0,0,0,0,0,0,0,0,0,0,0,0,0,0,0,0,0,0,0,0,0,0,0,0,0,0,0,0,0,0,0,0,0,0,0,0,0,0,0,0,0,0,0,0,0,0,0,0,0,0,0,0,0,1
Botella01,z,60,0.1018072363269750,0.6430549858787460,0.1880242424010760,-0.1784677370160720,0.0462399682974242,0.5105592014944570,0.2194482437829120,-0.0153710765279480,0.1590705187709780,0.7512149424872890,0.2026699091598940,-0.2922263365913880,1.2826381098393400,0.3688009893683940,0.1950506261623480,0.0578870890020840,0,0,0,0,0,0,0,0,0,0,0,0,17,0,0,0,0,0,0,0,0,0,0,0,0,0,0,0,0,0,0,0,0,0,0,0,0,0,0,0,0,0,0,0,0,0,0,0,0,0,0,0,0,0,0,0,0,0,0,0,0,0,0,0,0,0,0,0,0,0,0,0,0,0,0,0,0,0,0,0,0,0,0,0,0,0,0,0,0,0,0,0,0,0,0,0,0,0,0,0,0,0,0,0,0,0,0,0,0,0,0,0,1
Botella01,z,90,-0.0595597918599028,0.4602519006911940,0.2392939100981760,0.0858372537956631,0.0450159093142986,0.4802456532744340,0.1895024629028550,0.1148656209642990,0.2635013613237770,1.0011277872568100,0.1411086159219300,-0.3245116471488060,1.3481177410762100,0.3795500464980520,0.2103405741660930,0.0190867413714860,0,0,0,0,0,0,0,0,0,0,0,0,17,0,0,0,0,0,0,0,0,0,0,0,0,0,0,0,0,0,0,0,0,0,0,0,0,0,0,0,0,0,0,0,0,0,0,0,0,0,0,0,0,0,0,0,0,0,0,0,0,0,0,0,0,0,0,0,0,0,0,0,0,0,0,0,0,0,0,0,0,0,0,0,0,0,0,0,0,0,0,0,0,0,0,0,0,0,0,0,0,0,0,0,0,0,0,0,0,0,0,0,1
Botella01,z,0,0.0973550586227264,0.6712209023962110,0.1748362383937590,-0.1551950032500820,0.0537416232736738,0.5466099038764140,0.2192977007790680,-0.0800274919294490,0.1558762557105150,0.7412597876738280,0.2000478987234590,-0.2999806117094670,1.2972000823455400,0.3125487377333830,0.1959928318811120,0.1119218181351010,0,0,0,0,0,0,0,0,0,0,0,0,17,0,0,0,0,0,0,0,0,0,0,0,0,0,0,0,0,0,0,0,0,0,0,0,0,0,0,0,0,0,0,0,0,0,0,0,0,0,0,0,0,0,0,0,0,0,0,0,0,0,0,0,0,0,0,0,0,0,0,0,0,0,0,0,0,0,0,0,0,0,0,0,0,0,0,0,0,0,0,0,0,0,0,0,0,0,0,0,0,0,0,0,0,0,0,0,0,0,0,0,1
Botella01,z,30,0.1163347483739200,0.6726951112455030,0.1653434174604820,-0.1786496292996230,0.0429524934211962,0.5013768832971380,0.2657075296159550,-0.0748650196977940,0.1492520980373160,0.7373519147332670,0.2315291470978130,-0.2794105672580730,1.2896520073803900,0.3334977641104290,0.2093624010118580,0.0680229269542130,0,0,0,0,0,0,0,0,0,0,0,0,17,0,0,0,0,0,0,0,0,0,0,0,0,0,0,0,0,0,0,0,0,0,0,0,0,0,0,0,0,0,0,0,0,0,0,0,0,0,0,0,0,0,0,0,0,0,0,0,0,0,0,0,0,0,0,0,0,0,0,0,0,0,0,0,0,0,0,0,0,0,0,0,0,0,0,0,0,0,0,0,0,0,0,0,0,0,0,0,0,0,0,0,0,0,0,0,0,0,0,0,1
Botella01,z,60,0.0978070793491594,0.6298912077102120,0.2063328889473520,-0.1667459873858390,0.0521347565849143,0.5165256960139830,0.2139674577067480,-0.0102442429971750,0.1619931332961910,0.7529901234349150,0.2017295808469650,-0.2803259581124210,1.2834824702466400,0.3682220937521010,0.1920379204800160,0.0578682028248660,0,0,0,0,0,0,0,0,0,0,0,0,18,0,0,0,0,0,0,0,0,0,0,0,0,0,0,0,0,0,0,0,0,0,0,0,0,0,0,0,0,0,0,0,0,0,0,0,0,0,0,0,0,0,0,0,0,0,0,0,0,0,0,0,0,0,0,0,0,0,0,0,0,0,0,0,0,0,0,0,0,0,0,0,0,0,0,0,0,0,0,0,0,0,0,0,0,0,0,0,0,0,0,0,0,0,0,0,0,0,0,0,1
Botella01,z,90,-0.0387092986315145,0.4593627313465590,0.2998536094919780,0.0247186891123541,0.0418261370448563,0.4845747704643450,0.2129793280220530,0.0795120651904530,0.2224234641739290,0.9783019600862160,0.1648025881912840,-0.3295804458135580,1.3237628923681300,0.3822553607260310,0.1990004896445190,0.0027077082777400,0,0,0,0,0,0,0,0,0,0,0,0,17,0,0,0,0,0,0,0,0,0,0,0,0,0,0,0,0,0,0,0,0,0,0,0,0,0,0,0,0,0,0,0,0,0,0,0,0,0,0,0,0,0,0,0,0,0,0,0,0,0,0,0,0,0,0,0,0,0,0,0,0,0,0,0,0,0,0,0,0,0,0,0,0,0,0,0,0,0,0,0,0,0,0,0,0,0,0,0,0,0,0,0,0,0,0,0,0,0,0,0,1
Botella01,z,0,0.0835133200717581,0.6775730874397170,0.1724172983548880,-0.1603323589900670,0.0416128327647580,0.5515967458510450,0.2035056335591540,-0.0731936215066080,0.1533056526370410,0.7322039974397030,0.2309091631421060,-0.2941081897093370,1.2942750628775300,0.3360128255306560,0.1991763825269280,0.1398175929335080,0,0,0,0,0,0,0,0,0,0,0,0,17,0,0,0,0,0,0,0,0,0,0,0,0,0,0,0,0,0,0,0,0,0,0,0,0,0,0,0,0,0,0,0,0,0,0,0,0,0,0,0,0,0,0,0,0,0,0,0,0,0,0,0,0,0,0,0,0,0,0,0,0,0,0,0,0,0,0,0,0,0,0,0,0,0,0,0,0,0,0,0,0,0,0,0,0,0,0,0,0,0,0,0,0,0,0,0,0,0,0,0,1
Botella01,z,30,0.0853684818636687,0.7019845327281190,0.1506007412719480,-0.1634206107154200,0.0472395887826167,0.5769971649821300,0.1863335618803060,-0.0811445131308910,0.1423407991984650,0.7263308336719460,0.2793249718628840,-0.2571797592730800,1.2702054748908400,0.3249664210713130,0.1977066206250580,0.0957034759848770,0,0,0,0,0,0,0,0,0,0,0,0,17,0,0,0,0,0,0,0,0,0,0,0,0,0,0,0,0,0,0,0,0,0,0,0,0,0,0,0,0,0,0,0,0,0,0,0,0,0,0,0,0,0,0,0,0,0,0,0,0,0,0,0,0,0,0,0,0,0,0,0,0,0,0,0,0,0,0,0,0,0,0,0,0,0,0,0,0,0,0,0,0,0,0,0,0,0,0,0,0,0,0,0,0,0,0,0,0,0,0,0,1
Botella01,z,60,0.0503884083909358,0.5972723228459240,0.2081878133885260,-0.0607576385010810,0.0612232691274211,0.5459124375043110,0.1898606047026840,-0.0213964269423600,0.1515831043027080,0.8178747668132070,0.2210159793209330,-0.2639224690275820,1.2748529082936100,0.3406033054564770,0.1884317356188670,0.0344440379556530,0,0,0,0,0,0,0,0,0,0,0,0,18,0,0,0,0,0,0,0,0,0,0,0,0,0,0,0,0,0,0,0,0,0,0,0,0,0,0,0,0,0,0,0,0,0,0,0,0,0,0,0,0,0,0,0,0,0,0,0,0,0,0,0,0,0,0,0,0,0,0,0,0,0,0,0,0,0,0,0,0,0,0,0,0,0,0,0,0,0,0,0,0,0,0,0,0,0,0,0,0,0,0,0,0,0,0,0,0,0,0,0,1
Botella01,z,90,-0.0412892388147510,0.4569550605669010,0.2523090418264660,0.1067448799045750,0.0276997429776978,0.5139679134040570,0.1986415363350960,0.0635433835042690,0.2549244925728470,1.0013720861480700,0.1344166697211500,-0.3225658497157890,1.3352571307107800,0.3984407156745680,0.1902948418598830,0.0038907782080070,0,0,0,0,0,0,0,0,0,0,0,0,17,0,0,0,0,0,0,0,0,0,0,0,0,0,0,0,0,0,0,0,0,0,0,0,0,0,0,0,0,0,0,0,0,0,0,0,0,0,0,0,0,0,0,0,0,0,0,0,0,0,0,0,0,0,0,0,0,0,0,0,0,0,0,0,0,0,0,0,0,0,0,0,0,0,0,0,0,0,0,0,0,0,0,0,0,0,0,0,0,0,0,0,0,0,0,0,0,0,0,0,1
Botella01,z,0,0.0842610455354054,0.7424365511364310,0.1268967405200510,-0.1695407442453020,0.0531279585676368,0.6018798449152240,0.1485942700139920,-0.0821446440133040,0.1401420374597560,0.7306026067429040,0.2877198650033460,-0.2367581903734110,1.2779138398031800,0.3294703343046280,0.2205996738642020,0.1020434610939420,0,0,0,0,0,0,0,0,0,0,0,0,17,0,0,0,0,0,0,0,0,0,0,0,0,0,0,0,0,0,0,0,0,0,0,0,0,0,0,0,0,0,0,0,0,0,0,0,0,0,0,0,0,0,0,0,0,0,0,0,0,0,0,0,0,0,0,0,0,0,0,0,0,0,0,0,0,0,0,0,0,0,0,0,0,0,0,0,0,0,0,0,0,0,0,0,0,0,0,0,0,0,0,0,0,0,0,0,0,0,0,0,1
Botella01,z,30,0.0903092945695586,0.6431950088969430,0.2288687676657090,-0.1450938397165040,0.0340002035714945,0.5751348203206930,0.1825571679014210,-0.0372813600756771,0.1434226814420010,0.7600400324599830,0.2629400444114670,-0.2465785546094350,1.2766762150291400,0.3428907519718400,0.1741442157745510,0.1128148144434640,0,0,0,0,0,0,0,0,0,0,0,0,17,0,0,0,0,0,0,0,0,0,0,0,0,0,0,0,0,0,0,0,0,0,0,0,0,0,0,0,0,0,0,0,0,0,0,0,0,0,0,0,0,0,0,0,0,0,0,0,0,0,0,0,0,0,0,0,0,0,0,0,0,0,0,0,0,0,0,0,0,0,0,0,0,0,0,0,0,0,0,0,0,0,0,0,0,0,0,0,0,0,0,0,0,0,0,0,0,0,0,0,1
Botella01,z,60,0.0552725999120762,0.6494278688658630,0.2070824621363180,-0.1518894864117070,0.0411573262104958,0.6127437633423380,0.1327646484163650,-0.0312136190185690,0.1212135261088620,0.8066336998060080,0.2426622983562820,-0.2535200665285760,1.2615625383417500,0.3362272537596870,0.1516570244753160,0.0976279389942590,0,0,0,0,0,0,0,0,0,0,0,0,17,0,0,0,0,0,0,0,0,0,0,0,0,0,0,0,0,0,0,0,0,0,0,0,0,0,0,0,0,0,0,0,0,0,0,0,0,0,0,0,0,0,0,0,0,0,0,0,0,0,0,0,0,0,0,0,0,0,0,0,0,0,0,0,0,0,0,0,0,0,0,0,0,0,0,0,0,0,0,0,0,0,0,0,0,0,0,0,0,0,0,0,0,0,0,0,0,0,0,0,1
Botella01,z,90,-0.0634031917547578,0.4369192469114460,0.2390758906046140,0.1054455486202510,0.0148112590953814,0.5187205343646390,0.2274791012432690,0.0098825402483670,0.2575926474553900,1.0050397394386900,0.1317663916369600,-0.3236584332065400,1.3199546432135200,0.3739101067608450,0.2036228158541450,-0.0040715804573950,0,0,0,0,0,0,0,0,0,0,0,0,17,0,0,0,0,0,0,0,0,0,0,0,0,0,0,0,0,0,0,0,0,0,0,0,0,0,0,0,0,0,0,0,0,0,0,0,0,0,0,0,0,0,0,0,0,0,0,0,0,0,0,0,0,0,0,0,0,0,0,0,0,0,0,0,0,0,0,0,0,0,0,0,0,0,0,0,0,0,0,0,0,0,0,0,0,0,0,0,0,0,0,0,0,0,0,0,0,0,0,0,1
Botella01,z,0,0.1318008607122930,0.6276815548349440,0.2031196774765940,-0.1626140441404920,-0.0218605083307871,0.5247736128580880,0.2682664423603370,-0.0504607629133350,0.2182171988056420,0.9760087157170650,0.1492073405231350,-0.3297015508112950,1.2647360117189600,0.3335536697676570,0.2264746785551380,-0.0033980886082410,0,0,0,0,0,0,0,0,0,0,0,0,0,0,0,0,0,0,0,0,0,0,0,0,0,0,0,0,0,0,0,0,0,0,0,0,0,0,0,0,0,0,0,0,0,0,0,0,0,0,0,0,0,0,0,0,0,0,0,0,0,0,0,0,0,0,0,0,0,0,0,0,0,0,0,0,0,0,0,0,0,0,0,0,0,0,0,0,0,0,0,0,0,0,0,0,0,0,0,0,0,0,0,0,0,0,0,0,0,0,0,0,1
Botella01,z,30,-0.0118859752601451,0.5062198185416560,0.2700287667136100,-0.0906626918409910,-0.0171283059349480,0.5064581219059930,0.2611868638348540,-0.0358169974895021,0.2320615801819690,0.9706009472589030,0.1663871931985070,-0.3329185998400130,1.3146046751008200,0.3659359789879050,0.1914401278036630,-0.0365432303784120,0,0,0,0,0,0,0,0,0,0,0,0,0,0,0,0,0,0,0,0,0,0,0,0,0,0,0,0,0,0,0,0,0,0,0,0,0,0,0,0,0,0,0,0,0,0,0,0,0,0,0,0,0,0,0,0,0,0,0,0,0,0,0,0,0,0,0,0,0,0,0,0,0,0,0,0,0,0,0,0,0,0,0,0,0,3,0,0,0,0,0,0,0,0,0,0,0,0,0,0,0,0,0,0,0,0,0,0,0,0,0,0,1
Botella01,z,60,-0.0469247355567364,0.4698666847565630,0.2859913921519950,-0.0145997888567380,-0.0246092618227535,0.6304701003719980,0.1569389855920890,-0.0895048464164769,0.2217836818405150,0.9753097093268170,0.1512050314499530,-0.3298178729316530,1.2980035402503600,0.4017121942189020,0.1550288420727470,-0.0138173238912640,0,0,0,0,0,0,0,0,0,0,0,0,0,0,0,0,0,0,0,0,0,0,0,0,0,0,0,0,0,0,0,0,0,0,0,0,0,0,0,0,0,0,0,0,0,0,0,0,0,0,0,0,0,0,0,0,0,0,0,0,0,0,0,0,0,0,0,0,0,0,0,0,0,0,0,0,0,0,0,0,0,0,0,0,0,0,0,0,0,0,0,0,0,0,0,0,0,0,0,0,0,0,0,0,0,0,0,0,0,0,0,0,1
Botella01,z,90,-0.0370944637218724,0.5876280057443730,0.1601642120378510,-0.1204561734620370,-0.0088934159777702,0.5985772789269250,0.1970593323209710,-0.0818379896238910,0.2203609726764490,0.9757029531983740,0.1501842378136860,-0.3284854474313420,1.2778622402096300,0.3670894462126360,0.1498655733638980,0.0069431130495470,0,0,0,0,0,0,0,0,0,0,0,0,0,0,0,0,0,0,0,0,0,0,0,0,0,0,0,0,0,0,0,0,0,0,0,0,0,0,0,0,0,0,0,0,0,0,0,0,0,0,0,0,0,0,0,0,0,0,0,0,0,0,0,0,0,0,0,0,0,0,0,0,0,0,0,0,0,0,0,0,0,0,0,0,0,0,0,0,0,0,0,0,0,0,0,0,0,0,0,0,0,0,0,0,0,0,0,0,0,0,0,0,1
Botella01,z,0,-0.0230393792997298,0.5466950284162030,0.2114750564297410,-0.1037567757166890,-0.0095287558816667,0.5288930876619220,0.2513106595199440,-0.0691052437401390,0.2232778061875730,0.9748977870281770,0.1526683252252330,-0.3266612890517320,1.3019287163061400,0.3056225909905890,0.1854820555022130,0.0449651359035040,0,0,0,0,0,0,0,0,0,0,0,0,0,0,0,0,0,0,0,0,0,0,0,0,0,0,0,0,0,0,0,0,0,0,0,0,0,0,0,0,0,0,0,0,0,0,0,0,0,0,0,0,0,0,0,0,0,0,0,0,0,0,0,0,0,0,0,0,0,0,0,0,0,0,0,0,0,0,0,0,0,0,0,0,0,0,0,0,0,0,0,0,0,0,0,0,0,0,0,0,0,0,0,0,0,0,0,0,0,0,0,0,1
Botella01,z,30,-0.0232987125686006,0.5802637353280420,0.2214021173252240,-0.1742634995907820,-0.0099451921592572,0.5932605374221510,0.1703417549237750,-0.0841153625858880,0.1809549260457480,0.8821662831170500,0.1590197177019000,-0.3349628611165590,1.2726937627767300,0.3690988349113110,0.1726593989766920,0.0023606314249830,0,0,0,0,0,0,0,0,0,0,0,0,0,0,0,0,0,0,0,0,0,0,0,0,0,0,0,0,0,0,0,0,0,0,0,0,0,0,0,0,0,0,0,0,0,0,0,0,0,0,0,0,0,0,0,0,0,0,0,0,0,0,0,0,0,0,0,0,0,0,0,0,0,0,0,0,0,0,0,0,0,0,0,0,0,4,0,0,0,0,0,0,0,0,0,0,0,0,0,0,0,0,0,0,0,0,0,0,0,0,0,0,1
Botella01,z,60,-0.0177596037211342,0.5052550277004430,0.2809150662320880,-0.0786191876045850,-0.0044210299000226,0.5208735605153770,0.2843994149007840,-0.0416760532605881,0.2229089696705600,0.9759130508243540,0.1498896842095760,-0.3288221402591120,1.2755636659573000,0.3948536500694700,0.1812442990555040,-0.0225039509783770,0,0,0,0,0,0,0,0,0,0,0,0,0,0,0,0,0,0,0,0,0,0,0,0,0,0,0,0,0,0,0,0,0,0,0,0,0,0,0,0,0,0,0,0,0,0,0,0,0,0,0,0,0,0,0,0,0,0,0,0,0,0,0,0,0,0,0,0,0,0,0,0,0,0,0,0,0,0,0,0,0,0,0,0,0,0,4,0,0,0,0,0,0,0,0,0,0,0,0,0,0,0,0,0,0,0,0,0,0,0,0,0,1
Botella01,z,90,0.1198237225797730,0.6338679339896410,0.1778178809555260,-0.1605167213461270,-0.0104923848822069,0.5789657219896280,0.2043186287225850,-0.0587622096729050,0.2254799843556720,0.9751775220865660,0.1517620093990340,-0.3264259888887120,1.3002086268736000,0.3753317609110550,0.1306089117247710,0.0478753682176940,0,0,0,0,0,0,0,0,0,0,0,0,0,0,0,0,0,0,0,0,0,0,0,0,0,0,0,0,0,0,0,0,0,0,0,0,0,0,0,0,0,0,0,0,0,0,0,0,0,0,0,0,0,0,0,0,0,0,0,0,0,0,0,0,0,0,0,0,0,0,0,0,0,0,0,0,0,0,0,0,0,0,0,0,0,0,0,0,0,0,0,0,0,0,0,0,0,0,0,0,0,0,0,0,0,0,0,0,0,0,0,0,1
Botella01,z,0,0.1211379124088840,0.6729716442931370,0.1778792553178320,-0.1884426244212780,0.0035292300991995,0.5715689849657040,0.1789593654938150,-0.0785810156230791,0.1524958144487480,0.7711336258378420,0.2261816106816220,-0.2956499160879680,1.2711946590767500,0.3397501332633010,0.2060893046061650,0.0324182306786100,0,0,0,0,0,0,0,0,0,0,0,0,0,0,0,0,0,0,0,0,0,0,0,0,0,0,0,0,0,0,0,0,0,0,0,0,0,0,0,0,0,0,0,0,0,0,0,0,0,0,0,0,0,0,0,0,0,0,0,0,0,0,0,0,0,0,0,0,0,0,0,0,0,0,0,0,0,0,0,0,0,0,0,0,0,0,0,0,0,0,0,0,0,0,0,0,0,0,0,0,0,0,0,0,0,0,0,0,0,0,0,0,1
Botella01,z,30,-0.0266248327915770,0.5685232997199760,0.1837131632385280,-0.1125025759703970,-0.0052758093769907,0.5981069298376460,0.1430451440521600,-0.0776333497064160,0.2232821471461340,0.9760312238175260,0.1475941018651740,-0.3334545844613600,1.3249498219846600,0.3695737255096610,0.1440656338318860,-0.0130926952178660,0,0,0,0,0,0,0,0,0,0,0,0,0,0,0,0,0,0,0,0,0,0,0,0,0,0,0,0,0,0,0,0,0,0,0,0,0,0,0,0,0,0,0,0,0,0,0,0,0,0,0,0,0,0,0,0,0,0,0,0,0,0,0,0,0,0,0,0,0,0,0,0,0,0,0,0,0,0,0,0,0,0,0,0,0,0,0,0,0,0,0,0,0,0,0,0,0,0,0,0,0,0,0,0,0,0,0,0,0,0,0,0,1
Botella01,z,60,-0.0352405139873087,0.4965743088629650,0.2783793967694310,-0.0684085917710230,-0.0047297484317677,0.5965250061203620,0.2036592058322890,-0.0962777696646699,0.2259509518423430,0.9742429123063200,0.1547525668454400,-0.3295174559740090,1.3163361763226100,0.3779234730958170,0.1431589661756890,0.0026163125677410,0,0,0,0,0,0,0,0,0,0,0,0,0,0,0,0,0,0,0,0,0,0,0,0,0,0,0,0,0,0,0,0,0,0,0,0,0,0,0,0,0,0,0,0,0,0,0,0,0,0,0,0,0,0,0,0,0,0,0,0,0,0,0,0,0,0,0,0,0,0,0,0,0,0,0,0,0,0,0,0,0,0,0,0,0,0,0,0,0,0,0,0,0,0,0,0,0,0,0,0,0,0,0,0,0,0,0,0,0,0,0,0,1
Botella01,z,90,0.0757971445204496,0.6511741123507210,0.1845938805859230,-0.1981879809384120,-0.0131187732349149,0.6290002155783030,0.1561010418037940,-0.0855919876179471,0.1845490984252970,0.8903439511341190,0.1706867638302010,-0.3395739550197410,1.2751545052378200,0.3626128403955840,0.1266974798827720,0.0479250319031970,0,0,0,0,0,0,0,0,0,0,0,0,0,0,0,0,0,0,0,0,0,0,0,0,0,0,0,0,0,0,0,0,0,0,0,0,0,0,0,0,0,0,0,0,0,0,0,0,0,0,0,0,0,0,0,0,0,0,0,0,0,0,0,0,0,0,0,0,0,0,0,0,0,0,0,0,0,0,0,0,0,0,0,0,0,0,0,0,0,0,0,0,0,0,0,0,0,0,0,0,0,0,0,0,0,0,0,0,0,0,0,0,1
Botella01,z,0,0.1307416951327530,0.5536915470696310,0.2930805158011660,-0.1461067918424150,0.0038864276832205,0.4833495054558570,0.2561868383250290,0.0220522109847301,0.2255633452306370,0.9741578081974390,0.1553104640408110,-0.3289953389073900,1.3274606026426600,0.3749703477963210,0.2080227894246040,0.0236897421537000,0,0,0,0,0,0,0,0,0,0,0,0,0,0,0,0,0,0,0,0,0,0,0,0,0,0,0,0,0,0,0,0,0,0,0,0,0,0,0,0,0,0,0,0,0,0,0,0,0,0,0,0,0,0,0,0,0,0,0,0,0,0,0,0,0,0,0,0,0,0,0,0,0,0,0,0,0,0,0,0,0,0,0,0,0,0,0,0,0,0,0,0,0,0,0,0,0,0,0,0,0,0,0,0,0,0,0,0,0,0,0,0,1
Botella01,z,30,-0.0189327654868087,0.6312630308196400,0.1044874553342260,-0.1585057557335920,-0.0054579366312637,0.6459741588037860,0.0633394876913570,-0.0995102617384790,0.2138927330699020,0.9765872541698160,0.1476851878411040,-0.3311024860776220,1.3434938341337900,0.3539015906342680,0.1060253994537470,0.0359990011373660,0,0,0,0,0,0,0,0,0,0,0,0,0,0,0,0,0,0,0,0,0,0,0,0,0,0,0,0,0,0,0,0,0,0,0,0,0,0,0,0,0,0,0,0,0,0,0,0,0,0,0,0,0,0,0,0,0,0,0,0,0,0,0,0,0,0,0,0,0,0,0,0,0,0,0,0,0,0,0,0,0,0,0,0,0,0,0,0,0,0,0,0,0,0,0,0,0,0,0,0,0,0,0,0,0,0,0,0,0,0,0,0,1
Botella01,z,60,-0.0249473038901890,0.5034803498317530,0.2883742690640200,-0.0889588004990340,-0.0148732186988542,0.5937195031687970,0.2073722048040400,-0.0811117771767370,0.2275192856232560,0.9716283430367850,0.1626574701224750,-0.3308057381767190,1.3189406564508000,0.3800728735526910,0.1472228880446420,-0.0143081859003350,0,0,0,0,0,0,0,0,0,0,0,0,0,0,0,0,0,0,0,0,0,0,0,0,0,0,0,0,0,0,0,0,0,0,0,0,0,0,0,0,0,0,0,0,0,0,0,0,0,0,0,0,0,0,0,0,0,0,0,0,0,0,0,0,0,0,0,0,0,0,0,0,0,0,0,0,0,0,0,0,0,0,0,0,0,0,0,0,0,0,0,0,0,0,0,0,0,0,0,0,0,0,0,0,0,0,0,0,0,0,0,0,1
Botella01,z,90,0.1110273051937000,0.6390383424928500,0.2144612035865060,-0.1971121974271270,-0.0203958128740429,0.6295029128443360,0.1561940016433870,-0.0769612391388981,0.1839580461826380,0.8971793476763810,0.1650915981140090,-0.3511316257582440,1.2817723243951700,0.3704714990914810,0.1250734400561180,0.0467270655299180,0,0,0,0,0,0,0,0,0,0,0,0,0,0,0,0,0,0,0,0,0,0,0,0,0,0,0,0,0,0,0,0,0,0,0,0,0,0,0,0,0,0,0,0,0,0,0,0,0,0,0,0,0,0,0,0,0,0,0,0,0,0,0,0,0,0,0,0,0,0,0,0,0,0,0,0,0,0,0,0,0,0,0,0,0,0,0,0,0,0,0,0,0,0,0,0,0,0,0,0,0,0,0,0,0,0,0,0,0,0,0,0,1
Botella01,z,0,0.0883356276161102,0.6987688100963310,0.1416043857714360,-0.1820312935757210,0.0122550496028300,0.5900838061659540,0.1639031547383130,-0.0823945441661090,0.1378180758232680,0.7581096017611690,0.2396902384641710,-0.3059245598609700,1.2670670257155400,0.3338282089121900,0.2046708537232130,0.0309277083604750,0,0,0,0,0,0,0,0,0,0,0,0,0,0,0,0,0,0,0,0,0,0,0,0,0,0,0,0,0,0,0,0,0,0,0,0,0,0,0,0,0,0,0,0,0,0,0,0,0,0,0,0,0,0,0,0,0,0,0,0,0,0,0,0,0,0,0,0,0,0,0,0,0,0,0,0,0,0,0,0,0,0,0,0,0,0,0,0,0,0,0,0,0,0,0,0,0,0,0,0,0,0,0,0,0,0,0,0,0,0,0,0,1
Botella01,z,30,-0.0142408248448351,0.5716659740728000,0.2249088929507660,-0.1623349328393220,0.0000598317157064,0.5696540446588990,0.2112910942463870,-0.0568012249592571,0.1847863671563580,0.9090379033349470,0.1733201348936230,-0.3588691332882030,1.2989351503945100,0.3348304643945770,0.1505634538778420,0.0517565892410180,0,0,0,0,0,0,0,0,0,0,0,0,0,0,0,0,0,0,0,0,0,0,0,0,0,0,0,0,0,0,0,0,0,0,0,0,0,0,0,0,0,0,0,0,0,0,0,0,0,0,0,0,0,0,0,0,0,0,0,0,0,0,0,0,0,0,0,0,0,0,0,0,0,0,0,0,0,0,0,0,0,0,0,0,0,0,0,0,0,0,0,0,0,0,0,0,0,0,0,0,0,0,0,0,0,0,0,0,0,0,0,0,1
Botella01,z,60,0.0532052166877059,0.5988820381310310,0.2004370931516450,-0.1537538079885070,-0.0135894465648090,0.5546685260465610,0.2094557472589470,-0.0514111752228460,0.1857633504578350,0.8634279766110190,0.1545635731608210,-0.3181272176270010,1.2973010068125500,0.3856951432317640,0.1479805595684130,0.0255516097904350,0,0,0,0,0,0,0,0,0,0,0,0,0,0,0,0,0,0,0,0,0,0,0,0,0,0,0,0,0,0,0,0,0,0,0,0,0,0,0,0,0,0,0,0,0,0,0,0,0,0,0,0,0,0,0,0,0,0,0,0,0,0,0,0,0,0,0,0,0,0,0,0,0,0,0,0,0,0,0,0,0,0,0,0,0,0,0,0,0,0,0,0,0,0,0,0,0,0,0,0,0,0,0,0,0,0,0,0,0,0,0,0,1
Botella01,z,90,0.0470751150061728,0.7147267151365500,0.1360687331660010,-0.1856542586875210,0.0002584136473169,0.7308172182369920,0.0113288617842711,-0.1159209610851110,0.1197419273720560,0.8273436575154490,0.1841341128669110,-0.3050055740790650,1.2997094601800900,0.3594866547192070,0.0943974451472827,0.0181474381970583,0,0,0,0,0,0,0,0,0,0,0,0,0,0,0,0,0,0,0,0,0,0,0,0,0,0,0,0,0,0,0,0,0,0,0,0,0,0,0,0,0,0,0,0,0,0,0,0,0,0,0,0,0,0,0,0,0,0,0,0,0,0,0,0,0,0,0,0,0,0,0,0,0,0,0,0,0,0,0,0,0,0,0,0,0,22,0,0,0,0,0,0,0,0,0,0,0,0,0,0,0,0,0,0,0,0,0,0,0,0,0,0,1
Botella01,z,0,0.0616850811666716,0.7049515799273140,0.1348798325981110,-0.1803410164168930,0.0018084404861572,0.6315968777320230,0.0863237079382950,-0.0815587112508300,0.1268176934784440,0.7576684930526250,0.2057532103522260,-0.2904378170194710,1.2975157881145000,0.3352555345965770,0.1624999477501540,0.0568134700176120,0,0,0,0,0,0,0,0,0,0,0,0,0,0,0,0,0,0,0,0,0,0,0,0,0,0,0,0,0,0,0,0,0,0,0,0,0,0,0,0,0,0,0,0,0,0,0,0,0,0,0,0,0,0,0,0,0,0,0,0,0,0,0,0,0,0,0,0,0,0,0,0,0,0,0,0,0,0,0,0,0,0,0,0,0,0,0,0,0,0,0,0,0,0,0,0,0,0,0,0,0,0,0,0,0,0,0,0,0,0,0,0,1
Botella01,z,30,-0.0187321043876266,0.5986843368419060,0.2052923604224440,-0.1802016729088510,0.0065966043609950,0.5708904787121200,0.2007535016096020,-0.0441174093140470,0.1540357774007750,0.8837052564027530,0.2070463975327570,-0.3364759003187580,1.2753680044559100,0.3677756223417410,0.1701223703627740,0.0261074716380300,0,0,0,0,0,0,0,0,0,0,0,0,0,0,0,0,0,0,0,0,0,0,0,0,0,0,0,0,0,0,0,0,0,0,0,0,0,0,0,0,0,0,0,0,0,0,0,0,0,0,0,0,0,0,0,0,0,0,0,0,0,0,0,0,0,0,0,0,0,0,0,0,0,0,0,0,0,0,0,0,0,0,0,0,0,7,3,0,0,0,0,0,0,0,0,0,0,0,0,0,0,0,0,0,0,0,0,0,0,0,0,0,1
Botella01,z,60,0.0672717287493470,0.6864084348133970,0.2126280559120690,-0.1557192166519760,0.0031096139521062,0.6435518872316500,0.1231526925514770,-0.0689002136810520,0.1038577017792020,0.8664528075383540,0.1746230027964660,-0.3065319867155100,1.2503866217572500,0.3293351019058000,0.1474302815522420,0.0113087816682090,0,0,0,0,0,0,0,0,0,0,0,0,0,0,0,0,0,0,0,0,0,0,0,0,0,0,0,0,0,0,0,0,0,0,0,0,0,0,0,0,0,0,0,0,0,0,0,0,0,0,0,0,0,0,0,0,0,0,0,0,0,0,0,0,0,0,0,0,0,0,0,0,0,0,0,0,0,0,0,0,0,0,0,0,0,0,0,0,3,0,0,0,0,0,0,0,0,0,0,0,0,0,0,0,0,0,0,0,0,0,0,0,1
Botella01,z,90,-0.0237240363732937,0.5588504031943320,0.1957719506723510,-0.1111195150879960,0.0051487805655974,0.6923190787290930,0.0185125311488340,-0.0759356852690920,0.1964114742708800,0.9707215794304880,0.1644800432435220,-0.3322202792279800,1.3186691804258000,0.3693343021182580,0.1212823108230380,-0.0097728245022540,0,0,0,0,0,0,0,0,0,0,0,0,0,0,0,0,0,0,0,0,0,0,0,0,0,0,0,0,0,0,0,0,0,0,0,0,0,0,0,0,0,0,0,0,0,0,0,0,0,0,0,0,0,0,0,0,0,0,0,0,0,0,0,0,0,0,0,0,0,0,0,0,0,0,0,0,0,0,0,0,0,0,0,0,0,0,0,0,0,0,0,0,0,0,0,0,0,0,0,0,0,0,0,0,0,0,0,0,0,0,0,0,1
Botella01,z,0,0.0764609842205398,0.6972337320992010,0.1542039097762450,-0.1461940534008550,-0.0021426392969600,0.6321434104443060,0.1076358650299530,-0.0696858108952071,0.1260786427980700,0.7709034826846670,0.2514796186125530,-0.2652827620363500,1.2606143445515600,0.3211998416514800,0.1999665358191630,0.0287649902796400,0,0,0,0,0,0,0,0,0,0,0,0,0,0,0,0,0,0,0,0,0,0,0,0,0,0,0,0,0,0,0,0,0,0,0,0,0,0,0,0,0,0,0,0,0,0,0,0,0,0,0,0,0,0,0,0,0,0,0,0,0,0,0,0,0,0,0,0,0,0,0,0,0,0,0,0,0,0,0,0,0,0,0,0,0,0,0,0,0,0,0,0,0,0,0,0,0,0,0,0,0,0,0,0,0,0,0,0,0,0,0,0,1
Botella01,z,30,0.1475516097177760,0.6019859698361560,0.1869726670848520,-0.1195679274042280,0.0004678055621121,0.4855219917214440,0.2189003169393090,0.0851534753827691,0.2186782623693180,0.9742025971209090,0.1522420424660610,-0.3354881405487050,1.3456504265382500,0.3746489846456190,0.1924558056027290,0.0240221188013950,0,0,0,0,0,0,0,0,0,0,0,0,0,0,0,0,0,0,0,0,0,0,0,0,0,0,0,0,0,0,0,0,0,0,0,0,0,0,0,0,0,0,0,0,0,0,0,0,0,0,0,0,0,0,0,0,0,0,0,0,0,0,0,0,0,0,0,0,0,0,0,0,0,0,0,0,0,0,0,0,0,0,0,0,0,0,0,0,0,0,0,0,0,0,0,0,0,0,0,0,0,0,0,0,0,0,0,0,0,0,0,0,1
Botella01,z,60,-0.0207056717074400,0.6507022742191460,0.1262543950480730,-0.1960590297850520,0.0075662685116840,0.6074604148016080,0.1613702735258250,-0.0912326876253590,0.1737914096272800,0.8564821971975370,0.1570499648036630,-0.3139217493666240,1.3122076714989200,0.3704744814129580,0.1173666691197170,-0.0330720844693105,0,0,0,0,0,0,0,0,0,0,0,0,0,0,0,0,0,0,0,0,0,0,0,0,0,0,0,0,0,0,0,0,0,0,0,0,0,0,0,0,0,0,0,0,0,0,0,0,0,0,0,0,0,0,0,0,0,0,0,0,0,0,0,0,0,0,0,0,0,0,0,0,0,0,0,0,0,0,0,0,0,0,0,0,0,20,7,0,0,0,0,0,0,0,0,0,0,0,0,0,0,0,0,0,0,0,0,0,0,0,0,0,1
Botella01,z,90,0.1193074294539060,0.7309315367789120,0.1871610593398280,-0.1735585194583110,-0.0000815180534996,0.6571729547621070,0.1145828859817110,-0.0519492067059439,0.1444402156785520,0.8158275234509880,0.2374438353774220,-0.3005754099464620,1.2508968341235100,0.3470045953337710,0.1628056067611830,0.0093705608558410,0,0,0,0,0,0,0,0,0,0,0,0,0,0,0,0,0,0,0,0,0,0,0,0,0,0,0,0,0,0,0,0,0,0,0,0,0,0,0,0,0,0,0,0,0,0,0,0,0,0,0,0,0,0,0,0,0,0,0,0,0,0,0,0,0,0,0,0,0,0,0,0,0,0,0,0,0,0,0,0,0,0,0,0,0,0,0,0,0,0,0,0,0,0,0,0,0,0,0,0,0,0,0,0,0,0,0,0,0,0,0,0,1
Botella01,z,0,0.0712973365222401,0.7086127479631290,0.1414299895338670,-0.1871355731385590,0.0125612380994404,0.6047310609261730,0.1462329687037020,-0.0662559068914360,0.1306603797874900,0.7478557530636610,0.2501978297366950,-0.2938290554432870,1.2518073524101500,0.3273410071973040,0.2185074047201700,0.0193188029292850,0,0,0,0,0,0,0,0,0,0,0,0,0,0,0,0,0,0,0,0,0,0,0,0,0,0,0,0,0,0,0,0,0,0,0,0,0,0,0,0,0,0,0,0,0,0,0,0,0,0,0,0,0,0,0,0,0,0,0,0,0,0,0,0,0,0,0,0,0,0,0,0,0,0,0,0,0,0,0,0,0,0,0,0,0,0,0,0,0,0,0,0,0,0,0,0,0,0,0,0,0,0,0,0,0,0,0,0,0,0,0,0,1
Botella01,z,30,0.0746192751459513,0.6717317959174630,0.1310464591789680,-0.1859594393705930,0.0262803647536936,0.4978302522885310,0.2816900816455330,-0.0734363277514869,0.1444172854549870,0.7270066957031280,0.2643345065026240,-0.3134118255658100,1.2992301591232400,0.3656165745131550,0.2263076530052540,-0.0248589855474500,0,0,0,0,0,0,0,0,0,0,0,0,0,0,0,0,0,0,0,0,0,0,0,0,0,0,0,0,0,0,0,0,0,0,0,0,0,0,0,0,0,0,0,0,0,0,0,0,0,0,0,0,0,0,0,0,0,0,0,0,0,0,0,0,0,0,0,0,0,0,0,0,0,0,0,0,0,0,0,0,0,0,0,0,0,0,0,0,0,0,0,0,0,0,0,0,0,0,0,0,0,0,0,0,0,0,0,0,0,0,0,0,1
Botella01,z,60,0.1426128617448750,0.6510835373905710,0.1860702624096500,-0.1802380480899430,0.0083488916698865,0.4819194700908600,0.2929749724567750,-0.0442730606851079,0.1560618104598230,0.7724989076412640,0.2222828497522980,-0.3157117833307090,1.3001871985543600,0.3766166188938670,0.1721656031545340,0.0141148096629430,0,0,0,0,0,0,0,0,0,0,0,0,0,0,0,0,0,0,0,0,0,0,0,0,0,0,0,0,0,0,0,0,0,0,0,0,0,0,0,0,0,0,0,0,0,0,0,0,0,0,0,0,0,0,0,0,0,0,0,0,0,0,0,0,0,0,0,0,0,0,0,0,0,0,0,0,0,0,0,0,0,0,0,0,0,0,0,0,0,0,0,0,0,0,0,0,0,0,0,0,0,0,0,0,0,0,0,0,0,0,0,0,1
Botella01,z,90,0.1029694935235380,0.7164227141937270,0.1649199077517250,-0.1208836755582190,0.0049624640484199,0.6684910126987760,0.1151363779221880,-0.0851086354895830,0.1436403616236730,0.8259983366236540,0.2160048349462060,-0.3178487490173720,1.2616091087615700,0.3518386055489880,0.1219975732823270,0.0221059957819010,0,0,0,0,0,0,0,0,0,0,0,0,0,0,0,0,0,0,0,0,0,0,0,0,0,0,0,0,0,0,0,0,0,0,0,0,0,0,0,0,0,0,0,0,0,0,0,0,0,0,0,0,0,0,0,0,0,0,0,0,0,0,0,0,0,0,0,0,0,0,0,0,0,0,0,0,0,0,0,0,0,0,0,0,0,0,0,0,0,0,0,0,0,0,0,0,0,0,0,0,0,0,0,0,0,0,0,0,0,0,0,0,1
Botella01,z,0,0.0587931127750247,0.6778577618742820,0.1640930007046510,-0.1924744376539880,0.0035430164773351,0.6338268257187860,0.1009524317714790,-0.0971059227680010,0.1321928284681080,0.7805997460818210,0.2256080845491790,-0.2965330950057640,1.3006449947933600,0.3432377974006190,0.1568357936960280,0.0429544507980170,0,0,0,0,0,0,0,0,0,0,0,0,0,0,0,0,0,0,0,0,0,0,0,0,0,0,0,0,0,0,0,0,0,0,0,0,0,0,0,0,0,0,0,0,0,0,0,0,0,0,0,0,0,0,0,0,0,0,0,0,0,0,0,0,0,0,0,0,0,0,0,0,0,0,0,0,0,0,0,0,0,0,0,0,0,5,0,0,0,0,0,0,0,0,0,0,0,0,0,0,0,0,0,0,0,0,0,0,0,0,0,0,1
Botella01,z,30,0.1596171628199960,0.6243817220564810,0.2010240216133660,-0.1821243589754270,0.0248333025096280,0.4697280464164300,0.2871154441971970,-0.0088073497335520,0.1831628685220380,0.8261531263254120,0.1632879429985380,-0.3340697365997900,1.3268353186724200,0.3733767822677230,0.1780829994144830,0.0116343502971950,0,0,0,0,0,0,0,0,0,0,0,0,0,0,0,0,0,0,0,0,0,0,0,0,0,0,0,0,0,0,0,0,0,0,0,0,0,0,0,0,0,0,0,0,0,0,0,0,0,0,0,0,0,0,0,0,0,0,0,0,0,0,0,0,0,0,0,0,0,0,0,0,0,0,0,0,0,0,0,0,0,0,0,0,0,0,0,0,0,0,0,0,0,0,0,0,0,0,0,0,0,0,0,0,0,0,0,0,0,0,0,0,1
Botella01,z,60,0.0795280616267674,0.6541303098040540,0.1795939925443810,-0.2059954107484040,0.0135306737957673,0.5696609903420540,0.2098253207739990,-0.0667967073224141,0.1549734714217260,0.8282244919717590,0.1989333034979110,-0.3130799037672410,1.2759320393327000,0.3658573422136140,0.1491637459512400,0.0084724348830910,0,0,0,0,0,0,0,0,0,0,0,0,0,0,0,0,0,0,0,0,0,0,0,0,0,0,0,0,0,0,0,0,0,0,0,0,0,0,0,0,0,0,0,0,0,0,0,0,0,0,0,0,0,0,0,0,0,0,0,0,0,0,0,0,0,0,0,0,0,0,0,0,0,0,0,0,0,0,0,0,0,0,0,0,0,0,0,0,0,0,0,0,0,0,0,0,0,0,0,0,0,0,0,0,0,0,0,0,0,0,0,0,1
Botella01,z,90,0.0935519554644625,0.6689992805943740,0.1646582064744930,-0.1350047579584400,0.0018664257115860,0.7056139990317930,-0.0096386954485480,-0.0790483908861990,0.1876907110118340,0.9595873674203890,0.1731166115814810,-0.3548324104551640,1.3229485897883400,0.3690432828868700,0.0699856116163400,0.1018144388288290,0,0,0,0,0,0,0,0,0,0,0,0,20,0,0,0,0,0,0,0,0,0,0,0,0,0,0,0,0,0,0,0,0,0,0,0,0,0,0,0,0,0,0,0,0,0,0,0,0,0,0,0,0,0,0,0,0,0,0,0,0,0,0,0,0,0,0,0,0,0,0,0,0,0,0,0,0,0,0,0,0,0,0,0,0,0,0,0,0,0,0,0,0,0,0,0,0,0,0,0,0,0,0,0,0,0,0,0,0,0,0,0,1
Botella01,z,0,0.0875944297356690,0.6994623255911000,0.1530555428543940,-0.1843909926911070,0.0029092396615444,0.6093263436107140,0.1350825238052030,-0.0663065368286870,0.1389910792395770,0.7583618662652950,0.2492112397413150,-0.2866474750421340,1.2697244126035800,0.3472496053864850,0.1995915318816630,0.0361484669290670,0,0,0,0,0,0,0,0,0,0,0,0,0,0,0,0,0,0,0,0,0,0,0,0,0,0,0,0,0,0,0,0,0,0,0,0,0,0,0,0,0,0,0,0,0,0,0,0,0,0,0,0,0,0,0,0,0,0,0,0,0,0,0,0,0,0,0,0,0,0,0,0,0,0,0,0,0,0,0,0,0,0,0,0,0,0,0,0,0,0,0,0,0,0,0,0,0,0,0,0,0,0,0,0,0,0,0,0,0,0,0,0,1
Botella01,z,30,-0.0203621017268377,0.5697022419902130,0.1834035290415340,-0.1020791725640470,-0.0041849118651750,0.6245328765983410,0.1137800853489190,-0.0908358524655350,0.2227008302041100,0.9762113848901850,0.1489732671210150,-0.3381658178500160,1.3490179030634300,0.3644595837776530,0.1165858581718940,0.0554770739405860,0,0,0,0,0,0,0,0,0,0,0,0,0,0,0,0,0,0,0,0,0,0,0,0,0,0,0,0,0,0,0,0,0,0,0,0,0,0,0,0,0,0,0,0,0,0,0,0,0,0,0,0,0,0,0,0,0,0,0,0,0,0,0,0,0,0,0,0,0,0,0,0,0,0,0,0,0,0,0,0,0,0,0,0,0,0,0,3,0,0,0,0,0,0,0,0,0,0,0,0,0,0,0,0,0,0,0,0,0,0,0,0,1
Botella01,z,60,0.0268511854940709,0.6345771656724450,0.1697255283490420,-0.2095034572972660,0.0125451687644837,0.5784925626574890,0.1860438630890590,-0.0658095016278840,0.1715311045983920,0.8282078185849140,0.1810540710432660,-0.3060311776171180,1.3005750859973500,0.3685901370196870,0.1230626094724720,0.0450971907054310,0,0,0,0,0,0,0,0,0,0,0,0,20,0,0,0,0,0,0,0,0,0,0,0,0,0,0,0,0,0,0,0,0,0,0,0,0,0,0,0,0,0,0,0,0,0,0,0,0,0,0,0,0,0,0,0,0,0,0,0,0,0,0,0,0,0,0,0,0,0,0,0,0,0,0,0,0,0,0,0,0,0,0,0,0,0,0,0,0,0,0,0,0,0,0,0,0,0,0,0,0,0,0,0,0,0,0,0,0,0,0,0,1
Botella01,z,90,0.0697516962874154,0.7281108816932250,0.1769522058199350,-0.1868343906786560,0.0106870181060851,0.6897275440574270,0.0575427282329960,-0.0669916918936310,0.1004319976008830,0.8247224196483000,0.2448735632558400,-0.2835265210046810,1.2388315729391400,0.3388450489003030,0.1777858976101770,0.0283910902036030,0,0,0,0,0,0,0,0,0,0,0,0,0,0,0,0,0,0,0,0,0,0,0,0,0,0,0,0,0,0,0,0,0,0,0,0,0,0,0,0,0,0,0,0,0,0,0,0,0,0,0,0,0,0,0,0,0,0,0,0,0,0,0,0,0,0,0,0,0,0,0,0,0,0,0,0,0,0,0,0,0,0,0,0,14,0,0,0,0,0,0,0,0,0,0,0,0,0,0,0,0,0,0,0,0,0,0,0,0,0,0,0,1
Botella01,z,0,0.0150384765067403,0.6887999867124600,0.1641889050788950,-0.1900224852450960,-0.0052072552431125,0.6607949814507070,0.0666131422483049,-0.0943236647038310,0.1082036713359060,0.7782423738328810,0.2520187949409690,-0.2799566274583940,1.2640857677152900,0.3045938109982450,0.2000300951882020,0.0325718881087810,0,0,0,0,0,0,0,0,0,0,0,0,0,0,0,0,0,0,0,0,0,0,0,0,0,0,0,0,0,0,0,0,0,0,0,0,0,0,0,0,0,0,0,0,0,0,0,0,0,0,0,0,0,0,0,0,0,0,0,0,0,0,0,0,0,0,0,0,0,0,0,0,0,0,0,0,0,0,0,0,0,0,0,0,0,0,0,0,0,0,0,0,0,0,0,0,0,0,0,0,0,0,0,0,0,0,0,0,0,0,0,0,1
Botella01,z,30,-0.0336694986257905,0.5807741596181360,0.1657108698498430,-0.1202027694633920,-0.0031336435223672,0.6297253323190630,0.1045010227361910,-0.1047904236894430,0.2144959477944250,0.9762469037745600,0.1485265710226500,-0.3330792451584580,1.3234870813819500,0.3629789495046140,0.1228482624110000,0.0265972397644060,0,0,0,0,0,0,0,0,0,0,0,0,0,0,0,0,0,0,0,0,0,0,0,0,0,0,0,0,0,0,0,0,0,0,0,0,0,0,0,0,0,0,0,0,0,0,0,0,0,0,0,0,0,0,0,0,0,0,0,0,0,0,0,0,0,0,0,0,0,0,0,0,0,0,0,0,0,0,0,0,0,0,0,0,0,0,0,0,0,0,0,0,0,0,0,0,0,0,0,0,0,0,0,0,0,0,0,0,0,0,0,0,1
Botella01,z,60,-0.0355343674546324,0.5133574203327100,0.2572217804423290,-0.0790601092519511,-0.0077265791853433,0.6315840711752890,0.1409265909709990,-0.0897727349317990,0.2129301182289580,0.9719799779870960,0.1618281089941240,-0.3333104796923920,1.3097854272762300,0.3751459901060270,0.1239463044501170,0.0185157417745990,0,0,0,0,0,0,0,0,0,0,0,0,0,0,0,0,0,0,0,0,0,0,0,0,0,0,0,0,0,0,0,0,0,0,0,0,0,0,0,0,0,0,0,0,0,0,0,0,0,0,0,0,0,0,0,0,0,0,0,0,0,0,0,0,0,0,0,0,0,0,0,0,0,0,0,0,0,0,0,0,0,0,0,0,0,0,0,0,0,0,0,0,0,0,0,0,0,0,0,0,0,0,0,0,0,0,0,0,0,0,0,0,1
Botella01,z,90,0.0080632415964447,0.7361559014415870,0.1761442226113640,-0.1888825747768690,-0.0046936763640068,0.7859463093788070,-0.0500661483462200,-0.1038645147299220,0.1071587402330240,0.8700251185727970,0.2061522250608230,-0.2926690530118920,1.2116862879132100,0.2900559298052430,0.1478840307039800,0.0791109616857860,0,0,0,0,0,0,0,0,0,0,0,0,0,0,0,0,0,0,0,0,0,0,0,0,0,0,0,0,0,0,0,0,0,0,0,0,0,0,0,0,0,0,0,0,0,0,0,0,0,0,0,0,0,0,0,0,0,0,0,0,0,0,0,0,0,0,0,0,0,0,0,0,0,0,0,0,0,0,0,0,0,0,0,0,10,0,0,0,0,0,0,0,0,0,0,0,0,0,0,0,0,0,0,0,0,0,0,0,0,0,0,0,1
Botella01,z,0,0.0861751640538300,0.6947518606942700,0.1505448813109650,-0.1651229552619770,0.0155516431645838,0.5861857657417320,0.1695808920515210,-0.0538933666841930,0.1452714197546760,0.7582383271672170,0.2486912160925230,-0.2617131022508690,1.2601769433405100,0.3485643274795280,0.2071502003217420,0.0459721729743460,0,0,0,0,0,0,0,0,0,0,0,0,0,0,0,0,0,0,0,0,0,0,0,0,0,0,0,0,0,0,0,0,0,0,0,0,0,0,0,0,0,0,0,0,0,0,0,0,0,0,0,0,0,0,0,0,0,0,0,0,0,0,0,0,0,0,0,0,0,0,0,0,0,0,0,0,0,0,0,0,0,0,0,0,0,0,0,0,0,0,0,0,0,0,0,0,0,0,0,0,0,0,0,0,0,0,0,0,0,0,0,0,1
Botella01,z,30,-0.0257020575821854,0.5623632154060860,0.1854510747529400,-0.1100004496088810,0.0040951375270003,0.6441155188859370,0.0557546798228150,-0.1111349810568730,0.2198314779664410,0.9748385557397510,0.1596549618852290,-0.3350852236590290,1.3407765305984100,0.3408238620608010,0.1260153138054150,0.0286397594748180,0,0,0,0,0,0,0,0,0,0,0,0,0,0,0,0,0,0,0,0,0,0,0,0,0,0,0,0,0,0,0,0,0,0,0,0,0,0,0,0,0,0,0,0,0,0,0,0,0,0,0,0,0,0,0,0,0,0,0,0,0,0,0,0,0,0,0,0,0,0,0,0,0,0,0,0,0,0,0,0,0,0,0,0,0,0,0,0,0,0,0,0,0,0,0,0,0,0,0,0,0,0,0,0,0,0,0,0,0,0,0,0,1
Botella01,z,60,-0.0266673557812998,0.4993105653268550,0.2789756269079130,-0.0698379610452851,-0.0074053543802254,0.6334175901657360,0.1416836601239390,-0.0962885807485371,0.2088250639677300,0.9755813806283620,0.1497694925275480,-0.3356156441180230,1.3237483988193200,0.3820052072433590,0.1193956574397800,0.0129001018677500,0,0,0,0,0,0,0,0,0,0,0,0,0,0,0,0,0,0,0,0,0,0,0,0,0,0,0,0,0,0,0,0,0,0,0,0,0,0,0,0,0,0,0,0,0,0,0,0,0,0,0,0,0,0,0,0,0,0,0,0,0,0,0,0,0,0,0,0,0,0,0,0,0,0,0,0,0,0,0,0,0,0,0,0,0,0,0,0,0,0,0,0,0,0,0,0,0,0,0,0,0,0,0,0,0,0,0,0,0,0,0,0,1
Botella01,z,90,-0.0461419922641026,0.5835203669883220,0.1581767788307530,-0.1233722456706070,0.0114341719043615,0.6964893994727640,0.0132713867293620,-0.0990557908654180,0.2077516498660470,0.9741973644581110,0.1548633811778390,-0.3307581313499460,1.3467863522559700,0.3636691369704450,0.1045154171929740,0.0197324499054420,0,0,0,0,0,0,0,0,0,0,0,0,20,0,0,0,0,0,0,0,0,0,0,0,0,0,0,0,0,0,0,0,0,0,0,0,0,0,0,0,0,0,0,0,0,0,0,0,0,0,0,0,0,0,0,0,0,0,0,0,0,0,0,0,0,0,0,0,0,0,0,0,0,0,0,0,0,0,0,0,0,0,0,0,0,0,0,0,0,0,0,0,0,0,0,0,0,0,0,0,0,0,0,0,0,0,0,0,0,0,0,0,1
Botella01,z,0,0.0529526231689541,0.7098942378914190,0.1374037304845520,-0.1826117885036560,0.0045188319736306,0.6755504579415980,0.0325422836483951,-0.0834087618446050,0.1294633286299860,0.7687495206262250,0.2436931000908750,-0.2842480941321010,1.2721469206304900,0.3082227255491660,0.1661961512174210,0.0591906784665910,0,0,0,0,0,0,0,0,0,0,0,0,0,0,0,0,0,0,0,0,0,0,0,0,0,0,0,0,0,0,0,0,0,0,0,0,0,0,0,0,0,0,0,0,0,0,0,0,0,0,0,0,0,0,0,0,0,0,0,0,0,0,0,0,0,0,0,0,0,0,0,0,0,0,0,0,0,0,0,0,0,0,0,0,0,0,0,0,0,0,0,0,0,0,0,0,0,0,0,0,0,0,0,0,0,0,0,0,0,0,0,0,1
Botella01,z,30,-0.0158520201947744,0.5410555355586500,0.2305092176866580,-0.0864824114109990,-0.0029399883347982,0.6297328966614950,0.1016272170339230,-0.0998668918980150,0.2213153049539000,0.9749524726794830,0.1531063542497970,-0.3329649371496050,1.3686191742790400,0.3520857660892730,0.1178012555576850,0.0535794179990850,0,0,0,0,0,0,0,0,0,0,0,0,0,0,0,0,0,0,0,0,0,0,0,0,0,0,0,0,0,0,0,0,0,0,0,0,0,0,0,0,0,0,0,0,0,0,0,0,0,0,0,0,0,0,0,0,0,0,0,0,0,0,0,0,0,0,0,0,0,0,0,0,0,0,0,0,0,0,0,0,0,0,0,0,0,0,0,0,0,0,0,0,0,0,0,0,0,0,0,0,0,0,0,0,0,0,0,0,0,0,0,0,1
Botella01,z,60,-0.0294702192638561,0.5855718327963790,0.1597439887944420,-0.1153114655076610,-0.0038800420604736,0.6424561162727640,0.1013459072479060,-0.1048580568364630,0.2109620893243970,0.9748631743675710,0.1530152253447890,-0.3325471942960170,1.3282728344397800,0.3662844230806670,0.1023261363669010,0.0450475620505330,0,0,0,0,0,0,0,0,0,0,0,0,0,0,0,0,0,0,0,0,0,0,0,0,0,0,0,0,0,0,0,0,0,0,0,0,0,0,0,0,0,0,0,0,0,0,0,0,0,0,0,0,0,0,0,0,0,0,0,0,0,0,0,0,0,0,0,0,0,0,0,0,0,0,0,0,0,0,0,0,0,0,0,0,0,0,0,0,0,0,0,0,0,0,0,0,0,0,0,0,0,0,0,0,0,0,0,0,0,0,0,0,1
Botella01,z,90,-0.0143486498936089,0.6460298825447980,0.2000031159032830,-0.1783908789088230,-0.0004866966080209,0.7050009252097200,0.0673515172869390,-0.0939744371976170,0.1790083997872700,0.9304613238580400,0.1653602244166000,-0.3451951973391810,1.2685549924857700,0.3422587448163570,0.1029704200623660,0.0542307720501240,0,0,0,0,0,0,0,0,0,0,0,0,0,0,0,0,0,0,0,0,0,0,0,0,0,0,0,0,0,0,0,0,0,0,0,0,0,0,0,0,0,0,0,0,0,0,0,0,0,0,0,0,0,0,0,0,0,0,0,0,0,0,0,0,0,0,0,0,0,0,0,0,0,0,0,0,0,0,0,0,0,0,0,0,0,0,0,0,0,0,0,0,0,0,0,0,0,0,0,0,0,0,0,0,0,0,0,0,0,0,0,0,1
Botella01,z,0,-0.0335708037830097,0.4402350794351010,0.3094299552633130,-0.0152852616736530,0.0029956305281494,0.5496350353286380,0.1956240574902400,-0.0697455793381210,0.2211649079640710,0.9754220027213770,0.1502282023582930,-0.3315900079585070,1.3552557737184400,0.3837543417241450,0.2116702258647070,0.0027786883360830,0,0,0,0,0,0,0,0,0,0,0,0,20,0,0,0,0,0,0,0,0,0,0,0,0,0,0,0,0,0,0,0,0,0,0,0,0,0,0,0,0,0,0,0,0,0,0,0,0,0,0,0,0,0,0,0,0,0,0,0,0,0,0,0,0,0,0,0,0,0,0,0,0,0,0,0,0,0,0,0,0,0,0,0,0,0,0,0,0,0,0,0,0,0,0,0,0,0,0,0,0,0,0,0,0,0,0,0,0,0,0,0,1
Botella01,z,30,0.0097333560388462,0.6555455204003460,0.1924149127637600,-0.1920835346319620,0.0048296142143177,0.6207150665906300,0.1632416133522580,-0.0866754446949640,0.1074860263224320,0.9147555299945780,0.2153770959747620,-0.3203590614034620,1.2743409452138400,0.3519734303768180,0.1483270451348140,0.0517931858858560,0,0,0,0,0,0,0,0,0,0,0,0,0,0,0,0,0,0,0,0,0,0,0,0,0,0,0,0,0,0,0,0,0,0,0,0,0,0,0,0,0,0,0,0,0,0,0,0,0,0,0,0,0,0,0,0,0,0,0,0,0,0,0,0,0,0,0,0,0,0,0,0,0,0,0,0,0,0,0,0,0,0,0,0,0,12,0,0,0,0,0,0,0,0,0,0,0,0,0,0,0,0,0,0,0,0,0,0,0,0,0,0,1
Botella01,z,60,0.0608963114455947,0.6963521694508260,0.2084300588513910,-0.1636763521299610,-0.0072511637572518,0.6777527979408570,0.0904131750173920,-0.0591096732069869,0.0814369202971695,0.8962281873427380,0.2141968339997820,-0.3033355307133260,1.2415847372658300,0.3389111229336990,0.1539582444143550,0.0176068295696390,0,0,0,0,0,0,0,0,0,0,0,0,20,0,0,0,0,0,0,0,0,0,0,0,0,0,0,0,0,0,0,0,0,0,0,0,0,0,0,0,0,0,0,0,0,0,0,0,0,0,0,0,0,0,0,0,0,0,0,0,0,0,0,0,0,0,0,0,0,0,0,0,0,0,0,0,0,0,0,0,0,0,0,0,0,0,0,0,3,0,0,0,0,0,0,0,0,0,0,0,0,0,0,0,0,0,0,0,0,0,0,0,1
Botella01,z,90,-0.0380769720096523,0.5092730661353610,0.2914578423284620,-0.1020973629131730,-0.0021149404854397,0.6127346596235300,0.1872769582466170,-0.0771655534090400,0.2218049760510140,0.9753697976424230,0.1504792172184070,-0.3303973012735950,1.3138113808571200,0.3750940323969950,0.1221151142070290,-0.0179308040616820,0,0,0,0,0,0,0,0,0,0,0,0,0,0,0,0,0,0,0,0,0,0,0,0,0,0,0,0,0,0,0,0,0,0,0,0,0,0,0,0,0,0,0,0,0,0,0,0,0,0,0,0,0,0,0,0,0,0,0,0,0,0,0,0,0,0,0,0,0,0,0,0,0,0,0,0,0,0,0,0,0,0,0,0,0,7,0,0,0,0,0,0,0,0,0,0,0,0,0,0,0,0,0,0,0,0,0,0,0,0,0,0,1
Botella01,z,0,0.1557234161124720,0.6047465274913230,0.2138079990553950,-0.1387178485893010,-0.0045197768479235,0.4941004151949400,0.2774771290302530,-0.0100711044068660,0.2100359238061390,0.9710982059065200,0.1556442616546100,-0.3367237128719240,1.3348357931804700,0.3910224220482020,0.1660995433888080,0.0386630594257240,0,0,0,0,0,0,0,0,0,0,0,0,0,0,0,0,0,0,0,0,0,0,0,0,0,0,0,0,0,0,0,0,0,0,0,0,0,0,0,0,0,0,0,0,0,0,0,0,0,0,0,0,0,0,0,0,0,0,0,0,0,0,0,0,0,0,0,0,0,0,0,0,0,0,0,0,0,0,0,0,0,0,0,0,0,0,0,0,0,0,0,0,0,0,0,0,0,0,0,0,0,0,0,0,0,0,0,0,0,0,0,0,1
Botella01,z,30,-0.0082720874251139,0.6667839146549070,0.1844011112207700,-0.1831660738571580,0.0012979475987224,0.6388652515777140,0.1383713763145130,-0.0707710961962580,0.0921024075025144,0.9447795022246420,0.1899343501188380,-0.3138336234214560,1.2561923977299800,0.3360208090554470,0.1573661594255920,0.0436664036406010,0,0,0,0,0,0,0,0,0,0,0,0,0,0,0,0,0,0,0,0,0,0,0,0,0,0,0,0,0,0,0,0,0,0,0,0,0,0,0,0,0,0,0,0,0,0,0,0,0,0,0,0,0,0,0,0,0,0,0,0,0,0,0,0,0,0,0,0,0,0,0,0,0,0,0,0,0,0,0,0,0,0,0,0,7,17,0,0,0,0,0,0,0,0,0,0,0,0,0,0,0,0,0,0,0,0,0,0,0,0,0,0,1
Botella01,z,60,0.0258913343468845,0.7403273878282720,0.1815984101951530,-0.1906000726438160,-0.0090774762481560,0.7771101502807230,-0.0370483615635940,-0.1377213323344970,0.0914849457170664,0.8674334490986030,0.2101142949097170,-0.2962724959613250,1.2420220859107200,0.3398593174681130,0.1024618496769950,0.1202276493813650,0,0,0,0,0,0,0,0,0,0,0,0,0,0,0,0,0,0,0,0,0,0,0,0,0,0,0,0,0,0,0,0,0,0,0,0,0,0,0,0,0,0,0,0,0,0,0,0,0,0,0,0,0,0,0,0,0,0,0,0,0,0,0,0,0,0,0,0,0,0,0,0,0,0,0,0,0,0,0,0,0,0,0,0,0,0,0,0,11,0,0,0,0,0,0,0,0,0,0,0,0,0,0,0,0,0,0,0,0,0,0,0,1
Botella01,z,90,0.0301308789402946,0.6993306387238840,0.1939123638654680,-0.1752167502324820,-0.0054620453885916,0.7528867520219190,-0.0149428042514420,-0.0988076094852111,0.1143116707739690,0.8972113933105450,0.1810206353954850,-0.3323170592755100,1.2788265910197600,0.3547475742520950,0.1028875555741730,0.0144492648186570,0,0,0,0,0,0,0,0,0,0,0,0,20,0,0,0,0,0,0,0,0,0,0,0,0,0,0,0,0,0,0,0,0,0,0,0,0,0,0,0,0,0,0,0,0,0,0,0,0,0,0,0,0,0,0,0,0,0,0,0,0,0,0,0,0,0,0,0,0,0,0,0,0,0,0,0,0,0,0,0,0,0,0,0,24,0,0,0,0,0,0,0,0,0,0,0,0,0,0,0,0,0,0,0,0,0,0,0,0,0,0,0,1
Botella01,z,0,0.0066463682410986,0.6096055318928720,0.2077620455757970,-0.1966149362269870,0.0020779840681159,0.6360490937443800,0.1371705237127010,-0.0753601800486610,0.1826080029070530,0.9038158637515090,0.1756644727469610,-0.3556782922682120,1.3228632296638500,0.3620999052782190,0.1028445234950050,0.0165880795332580,0,0,0,0,0,0,0,0,0,0,0,0,20,0,0,0,0,0,0,0,0,0,0,0,0,0,0,0,0,0,0,0,0,0,0,0,0,0,0,0,0,0,0,0,0,0,0,0,0,0,0,0,0,0,0,0,0,0,0,0,0,0,0,0,0,0,0,0,0,0,0,0,0,0,0,0,0,0,0,0,0,0,0,0,0,7,0,0,0,0,0,0,0,0,0,0,0,0,0,0,0,0,0,0,0,0,0,0,0,0,0,0,1
Botella01,z,30,0.0039263604026350,0.6980009636386220,0.1722180946850300,-0.1729920289396510,0.0064347463920356,0.7266835644697130,0.0272986337806069,-0.0863627796255749,0.1239910327159620,0.8865360426963970,0.1793866563923330,-0.3199782192254220,1.2478003699167000,0.3435066861776060,0.1110967295855420,0.0224073281801000,0,0,0,0,0,0,0,0,0,0,0,0,20,0,0,0,0,0,0,0,0,0,0,0,0,0,0,0,0,0,0,0,0,0,0,0,0,0,0,0,0,0,0,0,0,0,0,0,0,0,0,0,0,0,0,0,0,0,0,0,0,0,0,0,0,0,0,0,0,0,0,0,0,0,0,0,0,0,0,0,0,0,0,0,11,0,0,0,0,0,0,0,0,0,0,0,0,0,0,0,0,0,0,0,0,0,0,0,0,0,0,0,1
Botella01,z,60,0.0652543275850600,0.7186370310723130,0.1504765211512080,-0.2032570183549470,0.0037203493059822,0.7331934867080460,-0.0467254437981740,-0.1068139301393260,0.1548908022673760,0.8161266986373930,0.1751588676173860,-0.3099936700331940,1.3213367640323700,0.3840558760282030,0.0641654390812330,0.0554998144348540,0,0,0,0,0,0,0,0,0,0,0,0,20,0,0,0,0,0,0,0,0,0,0,0,0,0,0,0,0,0,0,0,0,0,0,0,0,0,0,0,0,0,0,0,0,0,0,0,0,0,0,0,0,0,0,0,0,0,0,0,0,0,0,0,0,0,0,0,0,0,0,0,0,0,0,0,0,0,0,0,0,0,0,0,18,11,0,0,0,0,0,0,0,0,0,0,0,0,0,0,0,0,0,0,0,0,0,0,0,0,0,0,1
Botella01,z,90,0.0804728361176338,0.6837493771666980,0.1791544052944780,-0.1825396290336470,0.0071576396580303,0.7451194001162470,-0.0211837518594929,-0.1145879701267830,0.1558432033030940,0.8738857812372060,0.1674363216866440,-0.3180070580523860,1.2982201697289600,0.3654366489056230,0.0685848697140005,0.0776033952895945,0,0,0,0,0,0,0,0,0,0,0,0,20,0,0,0,0,0,0,0,0,0,0,0,0,0,0,0,0,0,0,0,0,0,0,0,0,0,0,0,0,0,0,0,0,0,0,0,0,0,0,0,0,0,0,0,0,0,0,0,0,0,0,0,0,0,0,0,0,0,0,0,0,0,0,0,0,0,0,0,0,0,0,0,0,7,0,0,0,0,0,0,0,0,0,0,0,0,0,0,0,0,0,0,0,0,0,0,0,0,0,0,1
Botella01,z,0,0.0792195080352205,0.6709150406383500,0.1939811584128190,-0.1901175466306820,0.0109550620804689,0.6716216805078600,0.0760183771341660,-0.0798898088830280,0.1541747101907000,0.8263127786433450,0.1846539020667650,-0.3067107010513830,1.2968554239412900,0.3580622213714390,0.1033444377685130,0.0566641917287980,0,0,0,0,0,0,0,0,0,0,0,0,20,0,0,0,0,0,0,0,0,0,0,0,0,0,0,0,0,0,0,0,0,0,0,0,0,0,0,0,0,0,0,0,0,0,0,0,0,0,0,0,0,0,0,0,0,0,0,0,0,0,0,0,0,0,0,0,0,0,0,0,0,0,0,0,0,0,0,0,0,0,0,0,0,0,0,0,0,0,0,0,0,0,0,0,0,0,0,0,0,0,0,0,0,0,0,0,0,0,0,0,1
Botella01,z,30,0.0605733913367452,0.6983941529119540,0.1548567726089500,-0.1930737475743160,0.0171263473523617,0.6895893773828370,0.0124665508326790,-0.0826128663311120,0.1511300146610600,0.7694784802129600,0.2331951132336900,-0.3577895800753160,1.3008467930427800,0.3716630937684280,0.1194449955602390,0.0036299034069550,0,0,0,0,0,0,0,0,0,0,0,0,20,0,0,0,0,0,0,0,0,0,0,0,0,0,0,0,0,0,0,0,0,0,0,0,0,0,0,0,0,0,0,0,0,0,0,0,0,0,0,0,0,0,0,0,0,0,0,0,0,0,0,0,0,0,0,0,0,0,0,0,0,0,0,0,0,0,0,0,0,0,0,0,0,18,0,0,0,0,0,0,0,0,0,0,0,0,0,0,0,0,0,0,0,0,0,0,0,0,0,0,1
Botella01,z,60,0.1162101389149310,0.6897317246155120,0.1636598945257410,-0.1795581791164070,0.0000616481582573,0.6451771635875490,0.0936656264526281,-0.0995745903007210,0.1601375702040740,0.8265109329019290,0.1523481240254000,-0.3377944149562050,1.3229131677292600,0.3797040584349710,0.0697950026627315,0.0669043345415035,0,0,0,0,0,0,0,0,0,0,0,0,20,0,0,0,0,0,0,0,0,0,0,0,0,0,0,0,0,0,0,0,0,0,0,0,0,0,0,0,0,0,0,0,0,0,0,0,0,0,0,0,0,0,0,0,0,0,0,0,0,0,0,0,0,0,0,0,0,0,0,0,0,0,0,0,0,0,0,0,0,0,0,0,3,19,0,0,0,0,0,0,0,0,0,0,0,0,0,0,0,0,0,0,0,0,0,0,0,0,0,0,1
Botella01,z,90,-0.0049527712518020,0.7414434277958300,0.1445832678650760,-0.2011286317715120,0.0118550232077909,0.7493425774559590,0.0014511824411330,-0.1575533076957990,0.1359958447817980,0.7911720519162620,0.2172208996232580,-0.2895341396910540,1.2574292804934800,0.3083449623149470,0.1367453829753420,0.0319771661729280,0,0,0,0,0,0,0,0,0,0,0,0,0,0,0,0,0,0,0,0,0,0,0,0,0,0,0,0,0,0,0,0,0,0,0,0,0,0,0,0,0,0,0,0,0,0,0,0,0,0,0,0,0,0,0,0,0,0,0,0,0,0,0,0,0,0,0,0,0,0,0,0,0,0,0,0,0,0,0,0,0,0,0,0,0,0,0,0,0,0,0,0,0,0,0,0,0,0,0,0,0,0,0,0,0,0,0,0,0,0,0,0,1
Botella01,z,0,-0.0020747546166821,0.7423290990812170,0.1494580352426540,-0.1874207994426540,0.0108746681512008,0.7505884304162110,-0.0012181224297321,-0.1321569900107660,0.1298155339258450,0.7782239866767130,0.2305321095062770,-0.2866346088372210,1.2553485223034200,0.3165098937575060,0.1218388056522850,0.0501321077770800,0,0,0,0,0,0,0,0,0,0,0,0,0,0,0,0,0,0,0,0,0,0,0,0,0,0,0,0,0,0,0,0,0,0,0,0,0,0,0,0,0,0,0,0,0,0,0,0,0,0,0,0,0,0,0,0,0,0,0,0,0,0,0,0,0,0,0,0,0,0,0,0,0,0,0,0,0,0,0,0,0,0,0,0,0,0,0,0,0,0,0,0,0,0,0,0,0,0,0,0,0,0,0,0,0,0,0,0,0,0,0,0,1
Botella01,z,30,0.0055189557846215,0.6605638130587290,0.1768244236414870,-0.1757564606932700,0.0133357888427442,0.6929377509170640,0.0467449673971950,-0.0675872153569700,0.1593418855977210,0.8968033690525070,0.1840303290603530,-0.3303970129613100,1.2766272934769600,0.3642695672639740,0.1059937818911980,0.0071377941886110,0,0,0,0,0,0,0,0,0,0,0,0,20,0,0,0,0,0,0,0,0,0,0,0,0,0,0,0,0,0,0,0,0,0,0,0,0,0,0,0,0,0,0,0,0,0,0,0,0,0,0,0,0,0,0,0,0,0,0,0,0,0,0,0,0,0,0,0,0,0,0,0,0,0,0,0,0,0,0,0,0,0,0,0,5,0,0,0,0,0,0,0,0,0,0,0,0,0,0,0,0,0,0,0,0,0,0,0,0,0,0,0,1
Botella01,z,60,0.0529575731950871,0.6489580003490520,0.1643112170426060,-0.1533955020971080,0.0093679658064846,0.6500409968752760,0.1238332265296230,-0.0535947751286669,0.1921922314054250,0.8922521614172660,0.1846620532754640,-0.3484454554544390,1.2968608425276700,0.3410475055445630,0.1156194260816710,0.0094871731281730,0,0,0,0,0,0,0,0,0,0,0,0,20,0,0,0,0,0,0,0,0,0,0,0,0,0,0,0,0,0,0,0,0,0,0,0,0,0,0,0,0,0,0,0,0,0,0,0,0,0,0,0,0,0,0,0,0,0,0,0,0,0,0,0,0,0,0,0,0,0,0,0,0,0,0,0,0,0,0,0,0,0,0,0,0,0,0,0,0,0,0,0,0,0,0,0,0,0,0,0,0,0,0,0,0,0,0,0,0,0,0,0,1
Botella01,z,90,0.0034964698371300,0.7351079498753860,0.0969677865853680,-0.1752234582243090,0.0122811076792667,0.6960047164720290,0.0130869953734580,-0.0972818615621990,0.1392733321935060,0.7718889900256030,0.2002739726317510,-0.3051053565243680,1.2999145626653000,0.3382774241296560,0.1242806148965530,0.0510638872824200,0,0,0,0,0,0,0,0,0,0,0,0,20,0,0,0,0,0,0,0,0,0,0,0,0,0,0,0,0,0,0,0,0,0,0,0,0,0,0,0,0,0,0,0,0,0,0,0,0,0,0,0,0,0,0,0,0,0,0,0,0,0,0,0,0,0,0,0,0,0,0,0,0,0,0,0,0,0,0,0,0,0,0,0,0,0,0,0,0,0,0,0,0,0,0,0,0,0,0,0,0,0,0,0,0,0,0,0,0,0,0,0,1
Botella01,z,0,0.0203424639123141,0.7021764673075750,0.1439597169984860,-0.1949315931530290,0.0163921886091072,0.6435489880786330,0.0957194386838970,-0.0857045139539810,0.1435051041772320,0.7596153428256550,0.2313044302676870,-0.2862946721975930,1.2808140006231200,0.3682600332406540,0.1473097069970540,0.0328402610815430,0,0,0,0,0,0,0,0,0,0,0,0,20,0,0,0,0,0,0,0,0,0,0,0,0,0,0,0,0,0,0,0,0,0,0,0,0,0,0,0,0,0,0,0,0,0,0,0,0,0,0,0,0,0,0,0,0,0,0,0,0,0,0,0,0,0,0,0,0,0,0,0,0,0,0,0,0,0,0,0,0,0,0,0,0,0,0,0,0,0,0,0,0,0,0,0,0,0,0,0,0,0,0,0,0,0,0,0,0,0,0,0,1
