EPVelasco/Descriptores_de_agarres/ds-2.csv
Nombre,Eje,Angulo,Joint0,Joint1,Joint2,Joint3,Joint4,Joint5,Joint6,Joint7,Joint8,Joint9,Joint10,Joint11,Joint12,Joint13,Joint14,Joint15,ts0,ts1,ts2,ts3,ts4,ts5,ts6,ts7,ts8,ts9,ts10,ts11,ts12,ts13,ts14,ts15,ts16,ts17,ts18,ts19,ts20,ts21,ts22,ts23,ts24,ts25,ts26,ts27,ts28,ts29,ts30,ts31,ts32,ts33,ts34,ts35,ts36,ts37,ts38,ts39,ts40,ts41,ts42,ts43,ts44,ts45,ts46,ts47,ts48,ts49,ts50,ts51,ts52,ts53,ts54,ts55,ts56,ts57,ts58,ts59,ts60,ts61,ts62,ts63,ts64,ts65,ts66,ts67,ts68,ts69,ts70,ts71,ts72,ts73,ts74,ts75,ts76,ts77,ts78,ts79,ts80,ts81,ts82,ts83,ts84,ts85,ts86,ts87,ts88,ts89,ts90,ts91,ts92,ts93,ts94,ts95,ts96,ts97,ts98,ts99,ts100,ts101,ts102,ts103,ts104,ts105,ts106,ts107,ts108,ts109,ts110,ts111,etiqueta
Botella03,x,0,-0.0689027177607527,0.698518506465046,0.131883027823256,-0.122108915661944,0.0851306738409287,0.813937234577697,-0.0285583480693534,-0.0912061333203252,0.149711996770918,0.76911532207396,0.183739591221949,-0.322130376302481,1.36117728712519,0.373522966162129,0.0612878521224521,0.108784486700447,0,0,0,0,0,0,0,0,0,0,0,0,0,0,0,0,0,0,0,0,0,0,0,0,0,0,0,0,0,0,0,0,0,0,0,0,0,0,0,0,0,0,0,0,0,0,0,0,0,0,0,0,0,0,0,0,0,0,0,0,0,0,0,0,0,0,0,0,0,0,0,0,0,0,0,0,0,0,0,0,0,0,0,0,0,0,7,0,0,0,14,0,0,0,0,0,0,0,0,0,0,0,0,0,0,0,0,0,0,0,0,0,1
Botella03,x,0,-0.0828412504223025,0.700056070080356,0.14027196073569,-0.168060398945871,0.0823553123506284,0.817846686001773,-0.0366546502332894,-0.142593722907883,0.144700921226052,0.805703978591497,0.0990324699888367,-0.377560007035222,1.3864971289522,0.388055527051088,-0.0478142924069223,0.359071137233923,0,0,0,0,0,0,0,0,0,0,0,0,0,0,0,0,0,0,0,0,0,0,0,0,0,0,0,0,0,0,0,0,0,0,0,0,0,0,0,0,0,0,0,0,0,0,0,0,0,0,0,0,0,0,0,0,0,0,0,0,0,0,0,0,0,0,0,0,0,0,0,0,0,0,0,0,0,0,0,0,0,0,0,0,0,0,3,8,0,0,0,0,0,0,0,0,0,0,0,0,0,0,0,0,0,0,0,0,0,0,0,0,1
Botella03,x,0,-0.0892205637074553,0.689734583424642,0.130123794210561,-0.201284217332743,0.0779852084065783,0.786583865456788,-0.0201520272572264,-0.137977988691994,0.151446373032228,0.768452809467352,0.142156146454676,-0.296211830649807,1.37007704638912,0.380201182587396,0.023260392794047,0.219256563920117,0,0,0,0,0,0,0,0,0,0,0,0,0,0,0,0,0,0,0,0,0,0,0,0,0,0,0,0,0,0,0,0,0,0,0,0,0,0,0,0,0,0,0,0,0,0,0,0,0,0,0,0,0,0,0,0,0,0,0,0,0,0,0,0,0,0,0,0,0,0,0,0,0,0,0,0,0,0,0,0,0,0,0,0,0,0,0,0,0,0,0,14,0,0,0,0,0,0,0,0,0,0,0,0,0,0,0,0,0,0,0,0,1
Botella03,x,0,-0.0696752790854359,0.629145658371502,0.262339753992455,0.0548500448633189,0.0884534211543434,0.796374040651021,-0.0210614704418983,-0.0416060020003588,0.192699702263615,0.746599406012155,0.239752270682116,-0.346231696353046,1.34805147516758,0.379660085513551,0.0664386170732439,0.0698360615681883,0,0,0,0,0,0,0,0,0,0,0,0,0,0,0,0,0,0,0,0,0,0,0,0,0,0,0,0,0,0,0,0,0,0,0,0,0,0,0,0,0,0,0,0,0,0,0,0,0,0,0,0,0,0,0,0,0,0,0,0,0,0,0,0,0,0,0,0,0,0,0,0,0,0,0,0,0,0,0,0,0,0,0,0,0,0,0,0,0,0,0,11,0,0,0,28,0,0,0,0,0,0,0,0,0,0,0,0,0,0,0,0,1
Botella03,x,0,-0.0714134232493025,0.706055111185512,0.105799526300467,-0.166113995302605,0.0861896560457494,0.800717916776192,-0.0218302831738405,-0.140412471235157,0.160400579263428,0.766450870930039,0.151724397677962,-0.291619688858219,1.37335288453198,0.314751968303093,0.0591660731276546,0.0616033842516686,0,0,0,0,0,0,0,0,0,0,0,0,0,0,0,0,0,0,0,0,0,0,0,0,0,0,0,0,0,0,0,0,0,0,0,0,0,0,0,0,0,0,0,0,0,0,0,0,0,0,0,0,0,0,0,0,0,0,0,0,0,0,0,0,0,0,0,0,0,0,0,0,0,0,0,0,0,0,0,0,0,0,0,0,0,0,0,0,0,0,0,0,0,0,5,0,0,0,7,0,0,0,0,0,0,0,0,0,0,0,0,0,1
Botella03,x,0,-0.0836071981103411,0.688769680880368,0.085963037674289,-0.160461546295994,0.080045429718636,0.779463077129849,-0.0338614611752244,-0.114922684881056,0.148756601622781,0.742229956929913,0.177030018862793,-0.290111495492872,1.38212824655513,0.31316510962662,0.0735403697351861,0.104224317930985,0,0,0,0,0,0,0,0,0,0,0,0,0,0,0,0,0,0,0,0,0,0,0,0,0,0,0,0,0,0,0,0,0,0,0,0,0,0,0,0,0,0,0,0,0,0,0,0,0,0,0,0,0,0,0,0,0,0,0,0,0,0,0,0,0,0,0,0,0,0,0,0,0,0,0,0,0,0,0,0,0,0,0,0,0,0,0,0,0,0,0,12,0,0,0,0,0,0,0,0,0,0,0,0,0,0,0,0,0,0,0,0,1
Botella03,x,0,-0.0889104044180073,0.704045640455624,0.100403169844873,-0.17150649800332,0.0915795929158716,0.792980973241515,-0.00706199479331338,-0.142213049612906,0.16161646004426,0.761423927093573,0.186728164991986,-0.321879981606899,1.369150586241,0.352310112928877,0.00944299909976858,0.187971415085831,0,0,0,0,0,0,0,0,0,0,0,0,0,0,0,0,0,0,0,0,0,0,0,0,0,0,0,0,0,0,0,0,0,0,0,0,0,0,0,0,0,0,0,0,0,0,0,0,0,0,0,0,0,0,0,0,0,0,0,0,0,0,0,0,0,0,0,0,0,0,0,0,0,0,0,0,0,0,0,0,0,0,0,0,0,0,0,0,0,0,6,0,0,0,9,0,0,0,0,0,0,0,0,0,0,0,0,0,0,0,0,0,1
Botella03,x,0,-0.0723794517478371,0.690578801602616,0.097193650016295,-0.129681051867359,0.0793253819084555,0.776477447702957,-0.00322332924737634,-0.108985493665903,0.154646440526282,0.712517880489947,0.2434497610609,-0.267290636294431,1.38539015282932,0.354542944259935,0.0391575146251335,0.164104356657034,0,0,0,0,0,0,0,0,0,0,0,0,0,0,0,0,0,0,0,0,0,0,0,0,0,0,0,0,0,0,0,0,0,0,0,0,0,0,0,0,0,0,0,0,0,0,0,0,0,0,0,0,0,0,0,0,0,0,0,0,0,0,0,0,0,0,0,0,0,0,0,0,0,0,0,0,0,0,0,0,0,0,0,0,0,0,0,0,0,0,0,17,0,0,0,0,0,0,0,0,0,0,0,0,0,0,0,0,0,0,0,0,1
Botella03,x,0,-0.0841515944353813,0.710582232058458,0.0957076852890237,-0.187121291190762,0.0889837474768583,0.80438228964528,-0.0238652873973849,-0.142044855619156,0.171196057340367,0.770537097601175,0.158716591300133,-0.289135152380146,1.38396452516049,0.346886213792904,0.00853536440224777,0.168115840967652,0,0,0,0,0,0,0,0,0,0,0,0,0,0,0,0,0,0,0,0,0,0,0,0,0,0,0,0,0,0,0,0,0,0,0,0,0,0,0,0,0,0,0,0,0,0,0,0,0,0,0,0,0,0,0,0,0,0,0,0,0,0,0,0,0,0,0,0,0,0,0,0,0,0,0,0,0,0,0,0,0,0,0,0,0,0,0,0,0,0,0,0,0,5,0,0,0,0,3,0,0,0,0,0,0,0,0,0,0,0,0,0,1
Botella03,x,0,-0.079313307593184,0.689961870995322,0.0968156320579508,-0.161109813392017,0.0939296974649903,0.774710136861903,-0.019530805112472,-0.107248106777167,0.14751806416944,0.740238918905875,0.175804096779473,-0.290134852541719,1.36531369740994,0.334429373360779,0.0673094193853038,0.0843474958767701,0,0,0,0,0,0,0,0,0,0,0,0,0,0,0,0,0,0,0,0,0,0,0,0,0,0,0,0,0,0,0,0,0,0,0,0,0,0,0,0,0,0,0,0,0,0,0,0,0,0,0,0,0,0,0,0,0,0,0,0,0,0,0,0,0,0,0,0,0,0,0,0,0,0,0,0,0,0,0,0,0,0,0,0,0,0,0,0,0,0,17,0,0,0,0,0,0,0,0,0,0,0,0,0,0,0,0,0,0,0,0,0,1
Botella03,z,0,-0.000914632642291934,0.662164203913294,0.0912048898570862,-0.153172290654668,0.0660136619635437,0.694674710230055,0.0388034648464128,-0.120216592944516,0.213309960178374,0.97733625177387,0.148350082487763,-0.323318352808092,1.33984140227548,0.352758856998772,0.00988109004992292,0.230083925542607,0,0,0,0,0,0,0,0,0,0,0,0,0,0,0,0,0,0,0,0,0,0,0,0,0,0,0,0,0,0,0,0,0,0,0,0,0,0,0,0,0,0,0,0,0,0,0,0,0,0,0,0,0,0,0,0,0,0,0,0,0,0,0,0,0,0,0,0,0,0,0,0,0,0,0,0,0,0,0,0,0,0,0,0,0,0,0,0,0,0,0,0,0,0,0,0,0,0,0,0,0,0,0,0,0,0,0,0,0,0,0,0,1
Botella03,z,0,-0.00338926379578942,0.702530252697081,0.136549317217343,-0.212474234610565,0.0682218097121992,0.700268559758203,0.0317819551774239,-0.104070499593792,0.151210021921575,0.712879784425205,0.280665411754324,-0.291589259251799,1.31236396711114,0.341160713530188,0.04851054155334,0.242712583552638,0,0,0,0,0,0,0,0,0,0,0,0,0,0,0,0,0,0,0,0,0,0,0,0,0,0,0,0,0,0,0,0,0,0,0,0,0,0,0,0,0,0,0,0,0,0,0,0,0,0,0,0,0,0,0,0,0,0,0,0,0,0,0,0,0,0,0,0,0,0,0,0,0,0,0,0,0,0,0,0,0,0,0,0,0,0,0,0,0,0,0,0,0,0,0,0,0,0,0,0,0,0,0,0,0,0,0,0,0,0,0,0,1
Botella03,z,0,-0.00471569458619571,0.700289750164608,0.105582809926579,-0.191080616877937,0.0698770095106702,0.690637730287203,-0.0000771265131945809,-0.1020088144794,0.149995149648688,0.691920333101586,0.236056528228447,-0.294249159684216,1.34179283352934,0.361431184342409,0.107308779106088,0.170391210713243,0,0,0,0,0,0,0,0,0,0,0,0,0,0,0,0,0,0,0,0,0,0,0,0,0,0,0,0,0,0,0,0,0,0,0,0,0,0,0,0,0,0,0,0,0,0,0,0,0,0,0,0,0,0,0,0,0,0,0,0,0,0,0,0,0,0,0,0,0,0,0,0,0,0,0,0,0,0,0,0,0,0,0,0,0,0,0,0,0,0,0,0,0,0,0,0,0,0,0,0,0,0,0,0,0,0,0,0,0,0,0,0,1
Botella03,z,0,-0.0146833623331451,0.660530682012284,0.116756199636178,-0.177736121407061,0.0721266999453046,0.681566412553756,0.0054661909285435,-0.108027852383508,0.165011441554736,0.728061010033089,0.199622738418208,-0.295891351667607,1.36266429164255,0.379762813953391,0.0689370643188998,0.18638879838641,0,0,0,0,0,0,0,0,0,0,0,0,0,0,0,0,0,0,0,0,0,0,0,0,0,0,0,0,0,0,0,0,0,0,0,0,0,0,0,0,0,0,0,0,0,0,0,0,0,0,0,0,0,0,0,0,0,0,0,0,0,0,0,0,0,0,0,0,0,0,0,0,0,0,0,0,0,0,0,0,0,0,0,0,0,0,0,0,0,0,0,0,0,0,0,0,0,0,0,0,0,0,0,0,0,0,0,0,0,0,0,0,1
Botella03,z,0,-0.0131706127779178,0.671357391080649,0.103538392528811,-0.159308316197922,0.0630958283738262,0.691927726263443,-0.00303535328108551,-0.101206347537205,0.158166466182527,0.712737202207511,0.220480469378949,-0.293364103708492,1.34005518516286,0.363090566369765,0.0774184773844271,0.187935245870809,0,0,0,0,0,0,0,0,0,0,0,0,0,0,0,0,0,0,0,0,0,0,0,0,0,0,0,0,0,0,0,0,0,0,0,0,0,0,0,0,0,0,0,0,0,0,0,0,0,0,0,0,0,0,0,0,0,0,0,0,0,0,0,0,0,0,0,0,0,0,0,0,0,0,0,0,0,0,0,0,0,0,0,0,0,0,0,0,0,0,0,0,0,0,0,0,0,0,0,0,0,0,0,0,0,0,0,0,0,0,0,0,1
Botella03,z,0,-0.0113037152510071,0.678823906104276,0.123684389106294,-0.176789143317465,0.0719865955800381,0.691595214084592,0.00060051908469938,-0.100437627028872,0.150355509826252,0.698170275934084,0.228176016945207,-0.289715471775625,1.33002834494739,0.363102437327004,0.0779007690555555,0.214549559477703,0,0,0,0,0,0,0,0,0,0,0,0,0,0,0,0,0,0,0,0,0,0,0,0,0,0,0,0,0,0,0,0,0,0,0,0,0,0,0,0,0,0,0,0,0,0,0,0,0,0,0,0,0,0,0,0,0,0,0,0,0,0,0,0,0,0,0,0,0,0,0,0,0,0,0,0,0,0,0,0,0,0,0,0,0,0,0,0,0,0,0,0,0,0,0,0,0,0,0,0,0,0,0,0,0,0,0,0,0,0,0,0,1
Botella03,z,0,-0.0239067984485371,0.689322951980563,0.0745240802915085,-0.165975254239181,0.073905419882694,0.670540952641807,0.0156614922347978,-0.115632445461613,0.149465829754887,0.704605576812172,0.202307622589324,-0.276363186377704,1.34350332755562,0.365856192651156,0.129663996970276,0.142510364335463,0,0,0,0,0,0,0,0,0,0,0,0,0,0,0,0,0,0,0,0,0,0,0,0,0,0,0,0,0,0,0,0,0,0,0,0,0,0,0,0,0,0,0,0,0,0,0,0,0,0,0,0,0,0,0,0,0,0,0,0,0,0,0,0,0,0,0,0,0,0,0,0,0,0,0,0,0,0,0,0,0,0,0,0,0,0,0,0,0,0,0,0,0,0,0,0,0,0,0,0,0,0,0,0,0,0,0,0,0,0,0,0,1
Botella03,z,0,-0.0223896275309908,0.656340680326272,0.106705390976315,-0.149137830413384,0.0641050704617447,0.694516467844456,-0.0280968531128358,-0.108709322968541,0.164066794342561,0.736606917419816,0.19990415147789,-0.303517673998943,1.35193534777152,0.368882654439176,0.0689298430525681,0.151801079742449,0,0,0,0,0,0,0,0,0,0,0,0,0,0,0,0,0,0,0,0,0,0,0,0,0,0,0,0,0,0,0,0,0,0,0,0,0,0,0,0,0,0,0,0,0,0,0,0,0,0,0,0,0,0,0,0,0,0,0,0,0,0,0,0,0,0,0,0,0,0,0,0,0,0,0,0,0,0,0,0,0,0,0,0,0,0,0,0,0,0,0,0,0,0,0,0,0,0,0,0,0,0,0,0,0,0,0,0,0,0,0,0,1
Botella03,z,0,-0.0169158410943255,0.652495723731304,0.0936885165831917,-0.161614480342007,0.0605129478353521,0.690353758948727,-0.0471569812985309,-0.123793756394612,0.170780614099461,0.762417586170431,0.165103458145443,-0.291868209912037,1.38048190239756,0.302694372626799,0.119885437609195,0.0972492979875444,0,0,0,0,0,0,0,0,0,0,0,0,0,0,0,0,0,0,0,0,0,0,0,0,0,0,0,0,0,0,0,0,0,0,0,0,0,0,0,0,0,0,0,0,0,0,0,0,0,0,0,0,0,0,0,0,0,0,0,0,0,0,0,0,0,0,0,0,0,0,0,0,0,0,0,0,0,0,0,0,0,0,0,0,0,0,0,0,0,0,0,0,0,0,0,0,0,0,0,0,0,0,0,0,0,0,0,0,0,0,0,0,1
Botella03,z,0,-0.0247912749351273,0.723208813639044,0.12243783096508,-0.188350022194221,0.0764350719422123,0.727092696047915,0.0495111479775821,-0.126203607795504,0.148358851930755,0.73528600772834,0.281468144421879,-0.271547896472212,1.30087921241827,0.308751910068262,0.00713352707831898,0.28879788617694,0,0,0,0,0,0,0,0,0,0,0,0,0,0,0,0,0,0,0,0,0,0,0,0,0,0,0,0,0,0,0,0,0,0,0,0,0,0,0,0,0,0,0,0,0,0,0,0,0,0,0,0,0,0,0,0,0,0,0,0,0,0,0,0,0,0,0,0,0,0,0,0,0,0,0,0,0,0,0,0,0,0,0,0,0,0,0,0,0,0,0,0,0,0,0,0,0,0,0,0,0,0,0,0,0,0,0,0,0,0,0,0,1
Botella04,x,0,-0.0228873962580724,0.829884340379727,0.101609831240992,-0.187322548976221,0.110368367741704,0.921111704607032,-0.0129751628651772,-0.135584330472384,0.207919300976508,0.882142064984791,0.164759715179903,-0.335080036546814,1.38667769520436,0.364540846893605,0.0557683302074937,0.41583611951535,0,0,0,0,0,0,0,0,0,0,0,0,0,0,0,0,0,0,0,0,0,0,0,0,0,0,0,0,0,0,0,0,0,0,0,0,0,0,0,0,0,0,0,0,0,0,0,0,0,0,0,0,0,0,0,0,0,0,0,0,0,0,0,0,0,0,0,0,0,0,0,0,0,0,0,0,0,0,0,0,0,0,0,0,0,0,0,0,0,0,0,0,0,0,0,0,0,0,0,0,0,0,0,0,0,0,0,0,0,0,0,0,2
Botella04,x,0,-0.0260428674240631,0.795706076200459,0.136362742355468,-0.163293452449659,0.101917793808477,0.89935289128945,-0.00450837128035464,-0.153056323860714,0.183802960754932,0.869224723543398,0.138394437983584,-0.311729096360365,1.4077548485821,0.349247748397498,0.0707329502494168,0.417234280715895,0,0,0,0,0,0,0,0,0,0,0,0,0,0,0,0,0,0,0,0,0,0,0,0,0,0,0,0,0,0,0,0,0,0,0,0,0,0,0,0,0,0,0,0,0,0,0,0,0,0,0,0,0,0,0,0,0,0,0,0,0,0,0,0,0,0,0,0,0,0,0,0,0,0,0,0,0,0,0,0,0,0,0,0,0,0,0,0,0,0,7,3,0,0,0,0,0,0,0,0,0,0,0,0,0,0,0,0,0,0,0,0,2
Botella04,x,0,-0.0639173088987549,0.75315708859436,0.106247138907319,-0.114779061636706,0.0976611067577958,0.844331904091417,-0.00289634185330701,-0.0983810408830628,0.163210886470895,0.816826179794107,0.17171794457786,-0.301263139221209,1.38378963782912,0.361872270482629,0.199966949389893,0.241151104624408,0,0,0,0,0,0,0,0,0,0,0,0,0,0,0,0,0,0,0,0,0,0,0,0,0,0,0,0,0,0,0,0,0,0,0,0,0,0,0,0,0,0,0,0,0,0,0,0,0,0,0,0,0,0,0,0,0,0,0,0,0,0,0,0,0,0,0,0,0,0,0,0,0,0,0,0,0,0,0,0,0,0,0,0,0,0,5,4,0,0,0,0,0,0,0,0,0,0,0,0,0,0,0,0,0,0,0,0,0,0,0,0,2
Botella04,x,0,-0.0676099926990015,0.718572874307827,0.123064361550004,-0.106804599151406,0.0850249126516557,0.828862285153578,-0.0246148583852811,-0.0690601535011559,0.150678977393709,0.777403448175221,0.187408821267329,-0.297921727538163,1.36716117528394,0.366479652838773,0.247596920625112,0.218377474192149,0,0,0,0,0,0,0,0,0,0,0,0,0,0,0,0,0,0,0,0,0,0,0,0,0,0,0,0,0,0,0,0,0,0,0,0,0,0,0,0,0,0,0,0,0,0,0,0,0,0,0,0,0,0,0,0,0,0,0,0,0,0,0,0,0,0,0,0,0,0,0,0,0,0,0,0,0,0,0,0,0,0,0,0,0,0,6,6,0,0,0,0,0,0,0,0,0,0,0,0,0,0,0,0,0,0,0,0,0,0,0,0,2
Botella04,x,0,-0.0643017467818104,0.717107473326623,0.129883423133043,-0.123821534153756,0.079184813982748,0.82657153497698,-0.0110406552094492,-0.083044267155192,0.159376208304677,0.772570181090117,0.215596400937238,-0.287728593749465,1.3912512628566,0.380271021012924,0.245589608339356,0.222961361701751,0,0,0,0,0,0,0,0,0,0,0,0,0,0,0,0,0,0,0,0,0,0,0,0,0,0,0,0,0,0,0,0,0,0,0,0,0,0,0,0,0,0,0,0,0,0,0,0,0,0,0,0,0,0,0,0,0,0,0,0,0,0,0,0,0,0,0,0,0,0,0,0,0,0,0,0,0,0,0,0,0,0,0,0,0,0,5,7,0,0,0,0,0,0,0,0,0,0,0,0,0,0,0,0,0,0,0,0,0,0,0,0,2
Botella04,x,0,-0.0641282478495396,0.706825116722179,0.130998203758619,-0.091535735787438,0.0828307468267305,0.813624590323836,-0.011570945316133,-0.0820617702479344,0.145028455877115,0.774176362382436,0.181261480910634,-0.326632103586741,1.39861187398362,0.383046309498403,0.25906504738734,0.223574590895765,0,0,0,0,0,0,0,0,0,0,0,0,0,0,0,0,0,0,0,0,0,0,0,0,0,0,0,0,0,0,0,0,0,0,0,0,0,0,0,0,0,0,0,0,0,0,0,0,0,0,0,0,0,0,0,0,0,0,0,0,0,0,0,0,0,0,0,0,0,0,0,0,0,0,0,0,0,0,0,0,0,0,0,0,0,0,3,7,0,0,0,0,0,0,0,0,0,0,0,0,0,0,0,0,0,0,0,0,0,0,0,0,2
Botella04,x,0,-0.0627893176867785,0.702090821772549,0.121090298294193,-0.150794974396424,0.0794305129933104,0.802084381085402,-0.00842087874184516,-0.107221942699704,0.154513910187218,0.759923276628526,0.213391942056846,-0.332749159809075,1.38262466915536,0.37355649563341,0.26860456379797,0.21292353565559,0,0,0,0,0,0,0,0,0,0,0,0,0,0,0,0,0,0,0,0,0,0,0,0,0,0,0,0,0,0,0,0,0,0,0,0,0,0,0,0,0,0,0,0,0,0,0,0,0,0,0,0,0,0,0,0,0,0,0,0,0,0,0,0,0,0,0,0,0,0,0,0,0,0,0,0,0,0,0,0,0,0,0,0,0,0,0,5,0,0,0,0,0,0,0,0,0,0,0,0,0,0,0,0,0,0,0,0,0,0,0,0,2
Botella04,x,0,-0.0746124604569684,0.708960073459563,0.128923105491279,-0.106543778221785,0.0863965567256624,0.820852225283539,0.00638791520152071,-0.089831177850051,0.173627850645466,0.794959531694419,0.198565828113801,-0.321338505283712,1.36580341612317,0.362161966265269,0.272011322612823,0.207127314230036,0,0,0,0,0,0,0,0,0,0,0,0,0,0,0,0,0,0,0,0,0,0,0,0,0,0,0,0,0,0,0,0,0,0,0,0,0,0,0,0,0,0,0,0,0,0,0,0,0,0,0,0,0,0,0,0,0,0,0,0,0,0,0,0,0,0,0,0,0,0,0,0,0,0,0,0,0,0,0,0,0,0,0,0,0,0,7,3,0,0,0,0,0,0,0,0,0,0,0,0,0,0,0,0,0,0,0,0,0,0,0,0,2
Botella04,x,0,-0.0329389688133761,0.825235314123967,0.12180686410419,-0.169533489750765,0.0946871817583401,0.912152418462279,-0.00478288448226938,-0.107659689012705,0.170103875223577,0.870860345658695,0.16961579351465,-0.299531521343971,1.41699380734956,0.348801854412372,0.0624407766555507,0.401456172893371,0,0,0,0,0,0,0,0,0,0,0,0,0,0,0,0,0,0,0,0,0,0,0,0,0,0,0,0,0,0,0,0,0,0,0,0,0,0,0,0,0,0,0,0,0,0,0,0,0,0,0,0,0,0,0,0,0,0,0,0,0,0,0,0,0,0,0,0,0,0,0,0,0,0,0,0,0,0,0,0,0,0,0,0,0,0,0,0,0,0,0,0,0,0,0,0,0,0,0,0,0,0,0,0,0,0,0,0,0,0,0,0,2
Botella04,x,0,-0.0258618569302743,0.772191866502174,0.143329589326142,-0.169789450600183,0.0906141671746668,0.893311315067246,-0.0326922336612304,-0.113841658533511,0.172926211142772,0.852732475529615,0.147944926527279,-0.296396483428954,1.42777834242814,0.371610527296577,0.152594271187041,0.314785573981764,0,0,0,0,0,0,0,0,0,0,0,0,0,0,0,0,0,0,0,0,0,0,0,0,0,0,0,0,0,0,0,0,0,0,0,0,0,0,0,0,0,0,0,0,0,0,0,0,0,0,0,0,0,0,0,0,0,0,0,0,0,0,0,0,0,0,0,0,0,0,0,0,0,0,0,0,0,0,0,0,0,0,0,0,0,0,0,0,0,0,3,0,0,0,4,0,0,0,0,0,0,0,0,0,0,0,0,0,0,0,0,0,2
Botella04,z,0,-0.0631783968467152,0.760414326323422,0.15781732949588,-0.167644977727297,0.09157992772573,0.86626541693852,-0.0200110200798091,-0.160505850154717,0.157428839443401,0.91936617638442,0.174829642403184,-0.3121380203589,1.34673536192514,0.375043207019674,0.21902008499716,0.20206481188844,0,0,0,0,0,0,0,0,0,0,0,0,0,0,0,0,0,0,0,0,0,0,0,0,0,0,0,0,0,0,0,0,0,0,0,0,0,0,0,0,0,0,0,0,0,0,0,0,0,0,0,0,0,0,0,0,0,0,0,0,0,0,0,0,0,0,0,0,0,0,0,0,0,0,0,0,0,0,0,0,0,0,0,0,0,0,0,0,0,0,0,0,0,0,0,0,0,0,0,0,0,0,0,0,0,0,0,0,0,0,0,0,2
Botella04,z,0,-0.0477467216736918,0.720471406220808,0.130234006112892,-0.196851291470213,0.100073055499887,0.810183713306529,-0.0010087730425975,-0.158653926294131,0.173022278685565,0.845191491083508,0.141840188535541,-0.283863056900767,1.36155935961846,0.351129399414441,0.0765881899094675,0.209200675437042,0,0,0,0,0,0,0,0,0,0,0,0,0,0,0,0,0,0,0,0,0,0,0,0,0,0,0,0,0,0,0,0,0,0,0,0,0,0,0,0,0,0,0,0,0,0,0,0,0,0,0,0,0,0,0,0,0,0,0,0,0,0,0,0,0,0,0,0,0,0,0,0,0,0,0,0,0,0,0,0,0,0,0,0,0,0,0,0,0,0,0,0,0,0,0,0,0,0,0,0,0,0,0,0,0,0,0,0,0,0,0,0,2
Botella04,z,0,-0.0388501367959867,0.723686545558269,0.127043758226685,-0.201640081658129,0.099589916261737,0.805931240888735,-0.00969149422418703,-0.160327648518306,0.179074481998886,0.826084043113202,0.144142734751305,-0.308501992242691,1.37485765355357,0.342622758074715,0.11890919303795,0.147966319590105,0,0,0,0,0,0,0,0,0,0,0,0,0,0,0,0,0,0,0,0,0,0,0,0,0,0,0,0,0,0,0,0,0,0,0,0,0,0,0,0,0,0,0,0,0,0,0,0,0,0,0,0,0,0,0,0,0,0,0,0,0,0,0,0,0,0,0,0,0,0,0,0,0,0,0,0,0,0,0,0,0,0,0,0,0,0,0,0,0,0,0,0,0,0,0,0,0,0,0,0,0,0,0,0,0,0,0,0,0,0,0,0,2
Botella04,z,0,-0.0511847777559559,0.735141797099533,0.109426500467813,-0.2115950188945,0.0992316388993302,0.789387517788181,0.0278843999821911,-0.163445467403625,0.16514787174732,0.826492490030611,0.140387451041508,-0.305322268054781,1.35447162963651,0.312053405051383,0.147589386600909,0.140825036751955,0,0,0,0,0,0,0,0,0,0,0,0,0,0,0,0,0,0,0,0,0,0,0,0,0,0,0,0,0,0,0,0,0,0,0,0,0,0,0,0,0,0,0,0,0,0,0,0,0,0,0,0,0,0,0,0,0,0,0,0,0,0,0,0,0,0,0,0,0,0,0,0,0,0,0,0,0,0,0,0,0,0,0,0,0,0,0,0,0,0,0,0,0,0,0,0,0,0,0,0,0,0,0,0,0,0,0,0,0,0,0,0,2
Botella04,z,0,-0.0381669224254028,0.721160669924717,0.126054628797918,-0.199592682278262,0.107662215303699,0.789682502243228,0.0232709341273165,-0.160134792305213,0.177988964922776,0.828791984167544,0.132973611428966,-0.307468889444384,1.35075956686511,0.311505150014878,0.147178823021144,0.107111752157416,0,0,0,0,0,0,0,0,0,0,0,0,0,0,0,0,0,0,0,0,0,0,0,0,0,0,0,0,0,0,0,0,0,0,0,0,0,0,0,0,0,0,0,0,0,0,0,0,0,0,0,0,0,0,0,0,0,0,0,0,0,0,0,0,0,0,0,0,0,0,0,0,0,0,0,0,0,0,0,0,0,0,0,0,0,0,0,0,0,0,0,0,0,0,0,0,0,0,0,0,0,0,0,0,0,0,0,0,0,0,0,0,2
Botella04,z,0,-0.0481483321374525,0.724096015332274,0.124396535105493,-0.194895707432804,0.0988265100300943,0.793927932410557,0.0219331446147741,-0.161039952190337,0.164842944645009,0.827079753558444,0.142132047501805,-0.306523946377548,1.34341600585655,0.311374900620653,0.148024352500961,0.11585696378359,0,0,0,0,0,0,0,0,0,0,0,0,0,0,0,0,0,0,0,0,0,0,0,0,0,0,0,0,0,0,0,0,0,0,0,0,0,0,0,0,0,0,0,0,0,0,0,0,0,0,0,0,0,0,0,0,0,0,0,0,0,0,0,0,0,0,0,0,0,0,0,0,0,0,0,0,0,0,0,0,0,0,0,0,0,0,0,0,0,0,0,0,0,0,0,0,0,0,0,0,0,0,0,0,0,0,0,0,0,0,0,0,2
Botella04,z,0,-0.0277395410469049,0.735351444763975,0.123075378395429,-0.189052342019433,0.105210885201797,0.80950468845247,0.0155088405048952,-0.173359606925862,0.169790577236473,0.83026882163474,0.141469768828447,-0.292029103656266,1.3529168246647,0.304091410728402,0.0895128090319348,0.162342844360783,0,0,0,0,0,0,0,0,0,0,0,0,0,0,0,0,0,0,0,0,0,0,0,0,0,0,0,0,0,0,0,0,0,0,0,0,0,0,0,0,0,0,0,0,0,0,0,0,0,0,0,0,0,0,0,0,0,0,0,0,0,0,0,0,0,0,0,0,0,0,0,0,0,0,0,0,0,0,0,0,0,0,0,0,0,0,0,0,0,0,0,0,0,0,0,0,0,0,0,0,0,0,0,0,0,0,0,0,0,0,0,0,2
Botella04,z,0,-0.0112349256616444,0.708561227361528,0.159566920421448,-0.196276368032189,0.0889957705257193,0.796037966290542,0.00501085028295034,-0.159195464732832,0.172196125682478,0.819939473109689,0.138636895797483,-0.300691827602233,1.35914926003891,0.316317192344926,0.137287907414339,0.108018529246948,0,0,0,0,0,0,0,0,0,0,0,0,0,0,0,0,0,0,0,0,0,0,0,0,0,0,0,0,0,0,0,0,0,0,0,0,0,0,0,0,0,0,0,0,0,0,0,0,0,0,0,0,0,0,0,0,0,0,0,0,0,0,0,0,0,0,0,0,0,0,0,0,0,0,0,0,0,0,0,0,0,0,0,0,0,0,0,0,0,0,0,0,0,0,0,0,0,0,0,0,0,0,0,0,0,0,0,0,0,0,0,0,2
Botella04,z,0,-0.0412067336269261,0.716689213883878,0.133906489782318,-0.194212231815701,0.100705686563094,0.785802013087916,0.0169790785026458,-0.161439245222654,0.166629899122041,0.814182919319111,0.142389964022451,-0.300028644607231,1.35033227471692,0.30642432419514,0.157596055544648,0.0992396741380234,0,0,0,0,0,0,0,0,0,0,0,0,0,0,0,0,0,0,0,0,0,0,0,0,0,0,0,0,0,0,0,0,0,0,0,0,0,0,0,0,0,0,0,0,0,0,0,0,0,0,0,0,0,0,0,0,0,0,0,0,0,0,0,0,0,0,0,0,0,0,0,0,0,0,0,0,0,0,0,0,0,0,0,0,0,0,0,0,0,0,0,0,0,0,0,0,0,0,0,0,0,0,0,0,0,0,0,0,0,0,0,0,2
Botella04,z,0,-0.0425233159207167,0.717771595508287,0.130397282420199,-0.2046596401419,0.096309793933221,0.7806839740514,0.022533248567749,-0.160496758527597,0.160360299518656,0.812354569905672,0.143156367992313,-0.312016180085724,1.34824908715616,0.310906581746202,0.162466176191272,0.100767569735345,0,0,0,0,0,0,0,0,0,0,0,0,0,0,0,0,0,0,0,0,0,0,0,0,0,0,0,0,0,0,0,0,0,0,0,0,0,0,0,0,0,0,0,0,0,0,0,0,0,0,0,0,0,0,0,0,0,0,0,0,0,0,0,0,0,0,0,0,0,0,0,0,0,0,0,0,0,0,0,0,0,0,0,0,0,0,0,0,0,0,0,0,0,0,0,0,0,0,0,0,0,0,0,0,0,0,0,0,0,0,0,0,2
Caja02,x,0,-0.0317921370021257,0.402114975690372,0.241819393938604,0.0123440653032226,0.00926666607185113,0.461811267902466,0.260942011222104,0.0158338429691588,0.224697659395825,0.978228977817909,0.142552821201761,-0.322152676773827,1.38576943341804,0.312787332715185,-0.0494389359662427,0.0843286392733813,0,0,0,0,0,6,0,0,0,0,0,0,0,4,0,0,0,0,0,0,0,0,0,0,0,0,0,0,0,0,0,0,0,0,0,0,0,0,0,0,0,0,0,0,0,0,0,0,0,0,0,0,0,0,0,0,0,0,0,0,0,0,0,0,0,0,0,0,0,0,0,0,0,0,0,0,0,0,0,0,0,0,0,0,0,0,0,0,0,0,0,0,0,0,0,0,0,0,4,0,0,0,0,0,0,0,0,0,0,0,0,0,3
Caja02,x,0,-0.0268356937069849,0.399181100598478,0.171846764935846,0.147309044979426,0.043193767645374,0.6313933560381,0.25177491262197,-0.0993788741002776,0.232425738609425,0.97591722092413,0.151220166041358,-0.314288219370802,1.38837756201954,0.213371092306195,-0.0353077569570641,0.106822344787944,0,0,0,0,0,0,0,0,0,0,0,0,0,0,0,0,0,0,0,0,0,0,0,0,0,0,0,0,0,0,0,0,0,0,0,0,0,0,0,0,0,0,0,0,0,0,0,0,0,0,0,0,0,0,0,0,0,0,0,0,0,0,0,0,0,0,0,0,0,0,0,0,0,0,0,0,0,0,0,0,0,0,0,0,0,0,0,0,0,0,0,0,0,0,0,0,0,0,0,0,0,0,0,0,0,0,0,0,0,0,0,0,3
Caja02,x,0,-0.0653363031926958,0.434083536483833,0.167761276840331,0.0538577450337888,0.0140691741004512,0.498163802225058,0.0995043147331712,0.110392830337176,0.219971716167059,0.978492308510867,0.143937138428865,-0.319338204580104,1.36571380517492,0.239655660326241,-0.0961517640974344,0.186265720812694,0,0,0,0,0,0,3,0,0,0,0,0,0,0,4,0,0,0,0,0,0,0,0,70,0,0,0,0,0,0,0,0,0,0,0,0,0,0,0,0,0,0,0,0,0,0,0,0,0,0,0,0,0,0,0,0,0,0,0,0,0,0,0,0,0,0,0,0,0,0,0,0,0,0,0,0,0,0,0,0,0,0,0,0,0,0,0,0,0,0,5,0,0,0,0,0,0,0,0,0,0,0,0,0,0,0,0,0,0,0,0,0,3
Caja02,x,0,-0.0786901786168817,0.828689535711734,0.111566997283268,-0.168027770066458,0.0951440988817853,0.931793749238458,-0.018793291899412,-0.146204479251366,0.184565864264784,0.901909607271464,0.176004320073136,-0.36633997033699,1.38367812676312,0.373761867948999,0.128862164324549,0.350318631971118,0,0,0,0,0,0,0,0,0,0,0,0,0,0,0,0,0,0,0,0,0,0,0,0,0,0,0,0,0,0,0,0,0,0,0,0,0,0,0,0,0,0,0,0,0,0,0,0,0,0,0,0,0,0,0,0,0,0,0,0,0,0,0,0,0,0,0,0,0,0,0,0,0,0,0,0,0,0,0,0,0,0,0,0,0,0,0,0,0,0,0,0,0,0,0,0,0,0,0,0,0,0,0,0,0,0,0,0,0,0,0,0,3
Caja02,x,0,-0.128849636789385,0.501924502156281,0.173089718688037,-0.00502648869641442,0.050231074799714,0.62540634038794,0.072156586475582,0.0990607731905608,0.106618764608888,0.596878450949414,0.317746305080382,-0.0955498852216915,1.28838046649597,0.254274592902691,-0.0420525005506574,0.246227657195991,0,0,0,0,0,0,0,0,0,0,0,0,0,0,0,0,0,0,0,0,0,0,0,0,0,0,0,0,0,0,0,0,0,0,0,0,0,0,0,0,0,0,0,0,0,0,0,0,0,0,0,0,0,0,0,0,0,0,0,0,0,0,0,0,0,0,0,0,0,0,0,0,0,0,0,0,0,0,0,0,0,0,0,0,0,0,0,0,0,0,0,0,0,0,0,0,0,0,0,0,0,0,0,0,0,0,0,6,7,0,0,3,3
Caja02,x,0,-0.0610019888925119,0.420324238317416,0.231041889518969,0.0532113515768474,0.0154519683163169,0.467313928659596,0.145905163685565,0.12216341721772,0.22409867436593,0.977994028615251,0.145766059335501,-0.318483609622056,1.36543403339914,0.213743707844165,-0.0794899246828282,0.115911516548945,0,0,0,0,0,0,0,0,0,0,0,0,0,0,0,0,0,0,0,0,0,0,0,0,0,0,0,0,0,0,0,0,0,0,0,0,0,0,0,0,0,0,0,0,0,0,0,0,0,0,0,0,0,0,0,0,0,0,0,0,0,0,0,0,0,0,0,0,0,0,0,0,0,0,0,0,0,0,0,0,0,0,0,0,0,0,0,0,0,0,0,0,0,0,0,0,0,0,4,0,0,0,0,0,0,0,0,0,0,0,0,0,3
Caja02,x,0,-0.072034375330637,0.461996919702497,0.117918311660753,0.121342700419874,0.0113568971126289,0.482004406920467,0.126385659354796,0.173556202492366,0.228478096806632,0.977414305557166,0.147817981259538,-0.314198516018872,1.37933531489008,0.186536318181326,-0.0564938295675989,0.109953224753361,0,0,0,0,0,11,0,0,0,0,0,0,0,0,0,0,0,0,0,0,0,0,0,0,0,0,0,0,0,0,0,0,0,0,0,0,0,0,0,0,0,0,0,0,0,0,0,0,0,0,0,0,0,0,0,0,0,0,0,0,0,0,0,0,0,0,0,0,0,0,0,0,0,0,0,0,0,0,0,0,0,0,0,0,0,0,0,0,0,0,0,0,0,0,0,0,0,0,4,0,0,0,0,0,0,0,0,0,0,0,0,0,3
Caja02,x,0,-0.117499458552242,0.537778612770452,0.0398945594845177,-0.171368965122759,0.028834125115676,0.596795281973225,0.00592372062677848,-0.158113405480796,0.110856502638162,0.532265838972566,0.288252644675364,-0.323811361730703,1.25263503809853,0.286856993617621,-0.039723624491196,0.15052699033393,0,0,0,0,0,5,0,0,0,0,0,0,0,0,0,0,0,0,0,0,0,0,0,0,0,0,0,0,16,6,0,0,0,0,0,0,0,0,0,0,0,0,0,0,0,0,0,0,0,0,0,0,0,0,0,0,0,0,0,0,0,0,0,0,0,0,0,0,0,0,0,0,0,0,0,0,0,0,0,0,0,0,0,0,0,0,0,0,0,0,0,0,0,0,0,0,0,0,0,0,0,0,0,0,0,0,0,0,11,0,0,0,3
Caja02,x,0,-0.145329205384963,0.548851644834239,-0.0110540190737787,-0.0741185008766377,0.0561884261014118,0.576415901788322,0.0463017410177613,-0.0499886236584074,0.109816566405311,0.573530115698157,0.242318590352464,-0.239274209811904,1.23869123019257,0.293335796948795,-0.0459296815667631,0.219215829929446,0,0,0,0,0,0,0,0,0,4,0,0,0,0,0,0,0,0,0,0,0,0,0,0,0,0,0,0,0,0,0,0,0,0,0,0,0,0,0,0,10,19,0,0,0,0,0,0,0,0,0,0,0,0,0,0,0,0,0,0,0,0,0,0,0,0,0,0,0,0,0,0,0,0,0,0,0,0,0,0,0,0,0,0,0,0,0,0,0,0,0,0,0,0,0,0,0,0,0,0,0,0,0,0,0,0,0,0,0,0,5,29,3
Caja02,x,90,0.00368423563858376,0.384172660404717,-0.049933996831767,-0.0354740632032448,0.058144060977394,0.786829437290356,0.0543011584283597,-0.0597988632866688,0.223750999567135,0.978642796634873,0.149979620622094,-0.329729864266834,1.37590582599326,0.373691832161605,0.0944175581954677,0.0123421762156371,0,0,0,0,0,0,0,0,0,0,0,0,0,7,0,0,0,0,0,0,0,0,0,0,0,0,0,0,0,0,0,0,0,0,0,0,0,0,0,0,0,0,0,0,0,0,0,0,0,0,0,0,0,0,0,0,0,0,0,0,0,0,0,0,0,0,0,0,0,0,0,0,0,0,0,0,0,0,0,0,0,0,0,0,0,0,0,0,0,0,0,0,0,0,0,0,0,0,0,0,0,0,0,0,0,0,0,0,0,0,0,0,3
Caja02,x,90,-0.0673744262255809,0.339241799110236,0.0121647899423768,0.0636035158769467,-0.00419226317688872,0.39038275094411,0.0943683020904601,-0.0534510094578887,0.225336040182539,0.976916686540246,0.147175306517231,-0.331700957261057,1.33030889598744,0.373580381897948,0.0901057218809712,0.00052047853783696,0,0,0,0,0,0,0,0,0,0,0,0,0,0,37,0,0,0,0,0,0,0,0,0,0,0,0,0,0,0,0,0,0,0,0,0,0,0,0,0,0,0,0,0,0,0,0,0,0,0,0,0,0,0,0,0,0,0,0,0,0,0,0,0,0,0,0,0,0,0,0,0,0,0,0,0,0,0,0,0,0,0,0,0,0,0,0,0,0,0,0,0,0,0,0,0,0,0,0,0,0,0,0,0,0,0,0,0,0,0,0,0,3
Caja02,x,90,-0.0293777190614345,0.348492706616296,0.153551488191664,0.0518906975667087,-0.0512594301356043,0.398454575817679,0.0748206047629348,0.0068232786469612,0.22713888081883,0.975573209143897,0.155003357112262,-0.328304659348997,1.32501679281537,0.369316704975067,0.110103402317507,0.00101561080708017,0,0,0,0,0,0,0,0,0,0,0,0,0,0,0,0,0,0,0,0,0,0,0,0,0,0,0,0,0,0,0,0,0,0,0,0,0,0,0,0,0,0,0,0,0,0,0,0,0,0,0,0,0,0,0,0,0,0,0,0,0,0,0,0,0,0,0,0,0,0,0,0,0,0,0,0,0,0,0,0,0,0,0,0,0,0,0,0,0,0,0,0,0,0,0,0,0,0,0,0,0,0,0,0,0,0,0,0,0,0,0,0,3
Caja02,x,90,0.00166198867050119,0.370995966658592,-0.0303147347106311,-0.0427491318538633,0.0707507377234186,0.763073059209242,0.0417271523752434,-0.0794245470743425,0.225491654904348,0.978268281642081,0.150179115500813,-0.328482374639619,1.36608515242344,0.364404441439597,0.127951018523119,-0.00368135156818337,0,0,0,0,0,0,0,0,0,0,0,0,0,23,26,0,0,0,0,0,0,0,0,0,0,0,0,0,0,0,0,0,0,0,0,0,0,0,0,0,0,0,0,0,0,0,0,0,0,0,0,0,0,0,0,0,0,0,0,0,0,0,0,0,0,0,0,0,0,0,0,0,0,0,0,0,0,0,0,0,0,0,0,0,0,0,0,0,0,0,0,0,0,0,0,0,0,0,0,0,0,0,0,0,0,0,0,0,0,0,0,0,3
Caja02,x,90,-0.0258888063117101,0.34441608797699,0.004610582287363,0.00831702470865486,-0.0030451575980188,0.384209740830293,-0.00635903721619557,0.000479940139415269,0.222839055558413,0.978102328274613,0.14672289584226,-0.327593237887073,1.36154311781206,0.311550670185014,0.104850486071255,0.0019310815482849,0,0,0,0,0,0,0,0,0,0,0,0,0,7,0,0,0,0,0,0,0,0,0,0,0,0,0,0,0,0,0,0,0,0,0,0,0,0,0,0,0,6,0,0,0,0,0,0,0,0,0,0,0,0,0,0,0,0,0,0,0,0,0,0,0,0,0,0,0,0,0,0,0,0,0,0,0,0,0,0,0,0,0,0,0,0,0,0,0,0,0,0,0,0,0,0,0,0,0,0,0,0,0,0,0,0,0,0,0,0,0,0,3
Caja02,x,90,-0.0186788122808508,0.339232130379759,0.00944360734785676,-0.0452409035121062,0.0884581859257747,0.783438298572996,0.0560169508936353,-0.0650348454946718,0.223134036329771,0.978402483321104,0.146247028458815,-0.326091069169775,1.37181731910307,0.370366038914426,0.139139572428219,0.00426692863334699,0,0,0,0,0,0,0,0,0,0,0,0,0,3,0,0,0,0,0,0,0,0,0,0,0,0,0,0,0,0,0,0,0,0,0,0,0,0,0,0,0,0,0,0,0,0,0,0,0,0,0,0,0,0,0,0,0,0,0,0,0,0,0,0,0,0,0,0,0,0,0,0,0,0,0,0,0,0,0,0,0,0,0,0,0,0,0,0,0,0,0,0,0,0,0,0,0,0,0,0,0,0,0,0,0,0,0,0,0,0,0,0,3
Caja02,x,90,0.0718491446403089,0.343292397357262,0.156158707694464,0.0333291821291547,-0.0333561672869016,0.383778871737332,-0.00573376650185325,0.0613439024453283,0.224691602245486,0.977850739318835,0.148106467317915,-0.327949841021675,1.35533987745245,0.368070298990504,0.130901598176784,0.00619728763690636,0,0,0,0,0,0,0,0,0,0,0,0,0,0,0,0,0,0,0,0,0,0,0,0,0,0,0,0,0,0,0,0,0,0,0,0,0,0,0,0,0,0,0,0,0,0,0,0,0,0,0,0,0,0,0,0,0,0,0,0,0,0,0,0,0,0,0,0,0,0,0,0,0,0,0,0,0,0,0,0,0,0,0,0,0,0,0,0,0,0,0,0,0,0,0,0,0,0,0,0,0,0,0,0,0,0,0,0,0,0,0,0,3
Caja02,x,90,-0.0294075395227262,0.333511327862228,0.000928066609414302,0.0388703226110079,0.0101492784764702,0.401991473336667,0.0475701807517928,-0.0266394168678971,0.224317786774626,0.976896767904421,0.152982332698722,-0.332058382065451,1.33858212582801,0.366272217071197,0.0975186986716227,0.00781447333359514,0,0,0,0,0,0,0,0,0,0,0,0,0,14,0,0,0,0,0,0,0,0,0,0,0,0,0,0,0,0,0,0,0,0,0,0,0,0,0,0,0,0,0,0,0,0,0,0,0,0,0,0,0,0,0,0,0,0,0,0,0,0,0,0,0,0,0,0,0,0,0,0,0,0,0,0,0,0,0,0,0,0,0,0,0,0,0,0,0,0,0,0,0,0,0,0,0,0,0,0,0,0,0,0,0,0,0,0,0,0,0,0,3
Caja02,x,90,0.0051236885076219,0.343747568138873,0.00244041633385456,-0.049030497610587,0.0489116772427163,0.771676106844987,0.0630940706901592,-0.0623450907373102,0.222169315804477,0.976689649825184,0.157328368379942,-0.333249399597457,1.36879379456145,0.366973051287995,0.146522210262388,-0.00688146789501579,0,0,0,0,0,0,0,0,0,0,0,0,0,0,4,0,0,0,0,0,0,0,0,0,0,0,0,0,0,0,0,0,0,0,0,0,0,0,0,0,0,0,0,0,0,0,0,0,0,0,0,0,0,0,0,0,0,0,0,0,0,0,0,0,0,0,0,0,0,0,0,0,0,0,0,0,0,0,0,0,0,0,0,0,0,0,0,0,0,0,0,0,0,0,0,0,0,0,0,0,0,0,0,0,0,0,0,0,0,0,0,0,3
Caja02,x,90,0.0512124149747731,0.362715137386177,0.104145085349964,0.0533034050718164,-0.00180486833439609,0.37916622116208,0.000329167493044347,0.0525833502816532,0.220858979703225,0.977603789614805,0.156158266391037,-0.33473254395245,1.35025999250119,0.364769987144572,0.133010853490527,0.00986584056393461,0,0,0,0,0,0,0,0,0,0,0,0,0,0,0,0,0,0,0,0,0,0,0,0,0,0,0,0,0,0,0,0,0,0,0,0,0,0,0,0,0,0,0,0,0,0,0,0,0,0,0,0,0,0,0,0,0,0,0,0,0,0,0,0,0,0,0,0,0,0,0,0,0,0,0,0,0,0,0,0,0,0,0,0,0,0,0,0,0,0,0,0,0,0,0,0,0,0,0,0,0,0,0,0,0,0,0,0,0,0,0,0,3
Caja02,x,0,-0.0638681404036642,0.409013315591773,0.222688552897747,0.103288978445477,-0.00184952890714997,0.45515950922795,0.191432867392894,0.158374378993029,0.227762619808206,0.977280080907659,0.14767454755806,-0.314805629373789,1.37437913874345,0.2007322977308,-0.0794994755289174,0.172218482638032,0,0,0,0,0,0,0,0,0,0,0,0,0,0,0,0,0,0,0,0,0,0,0,0,0,0,0,0,0,0,0,0,0,0,0,0,0,0,0,0,0,0,0,0,0,0,0,0,0,0,0,0,0,0,0,0,0,0,0,0,0,0,0,0,0,0,0,0,0,0,0,0,0,0,0,0,0,0,0,0,0,0,0,0,0,0,0,0,0,0,4,0,0,0,0,0,0,0,4,0,0,0,0,0,0,0,0,0,0,0,0,0,3
Cilindro02,z,0,-0.140399353575842,0.546996549544609,0.0371654063938076,-0.161494069205062,0.0506171622057688,0.597000197268176,0.0664060353586862,-0.162295946558548,0.126060365168908,0.612701632052064,0.235625879473909,-0.276301474052336,1.2374838794269,0.305524831330344,0.117531609135289,0.0823163338983948,0,0,0,0,0,3,0,0,0,0,0,0,0,0,0,0,0,0,0,0,0,0,0,0,0,0,0,0,0,0,0,0,0,0,0,0,0,0,0,0,0,0,0,0,0,0,0,0,0,0,0,0,0,0,0,0,0,0,0,0,0,0,0,0,0,0,0,0,0,0,0,0,0,0,0,0,0,0,0,0,0,0,0,0,0,0,0,0,0,0,3,0,0,0,0,0,0,6,0,0,0,0,0,0,0,0,0,0,0,0,0,0,4
Cilindro02,z,0,-0.176156676909305,0.514286238273238,0.1631491206789,-0.101914507272855,0.0372867256815795,0.64235229829115,0.0528606762739605,-0.124064798306775,0.113161421065241,0.617797184265165,0.264909226817969,-0.266777881729506,1.2601647193364,0.360622596332743,0.0716597334842849,0.195139936236784,0,0,0,0,0,0,0,0,0,0,0,0,0,0,0,0,0,0,0,0,0,0,0,0,0,0,0,0,4,0,0,0,0,0,0,0,0,0,0,0,0,0,0,0,0,0,0,0,0,0,0,0,0,0,0,0,0,0,0,0,0,0,0,0,0,0,0,0,0,0,0,0,0,0,0,0,0,0,0,0,0,0,0,0,0,0,0,0,0,0,0,0,0,0,0,0,0,0,0,0,0,0,0,0,0,0,0,0,0,0,0,0,4
Cilindro02,z,0,-0.147033759083921,0.528383133732055,0.0680056361725092,-0.181215522576826,0.034269383764531,0.596911728802385,0.0666969648212655,-0.148763504360263,0.107316329598678,0.601917195285847,0.27760342518404,-0.284043121848939,1.21341097521862,0.250247728977995,0.120927180212614,0.0913852889245127,0,0,0,0,0,3,0,0,0,0,0,0,0,0,0,0,0,0,0,0,0,0,0,0,0,0,0,0,0,0,0,0,0,0,0,0,0,0,0,0,0,0,0,0,0,0,0,0,0,0,0,0,0,0,0,0,0,0,0,0,0,0,0,0,0,0,0,0,0,0,0,0,0,0,0,0,0,0,0,0,0,0,0,0,0,0,0,0,0,0,0,0,0,5,0,0,0,10,0,0,0,0,0,0,0,0,0,0,0,0,0,0,4
Cilindro02,z,0,-0.0846083988470147,0.602171170165013,0.0237778021103736,-0.181731883660403,0.0586316115647544,0.635192976856227,0.0368090731491041,-0.152150301584791,0.13366172314216,0.659949786170838,0.256815641003626,-0.26823136668687,1.26985572939973,0.284700624180491,0.00141319837975478,0.197052285548862,0,0,0,0,0,0,0,0,0,0,0,0,0,0,0,0,0,0,0,0,0,0,0,0,0,0,0,0,0,0,0,0,0,0,0,0,0,0,0,0,0,0,0,0,0,0,0,0,0,0,0,0,0,0,0,0,0,0,0,0,0,0,0,0,0,0,0,0,0,0,0,0,0,0,0,0,0,0,0,0,0,0,0,0,0,0,0,0,0,0,3,0,0,0,7,0,0,0,7,0,0,0,0,0,0,0,0,0,0,0,0,0,4
Cilindro02,z,0,-0.132833991807691,0.550249435981377,0.0699945857969319,-0.200186082969842,0.0472758074440888,0.617507758287652,0.0498244510122851,-0.133197376167649,0.110950655395192,0.604634064194626,0.253757350005735,-0.282183121992256,1.21596475722629,0.247893124035055,0.0693792035646482,0.14952412279132,0,0,0,0,0,3,0,0,0,0,0,0,0,0,0,0,0,0,0,0,0,0,0,0,0,0,0,0,0,0,0,0,0,0,0,0,0,0,0,0,0,0,0,0,0,0,0,0,0,0,0,0,0,0,0,0,0,0,0,0,0,0,0,0,0,0,0,0,0,0,0,0,0,0,0,0,0,0,0,0,0,0,0,0,0,0,0,0,0,0,0,0,0,0,0,0,0,13,4,0,0,0,0,0,0,0,0,0,0,0,0,0,4
Cilindro02,z,0,-0.111683036524377,0.548409131189892,0.0924487684136283,-0.119131192853132,0.0309702815052149,0.616550465749132,0.0856824497545824,-0.0904098955498688,0.124631356434676,0.677694409170243,0.206316215043912,-0.244354922681912,1.35565489705496,0.307441895199794,0.131774575402894,0.132311114586526,0,0,0,0,0,0,0,0,0,0,0,0,0,5,0,0,0,0,0,0,0,0,0,0,0,0,0,0,0,0,0,0,0,0,0,0,3,4,0,0,0,0,0,0,0,0,0,0,0,0,0,0,0,0,0,0,0,0,0,0,0,0,0,0,0,0,0,0,0,0,0,0,0,0,0,0,0,0,0,0,0,0,0,0,0,0,0,0,0,0,0,0,0,0,0,0,0,0,0,0,0,0,0,0,0,0,0,0,0,0,0,0,4
Cilindro02,z,0,-0.12181212769671,0.563994361176484,0.0374745340078864,-0.189660738787513,0.0496635495370178,0.626573824444349,0.0458099004899917,-0.138088210273035,0.1332530623049,0.627537773778859,0.249616902215888,-0.321311943998001,1.25003897457825,0.307448575448774,0.0263628234644847,0.178413096618971,0,0,0,0,0,4,0,0,0,0,0,0,0,0,0,0,0,0,0,0,0,0,0,0,0,0,0,0,0,0,0,0,0,0,0,0,0,0,0,0,0,0,0,0,0,0,0,0,0,0,0,0,0,0,0,0,0,0,0,0,0,0,0,0,0,0,0,0,0,0,0,0,0,0,0,0,0,0,0,0,0,0,0,0,0,0,0,0,0,0,0,0,0,0,0,0,0,11,6,0,0,0,0,0,0,0,0,0,0,0,0,0,4
Cilindro02,z,0,-0.174143054478916,0.548758148340997,0.133143472360028,-0.106599247515924,0.0278845330576642,0.649564083058025,0.0620478180546781,-0.128599490815158,0.132468139856828,0.635887930828919,0.273220359738309,-0.274932862383156,1.29058987347753,0.370084358845245,0.0708302841234566,0.221678731249979,0,0,0,0,0,0,0,0,0,0,0,0,0,5,0,0,0,0,0,0,0,0,0,0,0,0,0,0,0,0,0,0,6,0,0,0,0,0,0,0,0,0,0,0,0,0,0,0,0,0,0,0,0,0,0,0,0,0,0,0,0,0,0,0,0,0,0,0,0,0,0,0,0,0,0,0,0,0,0,0,0,0,0,0,0,0,0,0,0,0,0,0,0,0,0,0,0,0,0,0,0,0,0,0,4,0,0,0,0,0,0,0,4
Cilindro02,z,0,-0.120464325480487,0.538380162015668,0.0434006218330445,-0.0899595490907385,0.0397504400405177,0.585440512339071,0.0520683185045134,-0.117984722252824,0.0852191946460689,0.564398899669887,0.260732032905227,-0.290089019952463,1.23051488313886,0.231820566551569,0.124827473727458,0.118714041868978,0,0,0,0,0,4,0,0,0,0,0,0,0,4,0,0,0,0,0,0,0,0,0,0,0,0,0,0,0,0,0,0,0,0,0,0,0,0,0,0,0,0,0,0,0,0,0,0,0,0,0,0,0,0,0,0,0,0,0,0,0,0,0,0,0,0,0,0,0,0,0,0,0,0,0,0,0,0,0,0,0,0,0,0,0,0,0,0,0,0,0,0,0,0,3,0,0,10,7,0,0,0,0,0,0,0,0,0,0,0,0,0,4
Cilindro02,z,0,-0.0985496383923961,0.530219339494175,0.125606908496391,-0.0652325942505271,0.0349047688636767,0.658751734081798,0.0298974735696772,-0.0965830679568628,0.144093034988181,0.67768589247676,0.203525362367405,-0.292058013489234,1.31842061577024,0.324457283905549,0.116649534821097,0.171178936470247,0,0,0,0,0,0,0,0,0,0,0,0,0,4,0,0,0,0,0,0,0,0,0,0,0,0,0,0,0,0,0,0,0,0,0,0,5,0,0,0,0,0,0,0,0,0,0,0,0,0,0,0,0,0,0,0,0,0,0,0,0,0,0,0,0,0,0,0,0,0,0,0,0,0,0,0,0,0,0,0,0,0,0,0,0,0,0,0,0,0,0,0,0,0,0,0,0,0,0,0,0,0,0,0,0,0,0,0,0,0,0,0,4
Cilindro02,z,0,-0.0178878604698291,0.8902641970207,0.15558054439238,-0.234720118038693,0.14653004945001,0.77678863139949,-0.0180947859467291,-0.0953737821534306,0.0854620926823989,0.652994458133123,0.237238913622141,-0.259836902517273,1.32777253613796,0.423834044102386,0.0632915109700485,0.277469629209348,0,0,0,0,0,0,0,0,0,0,0,0,29,0,0,0,0,0,0,0,0,0,0,0,0,0,0,0,0,0,0,0,0,0,0,0,0,0,0,0,0,0,0,0,0,0,0,0,0,0,0,0,0,0,0,0,0,0,0,0,0,0,0,0,0,0,0,0,0,0,0,0,0,0,0,0,0,0,0,0,0,0,0,0,0,0,0,0,0,0,0,0,0,0,0,0,0,0,0,0,0,0,0,0,0,0,0,0,0,0,0,0,4
Cilindro02,z,0,0.0529371229309425,0.639897489658924,0.180191507215447,-0.156990683574849,0.0334964003068956,0.621317874056877,0.0245656185094345,-0.164683715885385,-0.060818432076129,0.708730189343721,0.211958998256211,-0.294494505504572,1.30971468392178,0.368053070431512,0.101136650073264,0.126303583492077,0,0,0,0,0,0,0,0,0,0,0,0,0,0,0,0,0,0,0,0,0,0,0,0,0,0,0,0,0,0,0,0,0,0,0,0,0,0,0,0,0,0,0,0,0,0,0,0,0,0,0,0,0,0,0,0,0,0,0,0,0,0,0,0,0,0,0,0,0,0,0,0,0,0,0,0,0,0,0,0,0,0,0,0,0,0,0,0,0,0,0,0,0,0,0,0,0,0,0,0,0,0,0,0,0,0,0,0,0,0,0,0,4
Cilindro02,x,0,-0.0194697167543618,0.563593740568188,0.0634559340601826,-0.198843797448705,0.0528169480144977,0.608084593554182,0.0104620128871757,-0.163320580959738,0.131489061258085,0.711594893196261,0.25623797118064,-0.314687931599097,1.31678164788595,0.364621119522084,0.0711066820266206,0.147038413829497,0,0,0,0,0,0,0,0,0,0,0,0,0,0,0,0,0,0,0,0,0,0,0,0,0,0,0,0,3,0,0,0,0,0,0,0,0,0,0,0,0,0,0,0,0,0,0,0,0,0,0,0,0,0,0,0,0,0,0,0,0,0,0,0,0,0,0,0,0,0,0,0,0,0,0,0,0,0,0,0,0,0,0,0,0,0,7,0,0,0,15,0,0,0,0,0,0,0,0,0,0,0,0,0,0,0,0,0,0,0,0,0,4
Cilindro02,x,0,-0.014503720391692,0.548471887016377,0.0779923331650227,-0.1960383996198,0.0475508015011983,0.60366665535799,-0.0237393557791558,-0.134285188374175,0.137029387118998,0.683450131211731,0.248293033915305,-0.307635488896101,1.31229705858062,0.363509130819171,0.116152079714396,0.113649108768711,0,0,0,0,0,0,0,0,0,0,0,0,0,0,0,0,0,0,0,0,0,0,0,0,0,0,0,0,3,0,0,0,0,0,0,0,0,0,0,0,0,0,0,0,0,0,0,0,0,0,0,0,0,0,0,0,0,0,0,0,0,0,0,0,0,0,0,0,0,0,0,0,0,0,0,0,0,0,0,0,0,0,0,0,0,0,9,0,0,0,13,0,0,0,0,0,0,0,0,0,0,0,0,0,0,0,0,0,0,0,0,0,4
Cilindro02,x,0,-0.0313635426057099,0.510096847064591,0.136338283220723,-0.178637496513009,0.0480043978036248,0.58995571621939,0.0241104308522002,-0.130190560198371,0.148863620067849,0.76404737301962,0.191679520059514,-0.320001746346788,1.34346256609743,0.359419385856245,0.0639666757917143,0.189945038729674,0,0,0,0,0,0,0,0,0,0,0,0,0,0,0,0,0,0,0,0,0,0,0,0,0,0,0,0,0,0,0,0,0,0,0,0,0,0,0,0,0,0,0,0,0,0,0,0,0,0,0,0,0,0,0,0,0,0,0,0,0,0,0,0,0,0,0,0,0,0,0,0,0,0,0,0,0,0,0,0,0,0,0,0,0,0,0,0,0,0,9,0,0,0,7,0,0,0,5,0,0,0,0,0,0,0,0,0,0,0,0,0,4
Cilindro02,x,0,-0.0803116947665089,0.523380795507236,0.176719379379234,-0.148901262306668,0.0465191662052452,0.611701411920581,0.0570113753216122,-0.170104348687098,0.123769415323818,0.714243252683669,0.203235204446821,-0.24294290520928,1.26658370144062,0.325015010648608,0.0327432356699229,0.213904577327297,0,0,0,0,0,0,0,0,0,0,0,0,0,0,0,0,0,0,0,0,0,0,0,0,0,0,0,0,0,0,0,0,0,0,0,0,0,0,0,0,0,0,0,0,0,0,0,0,0,0,0,0,0,0,0,0,0,0,0,0,0,0,0,0,0,0,0,0,0,0,0,0,0,0,0,0,0,0,0,0,0,0,0,0,0,0,0,0,0,4,4,0,0,0,0,0,0,0,0,0,0,0,0,0,0,0,0,0,0,0,0,0,4
Cilindro02,x,0,-0.033575254234359,0.504588458929243,0.118616746364412,-0.170440417574478,0.0378518353516558,0.568320586243011,0.0259769773187213,-0.145154690278671,0.153640049562034,0.715467365680087,0.204827060170175,-0.324110761629646,1.36618459268077,0.37328358101193,0.144060611865315,0.0337797380845482,0,0,0,0,0,0,0,0,0,0,0,0,0,0,0,0,0,0,0,0,0,0,0,0,0,0,0,0,0,0,0,0,0,0,0,0,0,0,0,0,0,0,0,0,0,0,0,0,0,0,0,0,0,0,0,0,0,0,0,0,0,0,0,0,0,0,0,0,0,0,0,0,0,0,0,0,0,0,0,0,0,0,0,0,0,0,7,0,0,0,10,0,0,0,0,0,0,0,0,0,0,0,0,0,0,0,0,0,0,0,0,0,4
Cilindro02,x,0,-0.0254996431546881,0.545997270030268,0.0832166528149938,-0.198372676511203,0.0387367764914334,0.59810322056945,-0.0170435448059992,-0.1331762898663,0.143946955870067,0.67679466190474,0.243423190252758,-0.298546746436987,1.29847811339202,0.363358796839474,0.123760880231104,0.111945001435176,0,0,0,0,0,0,0,0,0,0,0,0,0,0,0,0,0,0,0,0,0,0,0,0,0,0,0,0,3,0,0,0,0,0,0,0,0,0,0,0,0,0,0,0,0,0,0,0,0,0,0,0,0,0,0,0,0,0,0,0,0,0,0,0,0,0,0,0,0,0,0,0,0,0,0,0,0,0,0,0,0,0,0,0,0,0,5,0,0,0,11,0,0,0,0,0,0,0,0,0,0,0,0,0,0,0,0,0,0,0,0,0,4
Cilindro02,x,0,0.00515714665030353,0.566388351237379,0.234902642603377,-0.17984306025614,0.0474208028757543,0.596815116577415,0.0155015028176453,-0.100087567285067,-0.0541862789399117,0.729262079773196,0.173733354210698,-0.328663223898509,1.29762400479647,0.367311357722851,0.125411883320125,0.10698999316282,0,0,0,0,0,0,0,0,0,0,0,0,0,0,0,0,0,0,0,0,0,0,0,0,0,0,0,0,0,0,0,0,0,0,0,0,0,0,0,0,0,0,0,0,0,0,0,0,0,0,0,0,0,0,0,0,0,0,0,0,0,0,0,0,0,0,0,0,0,0,0,0,0,0,0,0,0,0,0,0,0,0,0,0,0,0,0,0,0,0,0,0,0,3,0,0,0,9,0,0,0,0,0,0,0,0,0,0,0,0,0,0,4
Cilindro02,x,0,0.030389341158699,0.588605910815584,0.12295367116161,-0.230774585089889,0.0452921012527566,0.612934787344314,0.0218225959254102,-0.203086022696958,0.106558326598384,0.669461483498486,0.233269165011045,-0.304456170216397,1.31114948583042,0.381725207442884,0.062811571730807,0.162589345992676,0,0,0,0,0,0,0,0,0,0,0,0,0,0,0,0,0,0,0,0,0,0,0,0,0,0,0,0,0,0,0,0,0,0,0,0,0,0,0,0,0,0,0,0,0,0,0,0,0,0,0,0,0,0,0,0,0,0,0,0,0,0,0,0,0,0,0,0,0,0,0,0,0,0,0,0,0,0,0,0,0,0,0,0,0,0,0,0,0,12,0,0,0,5,0,0,0,0,0,0,0,0,0,0,0,0,0,0,0,0,0,0,4
Pelota03,z,0,-0.0191199512881687,0.614595149100325,0.176324173878115,-0.154339091957779,0.0401549011512941,0.67925703515648,0.0452648404943031,-0.0768947925006119,0.139793631270911,0.695331224081356,0.220790021772384,-0.302310746800359,1.33617352346758,0.381626754060412,0.181343313848192,0.126202095879602,0,0,0,0,0,0,0,0,0,0,0,0,0,0,0,0,0,0,0,0,0,0,0,0,0,0,0,0,0,0,0,0,0,0,0,0,0,0,0,0,0,0,0,0,0,0,0,0,0,0,0,0,0,0,0,0,0,0,0,0,0,0,0,0,0,0,0,0,0,0,0,0,0,0,0,0,0,0,0,0,0,0,0,0,0,0,0,0,0,0,0,0,0,0,0,0,0,0,0,0,0,0,0,0,0,0,0,0,0,0,0,0,5
Pelota03,z,0,-0.0196909718329247,0.578953206466629,0.179135808447033,-0.171806072754488,0.0478132225755962,0.648413055987812,0.0727979312843092,-0.104290002383322,0.143257667141846,0.714650798710801,0.200007953807625,-0.286644552402618,1.3687065280237,0.371568296795275,0.207623196884479,0.0847456730848105,0,0,0,0,0,0,0,0,0,0,0,0,0,0,0,0,0,0,0,0,0,0,0,0,0,0,0,0,0,0,0,0,0,0,0,0,0,0,0,0,0,0,0,0,0,0,0,0,0,0,0,0,0,0,0,0,0,0,0,0,0,0,0,0,0,0,0,0,0,0,0,0,0,0,0,0,0,0,0,0,0,0,0,0,0,0,0,0,0,0,0,0,0,0,0,0,0,0,0,0,0,0,0,0,0,0,0,0,0,0,0,0,5
Pelota03,z,0,-0.0195209529144029,0.621473271610739,0.160661204223861,-0.169496830523577,0.060575524599117,0.700357066029528,0.0326109926416314,-0.0948359567491424,0.142049184605131,0.762397990495521,0.169872283823067,-0.294968774910552,1.38736105800111,0.374764160246947,0.11838124240068,0.185896307012914,0,0,0,0,0,0,0,0,0,0,0,0,0,0,0,0,0,0,0,0,0,0,0,0,0,0,0,0,0,0,0,0,0,0,0,0,0,0,0,0,0,0,0,0,0,0,0,0,0,0,0,0,0,0,0,0,0,0,0,0,0,0,0,0,0,0,0,0,0,0,0,0,0,0,0,0,0,0,0,0,0,0,0,0,0,0,0,0,0,0,0,0,0,0,0,0,0,0,0,0,0,0,0,0,0,0,0,0,0,0,0,0,5
Pelota03,z,0,-0.0179007311740092,0.627658007964756,0.125547331104143,-0.127019951194907,0.0637273732199498,0.72223365160819,0.0120669216302887,-0.0949969772537793,0.146442877003373,0.776361235131997,0.175902443509409,-0.303313816859846,1.40236825464299,0.380553442064771,0.143417244366728,0.124767321057068,0,0,0,0,0,0,0,0,0,0,0,0,0,0,0,0,0,0,0,0,0,0,0,0,0,0,0,0,0,0,0,0,0,0,0,0,0,0,0,0,0,0,0,0,0,0,0,0,0,0,0,0,0,0,0,0,0,0,0,0,0,0,0,0,0,0,0,0,0,0,0,0,0,0,0,0,0,0,0,0,0,0,0,0,0,0,0,0,0,0,0,0,0,0,0,0,0,0,0,0,0,0,0,0,0,0,0,0,0,0,0,0,5
Pelota03,z,0,-0.0227180783708712,0.642896238917317,0.129914909403311,-0.151149918605601,0.0611874716368978,0.729935231550488,0.00660125974829473,-0.0968454626637583,0.145996148512291,0.774318058354477,0.186463828814771,-0.297508857651456,1.38913531226571,0.367400017810596,0.18015590894092,0.170188581813665,0,0,0,0,0,0,0,0,0,0,0,0,0,0,0,0,0,0,0,0,0,0,0,0,0,0,0,0,0,0,0,0,0,0,0,0,0,0,0,0,0,0,0,0,0,0,0,0,0,0,0,0,0,0,0,0,0,0,0,0,0,0,0,0,0,0,0,0,0,0,0,0,0,0,0,0,0,0,0,0,0,0,0,0,0,0,0,0,0,0,0,0,0,0,0,0,0,0,0,0,0,0,0,0,0,0,0,0,0,0,0,0,5
Pelota03,z,0,-0.0313239776424349,0.6255357582132,0.140299393914531,-0.15241026990178,0.0570175218232132,0.690380647453668,0.0565999611190626,-0.106067462928928,0.142466756738765,0.725667190828645,0.207496175871272,-0.306838983212705,1.35409755026105,0.364458441980709,0.158209036830547,0.1542538110103,0,0,0,0,0,0,0,0,0,0,0,0,0,0,0,0,0,0,0,0,0,0,0,0,0,0,0,0,0,0,0,0,0,0,0,0,0,0,0,0,0,0,0,0,0,0,0,0,0,0,0,0,0,0,0,0,0,0,0,0,0,0,0,0,0,0,0,0,0,0,0,0,0,0,0,0,0,0,0,0,0,0,0,0,0,0,0,0,0,0,0,0,0,0,0,0,0,0,0,0,0,0,0,0,0,0,0,0,0,0,0,0,5
Pelota03,z,0,-0.0473666496314399,0.585088959615508,0.171121247554029,-0.164927535092175,0.0570642960031454,0.696656835574431,0.0102147839475001,-0.0806349158408554,0.148426592109753,0.753574913338562,0.186721804053014,-0.316348761280524,1.37412507582371,0.349778922361376,0.226276621942066,0.111425320713244,0,0,0,0,0,0,0,0,0,0,0,0,0,0,0,0,0,0,0,0,0,0,0,0,0,0,0,0,0,0,0,0,0,0,0,0,0,0,0,0,0,0,0,0,0,0,0,0,0,0,0,0,0,0,0,0,0,0,0,0,0,0,0,0,0,0,0,0,0,0,0,0,0,0,0,0,0,0,0,0,0,0,0,0,0,0,0,0,0,0,0,0,0,0,0,0,0,0,0,0,0,0,0,0,0,0,0,0,0,0,0,0,5
Pelota03,z,0,-0.0711202207897683,0.65183904328534,0.11237399460151,-0.169712812998449,0.0669202970778044,0.69758247596446,0.0184454846334241,-0.0983841363951069,0.139279086623889,0.727528006080466,0.201624675629736,-0.305317621927353,1.35673947404134,0.328549257080049,0.120022482870198,0.193794783533694,0,0,0,0,0,0,0,0,0,0,0,0,0,0,0,0,0,0,0,0,0,0,0,0,0,0,0,0,0,0,0,0,0,0,0,0,0,0,0,0,0,0,0,0,0,0,0,0,0,0,0,0,0,0,0,0,0,0,0,0,0,0,0,0,0,0,0,0,0,0,0,0,0,0,0,0,0,0,0,0,0,0,0,0,0,0,0,0,0,0,0,0,0,0,0,0,0,0,0,0,0,0,0,0,0,0,0,0,0,0,0,0,5
Pelota03,z,0,-0.0560199379816322,0.580403445183173,0.17661724481136,-0.177818763393674,0.0511012587971242,0.680592957952075,0.0243799753662072,-0.0951758356916743,0.147045851873643,0.766295443171467,0.182972056709132,-0.323062411977395,1.39327311533796,0.309465702214671,0.167895673874128,0.134810964287314,0,0,0,0,0,0,0,0,0,0,0,0,0,0,0,0,0,0,0,0,0,0,0,0,0,0,0,0,0,0,0,0,0,0,0,0,0,0,0,0,0,0,0,0,0,0,0,0,0,0,0,0,0,0,0,0,0,0,0,0,0,0,0,0,0,0,0,0,0,0,0,0,0,0,0,0,0,0,0,0,0,0,0,0,0,0,0,0,0,0,0,0,0,0,0,0,0,0,0,0,0,0,0,0,0,0,0,0,0,0,0,0,5
Pelota03,z,0,-0.048205402745404,0.657274765926698,0.0956553484703976,-0.216829315515679,0.0805444749535529,0.761948588483961,-0.0714997143124859,-0.101152456592047,0.179014559396027,0.829899313242401,0.124237361945113,-0.305357330539164,1.41504501692476,0.310146246304377,0.142887101566135,0.283136378244785,0,0,0,0,0,0,0,0,0,0,0,0,0,0,0,0,0,0,0,0,0,0,0,0,0,0,0,0,0,0,0,0,0,0,0,0,0,0,0,0,0,0,0,0,0,0,0,0,0,0,0,0,0,0,0,0,0,0,0,0,0,0,0,0,0,0,0,0,0,0,0,0,0,0,0,0,0,0,0,0,0,0,0,0,0,0,0,0,0,0,0,0,0,0,0,0,0,0,0,0,0,0,0,0,0,0,0,0,0,0,0,0,5
Pelota03,z,0,-0.053787028227596,0.571111780696221,0.182880561764848,-0.20147789241381,0.0485130987239524,0.647917920615029,0.0446740801499232,-0.092241629920635,0.142885997136562,0.711801666665189,0.202169880090382,-0.300040752491042,1.36776515879488,0.374162017256904,0.228704646295063,0.0856943501862678,0,0,0,0,0,0,0,0,0,0,0,0,0,0,0,0,0,0,0,0,0,0,0,0,0,0,0,0,0,0,0,0,0,0,0,0,0,0,0,0,0,0,0,0,0,0,0,0,0,0,0,0,0,0,0,0,0,0,0,0,0,0,0,0,0,0,0,0,0,0,0,0,0,0,0,0,0,0,0,0,0,0,0,0,0,0,0,0,0,0,0,0,0,0,0,0,0,0,0,0,0,0,0,0,0,0,0,0,0,0,0,0,5
Pelota03,z,0,-0.0525809501657035,0.613536253468739,0.161195039902047,-0.179873642923416,0.0637915163357946,0.701299673714854,0.00689681171034251,-0.0961776425028592,0.147638188446916,0.766970576733804,0.182871188643294,-0.312548560017064,1.40025386891101,0.339952971710197,0.170660886306907,0.145047251780116,0,0,0,0,0,0,0,0,0,0,0,0,0,0,0,0,0,0,0,0,0,0,0,0,0,0,0,0,0,0,0,0,0,0,0,0,0,0,0,0,0,0,0,0,0,0,0,0,0,0,0,0,0,0,0,0,0,0,0,0,0,0,0,0,0,0,0,0,0,0,0,0,0,0,0,0,0,0,0,0,0,0,0,0,0,0,0,0,0,0,0,0,0,0,0,0,0,0,0,0,0,0,0,0,0,0,0,0,0,0,0,0,5
Pelota03,z,0,-0.053419584781452,0.552878130004602,0.183706191274634,-0.186706036566131,0.0518255483396257,0.634009874363004,0.0628497351596752,-0.0994959123442541,0.142800589808675,0.684502170123058,0.217439784506515,-0.30767066098583,1.36733972633755,0.375568666205002,0.242648240200061,0.09946249878588,0,0,0,0,0,0,0,0,0,0,0,0,0,0,0,0,0,0,0,0,0,0,0,0,0,0,0,0,0,0,0,0,0,0,0,0,0,0,0,0,0,0,0,0,0,0,0,0,0,0,0,0,0,0,0,0,0,0,0,0,0,0,0,0,0,0,0,0,0,0,0,0,0,0,0,0,0,0,0,0,0,0,0,0,0,0,0,0,0,0,0,0,0,0,0,0,0,0,0,0,0,0,0,0,0,0,0,0,0,0,0,0,5
Pelota03,z,0,-0.0683070680998395,0.561960345226104,0.203195869562923,-0.163650075876279,0.0435664083238626,0.658888846087871,0.0706006096020989,-0.0893072369384326,0.147191800175415,0.775483407196377,0.176944438257145,-0.321282275914401,1.36349799737313,0.313734775542601,0.186633984796791,0.0811337137992238,0,0,0,0,0,0,0,0,0,0,0,0,0,0,0,0,0,0,0,0,0,0,0,0,0,0,0,0,0,0,0,0,0,0,0,0,0,0,0,0,0,0,0,0,0,0,0,0,0,0,0,0,0,0,0,0,0,0,0,0,0,0,0,0,0,0,0,0,0,0,0,0,0,0,0,0,0,0,0,0,0,0,0,0,0,0,0,0,0,0,0,0,0,0,0,0,0,0,0,0,0,0,0,0,0,0,0,0,0,0,0,0,5
Pelota03,z,0,-0.0742510501467655,0.596003750489787,0.159693372084,-0.151315949830304,0.0474057345971388,0.692027321172508,0.00911685341445523,-0.0901478315015307,0.14983311205819,0.711009718262326,0.211734592475417,-0.295831666447825,1.36873801826799,0.374885643818749,0.220272225826733,0.0886064447447911,0,0,0,0,0,0,0,0,0,0,0,0,0,0,0,0,0,0,0,0,0,0,0,0,0,0,0,0,0,0,0,0,0,0,0,0,0,0,0,0,0,0,0,0,0,0,0,0,0,0,0,0,0,0,0,0,0,0,0,0,0,0,0,0,0,0,0,0,0,0,0,0,0,0,0,0,0,0,0,0,0,0,0,0,0,0,0,0,0,0,0,0,0,0,0,0,0,0,0,0,0,0,0,0,0,0,0,0,0,0,0,0,5
Pelota03,z,0,-0.0368002827155394,0.556467301658017,0.195516708128944,-0.190792755660654,0.0433494378937206,0.631404378058733,0.0654389850184586,-0.11188086351947,0.131563382860216,0.723268019840176,0.189001599037722,-0.329777417364703,1.35811417496015,0.380856431839608,0.239455988216735,0.101680515599262,0,0,0,0,0,0,0,0,0,0,0,0,0,0,0,0,0,0,0,0,0,0,0,0,0,0,0,0,0,0,0,0,0,0,0,0,0,0,0,0,0,0,0,0,0,0,0,0,0,0,0,0,0,0,0,0,0,0,0,0,0,0,0,0,0,0,0,0,0,0,0,0,0,0,0,0,0,0,0,0,0,0,0,0,0,0,0,0,0,0,0,0,0,0,0,0,0,0,0,0,0,0,0,0,0,0,0,0,0,0,0,0,5
Pelota03,z,0,-0.0389372100706036,0.53715697589865,0.210457744035218,-0.185490513630514,0.0484094714889741,0.637782465636175,0.0577360744501447,-0.109436800237111,0.146040541452437,0.68247399699768,0.222299952036971,-0.311241486024017,1.37185131447993,0.38883696675346,0.24979473655228,0.0724699243195622,0,0,0,0,0,0,0,0,0,0,0,0,0,0,0,0,0,0,0,0,0,0,0,0,0,0,0,0,0,0,0,0,0,0,0,0,0,0,0,0,0,0,0,0,0,0,0,0,0,0,0,0,0,0,0,0,0,0,0,0,0,0,0,0,0,0,0,0,0,0,0,0,0,0,0,0,0,0,0,0,0,0,0,0,0,0,0,0,0,0,0,0,0,0,0,0,0,0,0,0,0,0,0,0,0,0,0,0,0,0,0,0,5
Pelota03,z,0,-0.0684383184278257,0.632732329536212,0.167037204318425,-0.199419157335677,0.0529510360238366,0.677487674278997,0.0221760084450975,-0.115777391852774,0.146570744546207,0.715238816085215,0.208101801005667,-0.341009898395213,1.34725396705634,0.364683205681329,0.218096854001643,0.109931593256693,0,0,0,0,0,0,0,0,0,0,0,0,0,0,0,0,0,0,0,0,0,0,0,0,0,0,0,0,0,0,0,0,0,0,0,0,0,0,0,0,0,0,0,0,0,0,0,0,0,0,0,0,0,0,0,0,0,0,0,0,0,0,0,0,0,0,0,0,0,0,0,0,0,0,0,0,0,0,0,0,0,0,0,0,0,0,0,0,0,0,0,0,0,0,0,0,0,0,0,0,0,0,0,0,0,0,0,0,0,0,0,0,5
Pelota03,z,0,-0.0705213867429696,0.613799341287481,0.17066950100583,-0.192990271798354,0.0661564292407298,0.692223416966503,0.042138910423956,-0.116568135844441,0.133608856599474,0.717763272406893,0.202930382388645,-0.310750263004044,1.34111812015075,0.366636627996389,0.121091449257474,0.200701629413817,0,0,0,0,0,0,0,0,0,0,0,0,0,0,0,0,0,0,0,0,0,0,0,0,0,0,0,0,0,0,0,0,0,0,0,0,0,0,0,0,0,0,0,0,0,0,0,0,0,0,0,0,0,0,0,0,0,0,0,0,0,0,0,0,0,0,0,0,0,0,0,0,0,0,0,0,0,0,0,0,0,0,0,0,0,0,0,0,0,0,0,0,0,0,0,0,0,0,0,0,0,0,0,0,0,0,0,0,0,0,0,0,5
Pelota03,z,0,-0.0298029177472355,0.598887328411715,0.176152604368398,-0.163500398376184,0.0450545327631672,0.651626185154538,0.0719476148751516,-0.0896126482496209,0.144820709145653,0.734527125547344,0.179287455075394,-0.281650635668467,1.37736831691068,0.378051595234927,0.197357601456558,0.134570983847686,0,0,0,0,0,0,0,0,0,0,0,0,0,0,0,0,0,0,0,0,0,0,0,0,0,0,0,0,0,0,0,0,0,0,0,0,0,0,0,0,0,0,0,0,0,0,0,0,0,0,0,0,0,0,0,0,0,0,0,0,0,0,0,0,0,0,0,0,0,0,0,0,0,0,0,0,0,0,0,0,0,0,0,0,0,0,0,0,0,0,0,0,0,0,0,0,0,0,0,0,0,0,0,0,0,0,0,0,0,0,0,0,5
Pelota04,z,0,0.0033803059536334,0.651155798293101,0.113523962983154,-0.161433287299585,0.0581860054804367,0.644691807062582,-0.0129947846733572,-0.0731999469756871,0.144742444752076,0.697739223286618,0.207459006648258,-0.290561378410638,1.3410696371124,0.390133636086358,0.200133072007314,0.186438545931063,0,0,0,0,0,0,0,0,0,0,0,0,0,0,0,0,0,0,0,0,0,0,0,0,0,0,0,0,0,0,0,0,0,0,0,0,0,0,0,0,0,0,0,0,0,0,0,0,0,0,0,0,0,0,0,0,0,0,0,0,0,0,0,0,0,0,0,0,0,0,0,0,0,0,0,0,0,0,0,0,0,0,0,0,0,4,4,0,0,0,5,0,0,0,0,0,0,0,0,0,0,0,0,0,0,0,0,0,0,0,0,0,6
Pelota04,z,0,0.0534668049623534,0.644353606812958,0.160820954796722,-0.152728051564626,0.0653895448388937,0.642080806332953,0.0466951035193491,-0.131346606072242,0.145053790861669,0.707849894203748,0.258528165444792,-0.258115666803738,1.33731635368288,0.367960726833886,0.231971979225194,0.166297814455571,0,0,0,0,0,0,0,0,0,0,0,0,0,0,0,0,0,0,0,0,0,0,0,0,0,0,0,0,0,0,0,0,0,0,0,0,0,0,0,0,0,0,0,0,0,0,0,0,0,0,0,0,0,0,0,0,0,0,0,0,0,0,0,0,0,0,0,0,0,0,0,0,0,0,0,0,0,0,0,0,0,0,0,0,0,0,0,0,0,0,4,0,0,0,3,0,0,0,0,0,0,0,0,0,0,0,0,0,0,0,0,0,6
Pelota04,z,0,-0.0158287630360062,0.615215582220296,0.136497112153092,-0.174185348774192,0.0594058617459747,0.638607787054314,0.0333294619645479,-0.122326068318355,0.147546099242265,0.733572870302036,0.230420470906494,-0.266525556032802,1.34530693843897,0.366744122571017,0.208654652174259,0.185649655780906,0,0,0,0,0,0,0,0,0,0,0,0,0,0,0,0,0,0,0,0,0,0,0,0,0,0,0,0,0,0,0,0,0,0,0,0,0,0,0,0,0,0,0,0,0,0,0,0,0,0,0,0,0,0,0,0,0,0,0,0,0,0,0,0,0,0,0,0,0,0,0,0,0,0,0,0,0,0,0,0,0,0,0,0,0,0,0,0,0,0,8,0,0,0,0,0,0,0,0,0,0,0,0,0,0,0,0,0,0,0,0,0,6
Pelota04,z,0,-0.0119943401776082,0.669548573037272,0.203363423492471,-0.128504587457584,0.0568267275430967,0.730007217988561,-0.0415381354183134,-0.0976577211686311,0.0389300223623818,0.766111752903837,0.239950980540632,-0.248246818165849,1.30437007559362,0.331684707606723,0.265955097741071,0.154509376102807,0,0,0,0,0,0,0,0,0,0,0,0,0,0,0,0,0,0,0,0,0,0,0,0,0,0,0,0,0,0,0,0,0,0,0,0,0,0,0,0,0,0,0,0,0,0,0,0,0,0,0,0,0,0,0,0,0,0,0,0,0,0,0,0,0,0,0,0,0,0,0,0,0,0,0,0,0,0,0,0,0,0,0,0,0,0,0,0,0,0,0,0,0,0,0,0,0,4,0,0,0,0,0,0,0,0,0,0,0,0,0,0,6
Pelota04,z,0,-0.0173962860181853,0.65411151661075,0.110485569203139,-0.169654517614108,0.0535525835604596,0.650773671744766,0.000836465883506721,-0.0590841327028058,0.151029505984096,0.738589902959588,0.188371471470271,-0.306873458525444,1.36936438560208,0.399634076942116,0.145025959531045,0.207069430803275,0,0,0,0,0,0,0,0,0,0,0,0,0,0,0,0,0,0,0,0,0,0,0,0,0,0,0,0,0,0,0,0,0,0,0,0,0,0,0,0,0,0,0,0,0,0,0,0,0,0,0,0,0,0,0,0,0,0,0,0,0,0,0,0,0,0,0,0,0,0,0,0,0,0,0,0,0,0,0,0,0,0,0,0,0,3,6,0,0,0,7,0,0,0,0,0,0,0,0,0,0,0,0,0,0,0,0,0,0,0,0,0,6
Pelota04,z,0,-0.00320787476553114,0.636513082452322,0.108023626839785,-0.19169177384075,0.047823739367131,0.631798678907811,0.00636364385093369,-0.10137328236505,0.149945190305844,0.70826676745816,0.205337641368194,-0.294398528140026,1.36752354433124,0.380765199626761,0.203771899287625,0.194836454799228,0,0,0,0,0,0,0,0,0,0,0,0,0,0,0,0,0,0,0,0,0,0,0,0,0,0,0,0,0,0,0,0,0,0,0,0,0,0,0,0,0,0,0,0,0,0,0,0,0,0,0,0,0,0,0,0,0,0,0,0,0,0,0,0,0,0,0,0,0,0,0,0,0,0,0,0,0,0,0,0,0,0,0,0,0,0,5,0,0,0,7,0,0,0,0,0,0,0,0,0,0,0,0,0,0,0,0,0,0,0,0,0,6
Pelota04,z,0,-0.0248299211722886,0.624054348477739,0.058778547835307,-0.18637029580139,0.0637761365960647,0.623431131463752,-0.000434693642757389,-0.0958401940838031,0.153997871554738,0.7284185013995,0.190889433179062,-0.323340572250393,1.35673983441441,0.379417326249519,0.230804806923985,0.153019973767258,0,0,0,0,0,0,0,0,0,0,0,0,0,0,0,0,0,0,0,0,0,0,0,0,0,0,0,0,0,0,0,0,0,0,0,0,0,0,0,0,0,0,0,0,0,0,0,0,0,0,0,0,0,0,0,0,0,0,0,0,0,0,0,0,0,0,0,0,0,0,0,0,0,0,0,0,0,0,0,0,0,0,0,0,0,0,6,0,0,0,8,0,0,0,0,0,0,0,0,0,0,0,0,0,0,0,0,0,0,0,0,0,6
Pelota04,z,0,0.0809517649226429,0.663661520236547,0.170863958066379,-0.180003486693558,0.0489702549160424,0.626675597896141,0.0623905479266378,-0.13935277070908,0.131416470137469,0.690849890188221,0.231038842475185,-0.337655341717101,1.32204462262362,0.376267472768499,0.190270079263355,0.203494528552076,0,0,0,0,0,0,0,0,0,0,0,0,0,0,0,0,0,0,0,0,0,0,0,0,0,0,0,0,0,0,0,0,0,0,0,0,0,0,0,0,0,0,0,0,0,0,0,0,0,0,0,0,0,0,0,0,0,0,0,0,0,0,0,0,0,0,0,0,0,0,0,0,0,0,0,0,0,0,0,0,0,0,0,0,0,7,0,0,0,4,0,0,0,0,0,0,0,0,0,0,0,0,0,0,0,0,0,0,0,0,0,0,6
Pelota04,z,0,-0.00112662136131469,0.595461076615374,0.149688385121599,-0.206756662030621,0.0611861873525126,0.637663665249475,0.0332924526364256,-0.12448925800248,0.166627553969347,0.802540731963942,0.170320953238123,-0.299720253349418,1.42875033817372,0.385594947918502,0.188880443536958,0.193503111711768,0,0,0,0,0,0,0,0,0,0,0,0,0,0,0,0,0,0,0,0,0,0,0,0,0,0,0,0,0,0,0,0,0,0,0,0,0,0,0,0,0,0,0,0,0,0,0,0,0,0,0,0,0,0,0,0,0,0,0,0,0,0,0,0,0,0,0,0,0,0,0,0,0,0,0,0,0,0,0,0,0,0,0,0,0,0,0,0,0,0,0,4,0,0,0,7,0,0,0,0,0,0,0,0,0,0,0,0,0,0,0,0,6
Pelota04,z,0,0.0568209825691903,0.651595946921062,0.151715034604795,-0.197405605055245,0.0497264728060717,0.627193069269355,-0.00695609564603805,-0.0933581814683774,0.14330752876711,0.676136557953464,0.212534863233057,-0.307320248167753,1.34368613058388,0.380198172723436,0.249040924576781,0.149293386015619,0,0,0,0,0,0,0,0,0,0,0,0,0,0,0,0,0,0,0,0,0,0,0,0,0,0,0,0,0,0,0,0,0,0,0,0,0,0,0,0,0,0,0,0,0,0,0,0,0,0,0,0,0,0,0,0,0,0,0,0,0,0,0,0,0,0,0,0,0,0,0,0,0,0,0,0,0,0,0,0,0,0,0,0,0,4,4,0,0,0,5,0,0,0,0,0,0,0,0,0,0,0,0,0,0,0,0,0,0,0,0,0,6
Pelota04,z,0,-0.0126420626125783,0.651879997452938,0.0988439896206751,-0.159990359806332,0.0616769477739203,0.627351863518587,0.0339786230725591,-0.118823659069517,0.13399891178181,0.679287688322992,0.24433188162686,-0.289758398291889,1.31404186781182,0.388189544547301,0.232750165702364,0.165272189931886,0,0,0,0,0,0,0,0,0,0,0,0,0,0,0,0,0,0,0,0,0,0,0,0,0,0,0,0,0,0,0,0,0,0,0,0,0,0,0,0,0,0,0,0,0,0,0,0,0,0,0,0,0,0,0,0,0,0,0,0,0,0,0,0,0,0,0,0,0,0,0,0,0,0,0,0,0,0,0,0,0,0,0,0,0,3,0,0,0,4,5,0,0,0,0,0,0,0,0,0,0,0,0,0,0,0,0,0,0,0,0,0,6
Pelota04,z,0,-0.0332666808263884,0.634613676168778,0.0617073991335451,-0.154825515675568,0.0685704644106686,0.631482615748043,-0.0088311072922197,-0.108120965232157,0.142229268872965,0.730160403074361,0.152334115559814,-0.2753352658719,1.36455287794759,0.37250363301521,0.241075173034174,0.156050322947058,0,0,0,0,0,0,0,0,0,0,0,0,0,0,0,0,0,0,0,0,0,0,0,0,0,0,0,0,0,0,0,0,0,0,0,0,0,0,0,0,0,0,0,0,0,0,0,0,0,0,0,0,0,0,0,0,0,0,0,0,0,0,0,0,0,0,0,0,0,0,0,0,0,0,0,0,0,0,0,0,0,0,0,0,0,0,3,0,0,0,10,0,0,0,0,0,0,0,0,0,0,0,0,0,0,0,0,0,0,0,0,0,6
Pelota04,z,0,-0.00136177375362128,0.668141821528271,0.0949235113934214,-0.177477469342306,0.0693887238310556,0.671158454734733,0.00195913077185794,-0.106293011672913,0.150062239460916,0.72994964951087,0.220647307691859,-0.288673877478857,1.3283099978682,0.361449147213455,0.196876797113484,0.201422163388987,0,0,0,0,0,0,0,0,0,0,0,0,0,0,0,0,0,0,0,0,0,0,0,0,0,0,0,0,0,0,0,0,0,0,0,0,0,0,0,0,0,0,0,0,0,0,0,0,0,0,0,0,0,0,0,0,0,0,0,0,0,0,0,0,0,0,0,0,0,0,0,0,0,0,0,0,0,0,0,0,0,0,0,0,0,0,0,0,0,0,3,0,0,3,0,0,0,0,0,0,0,0,0,0,0,0,0,0,0,0,0,0,6
Pelota04,z,0,-0.000790176052080316,0.619939040197176,0.124538758483135,-0.17737220742861,0.0565203775466396,0.626391231765483,0.0197138624201075,-0.0578136251495729,0.142954754064243,0.733624655123073,0.189093658694232,-0.323869360420553,1.34308958674206,0.379876158456597,0.190421199372185,0.187600658991363,0,0,0,0,0,0,0,0,0,0,0,0,0,0,0,0,0,0,0,0,0,0,0,0,0,0,0,0,0,0,0,0,0,0,0,0,0,0,0,0,0,0,0,0,0,0,0,0,0,0,0,0,0,0,0,0,0,0,0,0,0,0,0,0,0,0,0,0,0,0,0,0,0,0,0,0,0,0,0,0,0,0,0,0,0,3,6,0,0,0,3,0,0,0,0,0,0,0,0,0,0,0,0,0,0,0,0,0,0,0,0,0,6
Pelota04,z,0,0.0716689218817241,0.641109012387398,0.170184982432882,-0.179376652063461,0.0589622106895683,0.644882474460463,-0.00233997641303507,-0.0603785866001466,0.148636475617248,0.722937557925126,0.208091336344157,-0.302270919032571,1.34951283339716,0.373891468877327,0.202115464873002,0.17736822853002,0,0,0,0,0,0,0,0,0,0,0,0,0,0,0,0,0,0,0,0,0,0,0,0,0,0,0,0,0,0,0,0,0,0,0,0,0,0,0,0,0,0,0,0,0,0,0,0,0,0,0,0,0,0,0,0,0,0,0,0,0,0,0,0,0,0,0,0,0,0,0,0,0,0,0,0,0,0,0,0,0,0,0,0,0,0,0,0,0,0,5,0,0,0,0,0,0,0,0,0,0,0,0,0,0,0,0,0,0,0,0,0,6
Pelota04,z,0,-0.0226565918296034,0.635551104279174,0.0879509019343573,-0.172333611295446,0.0609182293257809,0.650683352340673,-0.0159983315816555,-0.0848195765125413,0.157114804530505,0.752447643890576,0.176742380296859,-0.298318070805418,1.38705656397289,0.390659799346954,0.174824911361691,0.196080384838565,0,0,0,0,0,0,0,0,0,0,0,0,0,0,0,0,0,0,0,0,0,0,0,0,0,0,0,0,0,0,0,0,0,0,0,0,0,0,0,0,0,0,0,0,0,0,0,0,0,0,0,0,0,0,0,0,0,0,0,0,0,0,0,0,0,0,0,0,0,0,0,0,0,0,0,0,0,0,0,0,0,0,0,0,0,0,3,0,0,0,7,0,0,0,0,0,0,0,0,0,0,0,0,0,0,0,0,0,0,0,0,0,6
Pelota04,z,0,-0.0220689936473574,0.648813582831805,0.0797974046422998,-0.175971096586395,0.0622194997145958,0.631476311429643,0.0250956728456992,-0.107762081372339,0.149204903335636,0.689767341139357,0.239838096484115,-0.296249439865838,1.34037021675912,0.380214829857585,0.209507540222691,0.179232624953507,0,0,0,0,0,0,0,0,0,0,0,0,0,0,0,0,0,0,0,0,0,0,0,0,0,0,0,0,0,0,0,0,0,0,0,0,0,0,0,0,0,0,0,0,0,0,0,0,0,0,0,0,0,0,0,0,0,0,0,0,0,0,0,0,0,0,0,0,0,0,0,0,0,0,0,0,0,0,0,0,0,0,0,0,0,0,5,0,0,0,7,0,0,0,0,0,0,0,0,0,0,0,0,0,0,0,0,0,0,0,0,0,6
Pelota04,z,0,-0.0118205903274605,0.643938430834773,0.107657542281097,-0.163472496474632,0.078729739369691,0.616974573610269,0.0608430290996144,-0.121424418814272,0.141643223938697,0.683094073088839,0.239714024302727,-0.294776883664103,1.32164803245671,0.376749364060108,0.227542456704082,0.155561897371047,0,0,0,0,0,0,0,0,0,0,0,0,0,0,0,0,0,0,0,0,0,0,0,0,0,0,0,0,0,0,0,0,0,0,0,0,0,0,0,0,0,0,0,0,0,0,0,0,0,0,0,0,0,0,0,0,0,0,0,0,0,0,0,0,0,0,0,0,0,0,0,0,0,0,0,0,0,0,0,0,0,0,0,0,0,3,3,0,0,3,6,0,0,0,0,0,0,0,0,0,0,0,0,0,0,0,0,0,0,0,0,0,6
Pelota04,z,0,-0.0129743175404198,0.619530376081643,0.116504098886761,-0.172246634744671,0.0628148000846998,0.632899690985718,0.00670374963757181,-0.0983674610472807,0.156100367616718,0.728620581441631,0.194952052198235,-0.298632955831468,1.37817476972774,0.396116119280275,0.228643885881708,0.151737252588706,0,0,0,0,0,0,0,0,0,0,0,0,0,0,0,0,0,0,0,0,0,0,0,0,0,0,0,0,3,0,0,0,0,0,0,0,0,0,0,0,0,0,0,0,0,0,0,0,0,0,0,0,0,0,0,0,0,0,0,0,0,0,0,0,0,0,0,0,0,0,0,0,0,0,0,0,0,0,0,0,0,0,0,0,0,0,3,0,0,0,8,0,0,0,0,0,0,0,0,0,0,0,0,0,0,0,0,0,0,0,0,0,6
Pelota04,z,0,-0.0099912892112877,0.629971363585703,0.11069956345347,-0.191796274428013,0.0553789660872014,0.626372201281303,-0.00455616060941511,-0.0998259268674679,0.148248238280291,0.682070314789808,0.184641461383137,-0.254406396485986,1.36660260724402,0.400128543249302,0.245351772230916,0.153197556125244,0,0,0,0,0,0,0,0,0,0,0,0,0,0,0,0,0,0,0,0,0,0,0,0,0,0,0,0,0,0,0,0,0,0,0,0,0,0,0,0,0,0,0,0,0,0,0,0,0,0,0,0,0,0,0,0,0,0,0,0,0,0,0,0,0,0,0,0,0,0,0,0,0,0,0,0,0,0,0,0,0,0,0,0,0,0,5,0,0,0,9,0,0,0,0,0,0,0,0,0,0,0,0,0,0,0,0,0,0,0,0,0,6
Vaso02,z,0,-0.0215579153083055,0.849890079436241,0.103136361727186,-0.184831252974678,0.0970534082417831,0.825435125189537,-0.014313748735579,-0.0876677186541813,0.11675611655576,0.863177130379591,0.219720706678702,-0.232455909022016,1.35511241031929,0.352785367963737,0.104602706409354,0.189878728741588,0,0,0,0,0,0,0,0,0,0,0,0,0,0,0,0,0,0,0,0,0,0,0,0,0,0,0,0,0,0,0,0,0,0,0,0,0,0,0,0,0,0,0,0,0,0,0,0,0,0,0,0,0,0,0,0,0,0,0,0,0,0,0,0,0,0,0,0,0,0,0,0,0,0,0,0,0,0,0,0,0,0,0,0,0,0,0,0,0,0,0,0,0,0,0,0,14,0,0,0,0,0,0,0,0,0,0,0,0,0,0,0,7
Vaso02,z,0,-0.0126889682508249,0.930749656234596,0.138072193901559,-0.216302832615072,0.141039360457108,0.810986219111194,0.0104989867762288,-0.126020361547246,0.10831719208984,0.767566342685607,0.241388546496095,-0.239051851824107,1.34895649345213,0.317265125954569,0.228311333234736,0.236519933876808,0,0,0,0,0,0,0,0,0,0,0,0,0,0,0,0,0,0,0,0,0,0,0,0,0,0,0,0,0,0,0,0,0,0,0,0,0,0,0,0,0,0,0,0,0,0,0,0,0,0,0,0,0,0,0,0,0,0,0,0,0,0,0,0,0,0,0,0,0,0,0,0,0,0,0,0,0,0,0,0,0,0,0,0,0,0,0,0,0,0,0,0,0,0,0,0,0,0,0,0,0,0,0,0,0,0,0,0,0,0,0,0,7
Vaso02,z,0,0.027451645118058,0.815952511558607,0.126711140743998,-0.172008773158891,0.0488271497736202,0.760409797211758,0.0413861845365668,-0.111315125542421,0.129766806689912,0.857135619894351,0.251729874754693,-0.254367835155607,1.31832556424796,0.341076906742321,0.202929059412736,0.141851640507862,0,0,0,0,0,0,0,0,0,0,0,0,0,0,0,0,0,0,0,0,0,0,0,0,0,0,0,0,0,0,0,0,0,0,0,0,0,0,0,0,0,0,0,0,0,0,0,0,0,0,0,0,0,0,0,0,0,0,0,0,0,0,0,0,0,0,0,0,0,0,0,0,0,0,0,0,0,0,0,0,0,0,0,0,0,0,0,0,0,0,0,0,0,0,0,0,8,3,0,0,0,0,0,0,0,0,0,0,0,0,0,0,7
Vaso02,z,0,0.100804289863797,0.657108154382663,0.192524738452811,-0.145265943478849,0.0508413065051858,0.680978071670338,0.0470859313255705,0.0577594814017709,0.211081389995865,0.98153571183859,0.172322882544066,-0.321556438558282,1.38422736966173,0.398400066297579,0.218130450979758,0.16220794856465,0,0,0,0,0,0,0,0,0,0,0,0,0,0,0,0,0,0,0,0,0,0,0,0,0,0,0,0,0,0,0,0,0,0,0,0,0,0,0,0,0,0,0,0,0,0,0,0,0,0,0,0,0,0,0,0,0,0,0,0,0,0,0,0,0,0,0,0,0,0,0,0,0,0,0,0,0,0,0,0,0,0,0,0,0,0,0,0,0,0,0,17,0,0,0,0,0,0,0,0,0,0,0,0,0,0,0,0,0,0,0,0,7
Vaso02,z,0,0.0512198905485127,0.688787455846905,0.155066856160231,-0.1749320947142,0.0712697790664299,0.713981351452545,-0.0143016719500365,-0.092761938671889,0.191128386087123,0.87048011887653,0.135829076659289,-0.288056474246717,1.36584743687281,0.377513223428007,0.23194832214394,0.112170689611062,0,0,0,0,0,0,0,0,0,0,0,0,0,0,0,0,0,0,0,0,0,0,0,0,0,0,0,0,0,0,0,0,0,0,0,0,0,0,0,0,0,0,0,0,0,0,0,0,0,0,0,0,0,0,0,0,0,0,0,0,0,0,0,0,0,0,0,0,0,0,0,0,0,0,0,0,0,0,0,0,0,0,0,0,0,0,5,0,0,0,22,0,0,0,0,0,0,0,0,0,0,0,0,0,0,0,0,0,0,0,0,0,7
Vaso02,z,180,-0.0364484511268124,0.605204876943306,0.164893280619923,-0.103905070176175,0.127372946692102,0.649383308298726,0.0152044234756406,-0.14946268829351,0.211021435283731,0.975079184986246,0.148323424167682,-0.325398126556549,1.42360211459643,0.475495352508461,0.287004579465303,0.148292501683156,0,0,0,0,0,0,0,0,0,0,0,0,6,0,0,0,0,0,0,0,0,0,0,0,0,0,0,0,0,0,0,0,0,0,0,0,0,0,0,0,0,0,0,0,0,0,0,0,0,0,0,0,0,0,0,0,0,0,0,0,0,0,0,0,0,0,0,0,0,0,0,0,0,0,0,0,0,0,0,0,0,0,0,0,0,0,0,6,0,0,0,0,0,0,0,0,0,0,0,0,0,0,0,0,0,0,0,0,0,0,0,0,7
Vaso02,x,0,-0.0148277250027076,0.865773356683485,0.0601132787244377,-0.22357477849634,0.125127144353707,0.891690677916865,-0.0894266763994599,-0.165879595276629,0.0276143098687028,0.869104744746438,0.160476552537468,-0.296749087108734,1.34769987081953,0.337362150399985,0.299539914640122,0.133934435723547,0,0,0,0,0,0,0,3,0,0,0,0,6,0,0,0,0,0,0,0,0,0,0,0,0,0,0,0,0,0,0,0,0,0,0,0,0,0,0,0,0,0,0,0,0,0,0,0,0,0,0,0,0,0,0,0,0,0,0,0,0,0,0,0,0,0,0,0,0,0,0,0,0,0,0,0,0,0,0,0,0,0,0,0,0,0,0,0,0,0,0,0,0,0,0,0,0,0,0,0,0,0,0,0,0,0,0,0,0,0,0,0,7
Vaso02,x,0,-0.116920581970543,0.581491885186386,0.130138709237923,-0.12367890572653,0.0598964596262934,0.693963023309653,0.000927844637518049,-0.113458689408196,0.143417257317029,0.689213012757814,0.211312334539672,-0.288221661825319,1.36568053832898,0.390038405549995,0.247645386980101,0.196071874873163,0,0,0,0,0,0,0,0,0,0,0,0,0,0,0,0,0,0,0,0,0,0,0,0,0,0,0,0,0,0,0,0,0,0,0,0,0,0,0,0,0,0,0,0,0,0,0,0,0,0,0,0,0,0,0,0,0,0,0,0,0,0,0,0,0,0,0,0,0,0,0,0,0,0,0,0,0,0,0,0,0,0,0,0,0,0,0,10,0,0,0,0,0,0,0,0,0,0,0,0,0,0,0,0,0,0,0,0,0,0,0,0,7
Vaso02,x,0,-0.0318147325524254,0.79731325536726,0.0831117108000533,-0.231359198855674,0.0978060394251169,0.838747550255706,-0.045142102365211,-0.160041616960662,0.078396718216571,0.831090174572321,0.256550370187498,-0.2570145404307,1.31892042339921,0.356906914308169,0.301612395968019,0.125401077804231,0,0,0,0,0,0,3,0,0,0,0,0,5,0,0,0,0,0,0,0,0,0,0,0,0,0,0,0,0,0,0,0,0,0,0,0,0,0,0,0,0,0,0,0,0,0,0,0,0,0,0,0,0,0,0,0,0,0,0,0,0,0,0,0,0,0,0,0,0,0,0,0,0,0,0,0,0,0,0,0,0,0,0,0,0,0,0,0,0,0,0,0,0,0,0,0,0,0,0,0,0,0,0,0,0,0,0,0,0,0,0,0,7
Vaso02,x,0,-0.0174544923153191,0.831354120083077,0.053158885313718,-0.223852481913978,0.104570330914033,0.843040296224694,-0.045884055924851,-0.166662456975942,0.0226014181192966,0.873018747654812,0.193984548695145,-0.275392521183414,1.32162129401671,0.328791490336641,0.29749618672055,0.134392741220603,0,0,0,0,0,0,0,5,0,0,0,0,6,0,0,0,0,0,0,0,0,0,0,0,0,0,0,0,0,0,0,0,0,0,0,0,0,0,0,0,0,0,0,0,0,0,0,0,0,0,0,0,0,0,0,0,0,0,0,0,0,0,0,0,0,0,0,0,0,0,0,0,0,0,0,0,0,0,0,0,0,0,0,0,0,0,0,0,0,0,0,0,0,0,0,0,0,0,0,0,0,0,0,0,0,0,0,0,0,0,0,0,7
Vaso02,x,0,-0.0334181308215505,0.77161278083714,0.0746521643650206,-0.197493007789298,0.0907469075939196,0.784270858232334,-0.00237617197555429,-0.138575019732429,0.128264187314259,0.827234061327037,0.2503793908943,-0.252431851377453,1.32173483447763,0.343669647006741,0.292780506542742,0.132063571715945,0,0,0,0,0,0,0,0,0,0,0,0,6,0,0,0,0,0,0,0,0,0,0,0,0,0,0,0,0,0,0,0,0,0,0,0,0,0,0,0,0,0,0,0,0,0,0,0,0,0,0,0,0,0,0,0,0,0,0,0,0,0,0,0,0,0,0,0,0,0,0,0,0,0,0,0,0,0,0,0,0,0,0,0,0,0,0,0,0,0,0,0,0,0,0,0,0,12,0,0,0,0,0,0,0,0,0,0,0,0,0,0,7
Vaso02,x,0,0.00444368488290733,0.823569796010677,0.0711046220743756,-0.23403865403181,0.105642902819621,0.809620886541034,-0.0255475283104074,-0.153139332972217,0.0365522704565942,0.861742796269338,0.188596145537449,-0.277299467276911,1.32332575108763,0.355848201985082,0.304909590973199,0.129310243764508,0,0,0,0,0,0,0,5,0,0,0,0,6,0,0,0,0,0,0,0,0,0,0,0,0,0,0,0,0,0,0,0,0,0,0,0,0,0,0,0,0,0,0,0,0,0,0,0,0,0,0,0,0,0,0,0,0,0,0,0,0,0,0,0,0,0,0,0,0,0,0,0,0,0,0,0,0,0,0,0,0,0,0,0,0,0,0,0,0,0,0,0,0,0,0,0,0,4,0,0,0,0,0,0,0,0,0,0,0,0,0,0,7
Vaso02,x,0,0.0267900892077586,0.849735057565827,0.0430931763340693,-0.234863881471055,0.125890240186126,0.813752542041709,-0.0386230850104393,-0.175175300886441,0.0905112446651041,0.788129521893118,0.224453180014256,-0.307748705919879,1.34979130518347,0.37099257135331,0.302716656058654,0.123789645146982,0,0,0,0,0,0,0,5,0,0,0,0,5,0,0,0,0,0,0,0,0,0,0,0,0,0,0,0,0,0,0,0,0,0,0,0,0,0,0,0,0,0,0,0,0,0,0,0,0,0,0,0,0,0,0,0,0,0,0,0,0,0,0,0,0,0,0,0,0,0,0,0,0,0,0,0,0,0,0,0,0,0,0,0,0,0,0,0,0,0,0,0,0,0,0,0,0,11,0,0,0,0,0,0,0,0,0,0,0,0,0,0,7
Vaso02,x,0,-0.0174526264409561,0.814694283834675,0.0562422331677379,-0.222668413975979,0.10339720110978,0.816709088957331,-0.0234182905898206,-0.156570462848197,0.0208069364713541,0.876621558255978,0.197136550769136,-0.289196690102204,1.31893628217891,0.313647009171337,0.29916176090074,0.13558907475509,0,0,0,0,0,0,0,3,0,0,0,0,6,0,0,0,0,0,0,0,0,0,0,0,0,0,0,0,0,0,0,0,0,0,0,0,0,0,0,0,0,0,0,0,0,0,0,0,0,0,0,0,0,0,0,0,0,0,0,0,0,0,0,0,0,0,0,0,0,0,0,0,0,0,0,0,0,0,0,0,0,0,0,0,0,0,0,0,0,0,0,0,0,0,0,0,0,0,0,0,0,0,0,0,0,0,0,0,0,0,0,0,7
Vaso02,x,0,-0.0319695950625289,0.751550933716062,0.0854306011873254,-0.173927826382961,0.0886955951100321,0.801961698758222,-0.0221775238195184,-0.149279242321637,0.149336752496634,0.861582683373772,0.28983111437218,-0.294515928743357,1.33410706818118,0.366886704850083,0.296196292699148,0.128229806827638,0,0,0,0,0,0,5,0,0,0,0,0,6,0,0,0,0,0,0,0,0,0,0,0,0,0,0,0,0,0,0,0,0,0,0,0,0,0,0,0,0,0,0,0,0,0,0,0,0,0,0,0,0,0,0,0,0,0,0,0,0,0,0,0,0,0,0,0,0,0,0,0,0,0,0,0,0,0,0,0,0,0,0,0,0,0,0,0,0,0,0,0,0,0,0,0,0,9,0,0,0,0,0,0,0,0,0,0,0,0,0,0,7
Vaso02,x,0,-0.0122896292212032,0.77490314814401,0.100156106967577,-0.186745274608245,0.0981412397641003,0.830913072542409,-0.048315264074931,-0.153958773381596,0.13757113212719,0.802463337020175,0.268773892788578,-0.243721145874628,1.32989886097372,0.371063535041974,0.291734423565039,0.132224868548152,0,0,0,0,0,0,0,0,0,0,0,0,6,0,0,0,0,0,0,0,0,0,0,0,0,0,0,0,0,0,0,0,0,0,0,0,0,0,0,0,0,0,0,0,0,0,0,0,0,0,0,0,0,0,0,0,0,0,0,0,0,0,0,0,0,0,0,0,0,0,0,0,0,0,0,0,0,0,0,0,0,0,0,0,0,0,0,0,0,0,0,0,0,0,0,0,0,0,0,0,0,0,0,0,0,0,0,0,0,0,0,0,7
Vaso02,x,0,-0.0317304847536123,0.767201136144884,0.0713475476139158,-0.194676536540641,0.091929533405348,0.808457612176474,-0.0276647161916761,-0.14712792577481,0.146025212332863,0.873647359646077,0.264143222968436,-0.284011567531451,1.33301129371336,0.357351290586363,0.271150186909202,0.156086985254679,0,0,0,0,0,0,6,0,0,0,0,0,6,0,0,0,0,0,0,0,0,0,0,0,0,0,0,0,0,0,0,0,0,0,0,0,0,0,0,0,0,0,0,0,0,0,0,0,0,0,0,0,0,0,0,0,0,0,0,0,0,0,0,0,0,0,0,0,0,0,0,0,0,0,0,0,0,0,0,0,0,0,0,0,0,0,0,0,0,0,0,0,0,0,0,0,0,10,0,0,0,0,0,0,0,0,0,0,0,0,0,0,7
Vaso02,x,0,-0.020335422491941,0.835363723118409,0.0376978940534417,-0.207934279545682,0.118952867170229,0.866071655746576,-0.0823452538577349,-0.159730145314371,0.138292172079915,0.779027963277398,0.270237085125357,-0.222342140379455,1.34872503656948,0.370514316377025,0.301680179931988,0.125468913051326,0,0,0,0,0,0,4,0,0,0,0,0,6,0,0,0,0,0,0,0,0,0,0,0,0,0,0,0,0,0,0,0,0,0,0,0,0,0,0,0,0,0,0,0,0,0,0,0,0,0,0,0,0,0,0,0,0,0,0,0,0,0,0,0,0,0,0,0,0,0,0,0,0,0,0,0,0,0,0,0,0,0,0,0,0,0,0,0,0,0,0,0,0,0,0,0,0,0,0,0,0,0,0,0,0,0,0,0,0,0,0,0,7
Vaso02,x,0,-0.0260205471951548,0.842689515491361,0.0385306446745057,-0.220850139099108,0.121804609243144,0.846428594882498,-0.066360335689172,-0.166268333500476,0.0505529991712615,0.812524362524896,0.215799646147279,-0.281131381830089,1.36241868711677,0.362530721596629,0.295609505735387,0.131265535836199,0,0,0,0,0,0,0,4,0,0,0,0,6,0,0,0,0,0,0,0,0,0,0,0,0,0,0,0,0,0,0,0,0,0,0,0,0,0,0,0,0,0,0,0,0,0,0,0,0,0,0,0,0,0,0,0,0,0,0,0,0,0,0,0,0,0,0,0,0,0,0,0,0,0,0,0,0,0,0,0,0,0,0,0,0,0,0,0,0,0,0,0,0,0,0,0,0,0,0,0,0,0,0,0,0,0,0,0,0,0,0,0,7
Vaso02,x,0,-0.0799862410355723,0.718609015888066,0.24091650381708,-0.131786182960204,-0.0188868001249277,0.741028222107467,-0.00647826639720539,-0.125074005189561,0.141598122585357,0.826763030873737,0.222668816179705,-0.249151205314707,1.27689226989272,0.317731480703039,0.255305635029097,0.189545981808777,0,0,0,0,0,0,0,0,0,0,0,0,0,0,0,0,0,0,0,0,0,0,0,0,0,0,0,0,0,0,0,0,0,0,0,0,0,0,0,0,0,0,0,0,0,0,0,0,0,0,0,0,0,0,0,0,0,0,0,0,0,0,0,0,0,0,0,0,0,0,0,0,0,0,0,0,0,0,0,0,0,0,0,0,0,3,0,0,0,15,0,0,0,0,0,0,0,0,0,0,0,0,0,0,0,0,0,0,0,0,0,0,7
